; generated by PrusaSlicer 2.3.1+win64 on 2021-06-23 at 12:38:25 UTC


;
;

;
;
; 

; external perimeters extrusion width = 1.12mm
; perimeters extrusion width = 1.12mm
; infill extrusion width = 1.12mm
; solid infill extrusion width = 1.12mm
; top infill extrusion width = 1.00mm
; first layer extrusion width = 1.00mm

M73 P0 R214
M201 X1250 Y1250 Z1250 E5000 ; sets maximum accelerations, mm/sec^2
M203 X200 Y200 Z200 E200 ; sets maximum feedrates, mm/sec
M204 P1250 R1250 T1250 ; sets acceleration (P, T) and retract acceleration (R), mm/sec^2
M205 X8.00 Y8.00 Z2.00 E10.00 ; sets the jerk limits, mm/sec
M205 S0 T0 ; sets the minimum extruding and travel feed rate, mm/sec
M107
M190 S85 ; set bed temperature and wait for it to be reached
;TYPE:Custom
G90 ; use absolute coordinates
M83 ; extruder relative mode
G28 ; home all without mesh bed level
G29 ; mesh bed leveling 
M104 S230 ; set extruder temp
G92 E0.0
G1 Y-2.0 X179 F2400
G1 Z3 F720
M109 S230 ; wait for extruder temp

; intro line
G1 X170 F1000
G1 Z0.2 F720
G1 X110.0 E8.0 F900
G1 X40.0 E10.0 F700
G92 E0.0

M221 S95 ; set flow
G21 ; set units to millimeters
G90 ; use absolute coordinates
M83 ; use relative distances for extrusion
M900 K0.2 ; Filament gcode
;LAYER_CHANGE
;Z:0.5
;HEIGHT:0.5
;BEFORE_LAYER_CHANGE
G92 E0.0
;0.5


G1 E-3.20000 F2400.000
G1 Z0.200 F15600.000
G1 Z0.500
;AFTER_LAYER_CHANGE
;0.5
G1 Z0.700
G1 X162.649 Y182.279
G1 Z0.500
G1 E3.20000 F1500.000
;TYPE:Skirt
;WIDTH:1
G1 F940.967
G1 X163.481 Y181.643 E0.19438
G1 X164.643 Y180.951 E0.25095
G1 X165.904 Y180.413 E0.25442
G1 X167.284 Y180.032 E0.26569
G1 X168.599 Y179.850 E0.24640
G1 X215.421 Y176.994 E8.70478
G1 X217.511 Y176.929 E0.38819
G1 X220.154 Y177.017 E0.49063
G1 X222.301 Y177.230 E0.40040
G1 X224.407 Y177.566 E0.39573
G1 X227.054 Y178.170 E0.50393
G1 X229.105 Y178.781 E0.39705
G1 X231.663 Y179.733 E0.50649
G1 X233.815 Y180.711 E0.43858
G1 X236.054 Y181.914 E0.47169
G1 X237.908 Y183.070 E0.40557
G1 X240.124 Y184.666 E0.50673
G1 X242.092 Y186.315 E0.47638
G1 X243.767 Y187.920 E0.43048
G1 X245.326 Y189.615 E0.42744
G1 X246.980 Y191.675 E0.49018
G1 X248.294 Y193.560 E0.42654
G1 X249.508 Y195.578 E0.43692
G1 X249.968 Y196.597 E0.20743
G1 X250.320 Y197.716 E0.21770
G1 X250.537 Y198.906 E0.22456
G1 X250.601 Y200.080 E0.21820
G1 X250.521 Y201.230 E0.21384
G1 X250.305 Y202.343 E0.21037
G1 X249.963 Y203.414 E0.20869
G1 X249.502 Y204.435 E0.20788
G1 X248.440 Y206.215 E0.38472
G1 X247.248 Y207.961 E0.39225
G1 X246.086 Y209.477 E0.35453
G1 X244.572 Y211.231 E0.42998
G1 X243.068 Y212.774 E0.39975
G1 X241.556 Y214.157 E0.38040
G1 X240.030 Y215.407 E0.36599
G1 X238.315 Y216.656 E0.39361
G1 X235.971 Y218.133 E0.51428
G1 X233.452 Y219.466 E0.52882
G1 X230.878 Y220.583 E0.52065
G1 X228.379 Y221.451 E0.49093
G1 X225.431 Y222.224 E0.56557
G1 X222.682 Y222.718 E0.51830
G1 X220.206 Y222.979 E0.46212
G1 X217.384 Y223.071 E0.52390
G1 X215.371 Y223.002 E0.37366
G1 X168.054 Y220.094 E8.79725
G1 X167.047 Y219.915 E0.18981
G1 X165.940 Y219.600 E0.21355
G1 X164.855 Y219.152 E0.21796
G1 X163.965 Y218.671 E0.18773
G1 X163.021 Y218.023 E0.21239
G1 X162.258 Y217.370 E0.18635
G1 X161.578 Y216.661 E0.18229
G1 X160.860 Y215.736 E0.21736
G1 X160.130 Y214.492 E0.26763
G1 X159.584 Y213.175 E0.26461
G1 X159.219 Y211.790 E0.26572
G1 X159.042 Y210.425 E0.25545
G1 X159.047 Y189.505 E3.88205
G1 X159.207 Y188.270 E0.23124
G1 X159.503 Y187.078 E0.22782
G1 X159.862 Y186.092 E0.19477
G1 X160.397 Y185.005 E0.22478
G1 X160.996 Y184.072 E0.20576
G1 X161.763 Y183.132 E0.22510
G1 X162.541 Y182.383 E0.20041
G1 E-2.24000 F2400.000
;WIPE_START
G1 F12480.000
G1 X163.481 Y181.643 E-0.21862
G1 X164.643 Y180.951 E-0.24705
G1 X165.904 Y180.413 E-0.25048
G1 X166.937 Y180.128 E-0.19585
;WIPE_END
G1 E-0.04800 F2400.000
G1 Z0.700 F15600.000
G1 X214.327 Y197.062
G1 Z0.500
G1 E3.20000 F1500.000
;TYPE:External perimeter
G1 F940.967
G1 X214.528 Y196.799 E0.06146
G1 X214.792 Y196.575 E0.06417
G1 X215.101 Y196.407 E0.06519
G1 X215.439 Y196.303 E0.06573
G1 X215.700 Y196.272 E0.04867
G1 X215.974 Y196.281 E0.05087
G1 X216.295 Y196.368 E0.06185
G1 X216.606 Y196.529 E0.06492
G1 X216.872 Y196.774 E0.06707
G1 X217.111 Y197.084 E0.07278
G1 X217.325 Y197.628 E0.10848
G1 X217.876 Y198.647 E0.21484
G1 X218.253 Y197.832 E0.16652
G1 X218.408 Y197.570 E0.05653
G1 X218.451 Y197.392 E0.03394
G1 X218.685 Y196.971 E0.08928
G1 X219.077 Y196.573 E0.10374
G1 X219.390 Y196.395 E0.06687
G1 X219.708 Y196.291 E0.06214
G1 X220.039 Y196.273 E0.06157
G1 X220.241 Y196.306 E0.03788
G1 X220.540 Y196.414 E0.05897
G1 X220.831 Y196.603 E0.06446
G1 X221.066 Y196.854 E0.06380
G1 X221.222 Y197.083 E0.05142
G1 X221.353 Y197.422 E0.06750
G1 X221.391 Y197.749 E0.06101
G1 X221.371 Y198.208 E0.08526
G1 X221.285 Y198.548 E0.06513
G1 X221.110 Y198.925 E0.07718
G1 X220.665 Y199.705 E0.16655
G1 X219.922 Y200.921 E0.26447
G1 X219.799 Y201.214 E0.05888
G1 X219.763 Y201.407 E0.03648
G1 X219.777 Y201.565 E0.02944
G1 X219.847 Y201.750 E0.03662
G1 X220.360 Y202.586 E0.18206
G1 X220.776 Y203.336 E0.15922
G1 X221.188 Y203.982 E0.14223
G1 X221.369 Y204.323 E0.07161
G1 X221.491 Y204.662 E0.06678
G1 X221.542 Y204.868 E0.03937
G1 X221.579 Y205.239 E0.06928
G1 X221.552 Y205.588 E0.06498
G1 X221.509 Y205.782 E0.03680
G1 X221.440 Y205.970 E0.03726
G1 X221.269 Y206.265 E0.06326
G1 X221.031 Y206.511 E0.06354
G1 X220.745 Y206.693 E0.06284
G1 X220.410 Y206.820 E0.06647
G1 X219.901 Y206.885 E0.09517
G1 X219.542 Y206.836 E0.06736
G1 X219.188 Y206.701 E0.07027
G1 X218.922 Y206.517 E0.06011
G1 X218.684 Y206.262 E0.06462
G1 X218.496 Y205.944 E0.06866
G1 X218.393 Y205.690 E0.05073
G1 X218.300 Y205.297 E0.07498
G1 X218.015 Y204.793 E0.10742
G1 X217.623 Y204.464 E0.09496
G1 X217.233 Y205.202 E0.15488
G1 X217.144 Y205.401 E0.04051
G1 X217.057 Y205.720 E0.06130
G1 X216.818 Y206.145 E0.09037
G1 X216.680 Y206.317 E0.04094
G1 X216.446 Y206.539 E0.05994
G1 X216.289 Y206.649 E0.03557
G1 X216.015 Y206.776 E0.05608
G1 X215.787 Y206.830 E0.04345
G1 X215.442 Y206.832 E0.06409
G1 X215.100 Y206.731 E0.06621
G1 X214.789 Y206.555 E0.06631
G1 X214.523 Y206.289 E0.06971
G1 X214.408 Y206.088 E0.04303
G1 X214.213 Y205.528 E0.11005
G1 X214.220 Y205.100 E0.07939
G1 X214.298 Y204.782 E0.06083
G1 X214.475 Y204.349 E0.08668
G1 X214.605 Y203.894 E0.08792
G1 X214.722 Y203.600 E0.05868
G1 X215.177 Y202.733 E0.18175
G1 X215.427 Y202.314 E0.09050
G1 X216.006 Y201.536 E0.18003
G1 X215.501 Y200.774 E0.16959
G1 X214.466 Y198.938 E0.39119
G1 X214.294 Y198.543 E0.07991
G1 X214.161 Y198.039 E0.09671
G1 X214.144 Y197.702 E0.06266
G1 X214.192 Y197.386 E0.05931
G1 X214.269 Y197.200 E0.03733
G1 E-2.24000 F2400.000
;WIPE_START
G1 F12480.000
G1 X214.528 Y196.799 E-0.08730
G1 X214.792 Y196.575 E-0.06318
G1 X215.101 Y196.407 E-0.06418
G1 X215.439 Y196.303 E-0.06472
G1 X215.700 Y196.272 E-0.04792
G1 X215.974 Y196.281 E-0.05008
G1 X216.295 Y196.368 E-0.06089
G1 X216.606 Y196.529 E-0.06391
G1 X216.872 Y196.774 E-0.06603
G1 X217.111 Y197.084 E-0.07165
G1 X217.325 Y197.628 E-0.10680
G1 X217.756 Y198.424 E-0.16536
;WIPE_END
G1 E-0.04800 F2400.000
G1 Z0.700 F15600.000
G1 X223.232 Y196.333
G1 Z0.500
G1 E3.20000 F1500.000
G1 F940.967
G1 X223.583 Y196.274 E0.06620
G1 X224.107 Y196.318 E0.09744
G1 X224.542 Y196.464 E0.08512
G1 X224.730 Y196.561 E0.03934
G1 X225.013 Y196.769 E0.06522
G1 X225.236 Y197.015 E0.06149
G1 X225.343 Y197.177 E0.03606
G1 X225.488 Y197.472 E0.06104
G1 X225.605 Y197.818 E0.06780
G1 X225.974 Y199.284 E0.28056
G1 X226.064 Y199.807 E0.09845
G1 X226.570 Y201.161 E0.26828
G1 X227.008 Y199.895 E0.24863
G1 X227.174 Y198.927 E0.18225
G1 X227.266 Y198.556 E0.07101
G1 X227.459 Y197.977 E0.11331
G1 X227.745 Y197.369 E0.12457
G1 X227.966 Y197.025 E0.07587
G1 X228.205 Y196.738 E0.06934
G1 X228.587 Y196.440 E0.08978
G1 X228.904 Y196.314 E0.06336
G1 X229.213 Y196.279 E0.05772
G1 X229.403 Y196.297 E0.03539
G1 X229.593 Y196.344 E0.03643
G1 X229.888 Y196.495 E0.06154
G1 X230.172 Y196.736 E0.06909
G1 X230.441 Y197.182 E0.09662
G1 X230.590 Y197.765 E0.11170
G1 X230.620 Y198.141 E0.06989
G1 X230.516 Y198.861 E0.13505
G1 X230.449 Y199.142 E0.05356
G1 X230.102 Y200.102 E0.18953
G1 X229.673 Y201.408 E0.25508
G1 X227.770 Y206.724 E1.04770
G1 X227.013 Y208.675 E0.38839
G1 X226.705 Y209.393 E0.14488
G1 X226.456 Y209.900 E0.10500
G1 X226.213 Y210.308 E0.08806
G1 X225.844 Y210.782 E0.11139
G1 X225.543 Y211.059 E0.07594
G1 X225.206 Y211.297 E0.07662
G1 X224.641 Y211.576 E0.11698
G1 X224.175 Y211.737 E0.09143
G1 X223.546 Y211.879 E0.11968
G1 X223.000 Y211.903 E0.10136
G1 X222.504 Y211.802 E0.09394
G1 X222.173 Y211.636 E0.06872
G1 X221.908 Y211.411 E0.06454
G1 X221.687 Y211.136 E0.06544
G1 X221.462 Y210.665 E0.09690
G1 X221.372 Y210.297 E0.07024
G1 X221.353 Y209.960 E0.06265
G1 X221.400 Y209.631 E0.06172
G1 X221.467 Y209.445 E0.03666
G1 X221.618 Y209.185 E0.05577
G1 X221.756 Y209.037 E0.03762
G1 X222.000 Y208.857 E0.05609
G1 X222.296 Y208.720 E0.06061
G1 X223.134 Y208.492 E0.16113
G1 X223.299 Y208.424 E0.03316
G1 X223.539 Y208.273 E0.05261
G1 X223.743 Y208.072 E0.05314
G1 X223.854 Y207.912 E0.03623
G1 X223.961 Y207.705 E0.04309
G1 X224.399 Y206.558 E0.22791
G1 X224.815 Y205.668 E0.18242
G1 X224.869 Y205.437 E0.04394
G1 X224.850 Y205.255 E0.03400
G1 X224.799 Y205.089 E0.03213
G1 X224.257 Y203.850 E0.25095
G1 X223.072 Y200.651 E0.63312
G1 X222.474 Y199.189 E0.29316
G1 X222.346 Y198.725 E0.08925
G1 X222.289 Y198.272 E0.08482
G1 X222.284 Y197.905 E0.06811
G1 X222.295 Y197.452 E0.08407
G1 X222.363 Y197.120 E0.06286
G1 X222.523 Y196.822 E0.06273
G1 X222.655 Y196.664 E0.03829
G1 X222.914 Y196.459 E0.06123
G1 X223.092 Y196.388 E0.03558
G1 E-2.24000 F2400.000
;WIPE_START
G1 F12480.000
G1 X223.583 Y196.274 E-0.09215
G1 X224.107 Y196.318 E-0.09593
G1 X224.542 Y196.464 E-0.08380
G1 X224.730 Y196.561 E-0.03873
G1 X225.013 Y196.769 E-0.06420
G1 X225.236 Y197.015 E-0.06054
G1 X225.343 Y197.177 E-0.03550
G1 X225.488 Y197.472 E-0.06009
G1 X225.605 Y197.818 E-0.06675
G1 X225.974 Y199.284 E-0.27621
G1 X226.009 Y199.490 E-0.03810
;WIPE_END
G1 E-0.04800 F2400.000
G1 Z0.700 F15600.000
G1 X199.789 Y206.262
G1 Z0.500
G1 E3.20000 F1500.000
G1 F940.967
G1 X199.541 Y206.036 E0.06229
G1 X199.290 Y205.625 E0.08942
G1 X199.138 Y205.113 E0.09901
G1 X199.086 Y204.524 E0.10984
G1 X199.120 Y203.317 E0.22403
G1 X199.108 Y197.549 E1.07028
G1 X199.130 Y196.121 E0.26518
G1 X199.053 Y195.206 E0.17027
G1 X199.062 Y194.712 E0.09180
G1 X199.140 Y194.401 E0.05941
G1 X199.255 Y194.169 E0.04805
G1 X199.456 Y193.915 E0.06017
G1 X199.719 Y193.711 E0.06175
G1 X200.025 Y193.561 E0.06318
G1 X200.360 Y193.460 E0.06501
G1 X200.629 Y193.412 E0.05062
G1 X201.018 Y193.388 E0.07243
G1 X202.162 Y193.422 E0.21239
G1 X203.489 Y193.420 E0.24621
G1 X204.250 Y193.463 E0.14140
G1 X205.162 Y193.582 E0.17072
G1 X205.694 Y193.698 E0.10094
G1 X206.152 Y193.841 E0.08902
G1 X206.559 Y194.013 E0.08202
G1 X206.959 Y194.235 E0.08504
G1 X207.334 Y194.503 E0.08542
G1 X207.685 Y194.814 E0.08708
G1 X207.950 Y195.093 E0.07133
G1 X208.256 Y195.480 E0.09163
G1 X208.535 Y195.909 E0.09482
G1 X208.781 Y196.375 E0.09782
G1 X208.990 Y196.875 E0.10057
G1 X209.161 Y197.403 E0.10311
G1 X209.295 Y197.966 E0.10740
G1 X209.397 Y198.611 E0.12107
G1 X209.455 Y199.259 E0.12083
G1 X209.471 Y199.968 E0.13152
G1 X209.435 Y200.693 E0.13471
G1 X209.375 Y201.077 E0.07211
G1 X209.273 Y201.445 E0.07082
G1 X209.044 Y201.999 E0.11122
G1 X208.904 Y202.521 E0.10045
G1 X208.771 Y202.892 E0.07311
G1 X209.130 Y203.123 E0.07911
G1 X209.477 Y202.783 E0.09024
G1 X209.831 Y202.541 E0.07961
G1 X209.958 Y202.476 E0.02639
G1 X210.103 Y202.345 E0.03629
G1 X210.570 Y202.114 E0.09654
G1 X210.979 Y202.041 E0.07714
G1 X211.331 Y202.039 E0.06528
G1 X211.594 Y202.073 E0.04930
G1 X212.035 Y202.201 E0.08517
G1 X212.278 Y202.309 E0.04930
G1 X212.675 Y202.556 E0.08693
G1 X213.037 Y202.892 E0.09157
G1 X213.315 Y203.305 E0.09237
G1 X213.417 Y203.565 E0.05190
G1 X213.483 Y203.829 E0.05053
G1 X213.501 Y204.230 E0.07436
G1 X213.552 Y204.601 E0.06955
G1 X213.532 Y205.044 E0.08224
G1 X213.436 Y205.469 E0.08090
G1 X213.303 Y205.799 E0.06595
G1 X213.260 Y205.980 E0.03456
G1 X213.166 Y206.215 E0.04698
G1 X213.040 Y206.454 E0.05005
G1 X212.690 Y206.839 E0.09658
G1 X212.473 Y206.998 E0.04996
G1 X212.053 Y207.218 E0.08813
G1 X211.590 Y207.355 E0.08945
G1 X211.118 Y207.407 E0.08819
G1 X210.643 Y207.375 E0.08843
G1 X210.182 Y207.261 E0.08806
G1 X209.743 Y207.066 E0.08906
G1 X209.358 Y206.801 E0.08677
G1 X209.160 Y206.620 E0.04991
G1 X208.854 Y206.237 E0.09083
G1 X208.651 Y205.774 E0.09382
G1 X208.597 Y205.484 E0.05471
G1 X208.596 Y205.086 E0.07392
G1 X208.564 Y204.712 E0.06973
G1 X208.615 Y204.116 E0.11096
G1 X208.234 Y203.974 E0.07553
G1 X207.934 Y204.387 E0.09475
G1 X207.647 Y204.711 E0.08039
G1 X207.391 Y205.092 E0.08506
G1 X207.198 Y205.321 E0.05571
G1 X206.780 Y205.658 E0.09955
G1 X206.337 Y205.904 E0.09408
G1 X205.894 Y206.081 E0.08853
G1 X205.424 Y206.214 E0.09056
G1 X204.905 Y206.318 E0.09827
G1 X204.308 Y206.394 E0.11163
G1 X203.254 Y206.448 E0.19592
G1 X201.637 Y206.432 E0.30006
G1 X200.932 Y206.505 E0.13138
G1 X200.561 Y206.515 E0.06904
G1 X200.100 Y206.429 E0.08695
G1 X199.921 Y206.333 E0.03762
G1 E-2.24000 F2400.000
;WIPE_START
G1 F12480.000
G1 X199.541 Y206.036 E-0.08814
G1 X199.290 Y205.625 E-0.08803
G1 X199.138 Y205.113 E-0.09747
G1 X199.086 Y204.524 E-0.10814
G1 X199.120 Y203.317 E-0.22055
G1 X199.117 Y201.622 E-0.30967
;WIPE_END
G1 E-0.04800 F2400.000
G1 Z0.700 F15600.000
G1 X190.647 Y197.107
G1 Z0.500
G1 E3.20000 F1500.000
G1 F940.967
G1 X190.215 Y196.923 E0.08714
G1 X189.977 Y196.757 E0.05386
G1 X189.715 Y196.460 E0.07349
G1 X189.526 Y196.138 E0.06929
G1 X189.407 Y195.754 E0.07466
G1 X189.404 Y195.179 E0.10665
G1 X189.487 Y194.757 E0.07975
G1 X189.644 Y194.435 E0.06656
G1 X190.014 Y194.014 E0.10397
G1 X190.195 Y193.873 E0.04259
G1 X190.734 Y193.550 E0.11671
G1 X191.375 Y193.298 E0.12772
G1 X192.072 Y193.141 E0.13250
G1 X192.830 Y193.067 E0.14150
G1 X193.576 Y193.074 E0.13827
G1 X194.162 Y193.137 E0.10955
G1 X194.848 Y193.285 E0.13015
G1 X195.288 Y193.442 E0.08671
G1 X195.855 Y193.747 E0.11939
G1 X196.195 Y194.010 E0.07986
G1 X196.493 Y194.308 E0.07810
G1 X196.627 Y194.476 E0.03999
G1 X196.753 Y194.650 E0.03986
G1 X196.955 Y195.014 E0.07709
G1 X197.136 Y195.565 E0.10776
G1 X197.208 Y196.160 E0.11120
G1 X197.205 Y196.624 E0.08618
M73 P0 R213
G1 X197.143 Y197.211 E0.10950
G1 X197.006 Y197.690 E0.09238
G1 X196.865 Y197.947 E0.05441
G1 X196.750 Y198.051 E0.02875
G1 X196.585 Y198.345 E0.06262
G1 X196.260 Y198.702 E0.08952
G1 X195.783 Y199.012 E0.10572
G1 X196.219 Y199.233 E0.09065
G1 X196.580 Y199.546 E0.08878
G1 X196.794 Y199.855 E0.06971
G1 X197.070 Y200.109 E0.06958
G1 X197.323 Y200.634 E0.10822
G1 X197.451 Y201.025 E0.07642
G1 X197.591 Y201.556 E0.10186
G1 X197.688 Y202.215 E0.12355
G1 X197.690 Y202.671 E0.08456
G1 X197.642 Y203.102 E0.08062
G1 X197.542 Y203.551 E0.08536
G1 X197.390 Y204.008 E0.08935
G1 X197.076 Y204.658 E0.13385
G1 X196.807 Y205.066 E0.09077
G1 X196.505 Y205.432 E0.08795
G1 X196.171 Y205.754 E0.08616
G1 X195.805 Y206.032 E0.08536
G1 X195.407 Y206.274 E0.08640
G1 X194.982 Y206.468 E0.08660
G1 X194.544 Y206.613 E0.08571
G1 X194.084 Y206.713 E0.08727
G1 X193.313 Y206.789 E0.14379
G1 X192.459 Y206.776 E0.15850
G1 X191.689 Y206.670 E0.14424
G1 X191.048 Y206.490 E0.12366
G1 X190.486 Y206.239 E0.11425
G1 X190.035 Y205.920 E0.10251
G1 X189.871 Y205.763 E0.04206
G1 X189.639 Y205.466 E0.07002
G1 X189.428 Y205.032 E0.08952
G1 X189.363 Y204.828 E0.03973
G1 X189.303 Y204.464 E0.06842
G1 X189.306 Y204.106 E0.06633
G1 X189.339 Y203.897 E0.03938
G1 X189.441 Y203.586 E0.06074
G1 X189.532 Y203.412 E0.03638
G1 X189.645 Y203.254 E0.03608
G1 X189.873 Y203.026 E0.05985
G1 X190.161 Y202.847 E0.06284
G1 X190.475 Y202.729 E0.06234
G1 X190.828 Y202.665 E0.06658
G1 X191.197 Y202.662 E0.06846
G1 X191.563 Y202.719 E0.06872
G1 X191.862 Y202.814 E0.05807
G1 X192.304 Y203.057 E0.09364
G1 X192.991 Y203.565 E0.15862
G1 X193.098 Y203.610 E0.02162
G1 X193.230 Y203.622 E0.02462
G1 X193.481 Y203.566 E0.04761
G1 X193.630 Y203.493 E0.03070
G1 X193.881 Y203.290 E0.05992
G1 X194.047 Y203.027 E0.05775
