; Postprocessed by [ArcWelder](https://github.com/FormerLurker/ArcWelderLib)
; Copyright(C) 2020 - Brad Hochgesang
; arc_welder_resolution_mm = 0.05
; arc_welder_g90_influences_extruder = False

; generated by PrusaSlicer 2.3.1+win64 on 2021-06-23 at 12:38:25 UTC







; 

; external perimeters extrusion width = 1.12mm
; perimeters extrusion width = 1.12mm
; infill extrusion width = 1.12mm
; solid infill extrusion width = 1.12mm
; top infill extrusion width = 1.00mm
; first layer extrusion width = 1.00mm

M73 P0 R214
M201 X1250 Y1250 Z1250 E5000 ; sets maximum accelerations, mm/sec^2
M203 X200 Y200 Z200 E200 ; sets maximum feedrates, mm/sec
M204 P1250 R1250 T1250 ; sets acceleration (P, T) and retract acceleration (R), mm/sec^2
M205 X8.00 Y8.00 Z2.00 E10.00 ; sets the jerk limits, mm/sec
M205 S0 T0 ; sets the minimum extruding and travel feed rate, mm/sec
M107
M190 S85 ; set bed temperature and wait for it to be reached
;TYPE:Custom
G90 ; use absolute coordinates
M83 ; extruder relative mode
G28 ; home all without mesh bed level
G29 ; mesh bed leveling 
M104 S230 ; set extruder temp
G92 E0.0
G1 Y-2.0 X179 F2400
G1 Z3 F720
M109 S230 ; wait for extruder temp

; intro line
G1 X170 F1000
G1 Z0.2 F720
G1 X110.0 E8.0 F900
G1 X40.0 E10.0 F700
G92 E0.0

M221 S95 ; set flow
G21 ; set units to millimeters
G90 ; use absolute coordinates
M83 ; use relative distances for extrusion
M900 K0.2 ; Filament gcode
;LAYER_CHANGE
;Z:0.5
;HEIGHT:0.5
;BEFORE_LAYER_CHANGE
G92 E0.0
;0.5


G1 E-3.20000 F2400.000
G1 Z0.200 F15600.000
G1 Z0.500
;AFTER_LAYER_CHANGE
;0.5
G1 Z0.700
G1 X162.649 Y182.279
G1 Z0.500
G1 E3.20000 F1500.000
;TYPE:Skirt
;WIDTH:1
G1 F940.967
G3 X168.598 Y179.849 I6.716 J7.95 E1.21183
G1 X215.421 Y176.994 E8.70478
G3 X224.407 Y177.566 I2.189 J36.476 E1.67495
G3 X229.104 Y178.781 I-6.956 J36.589 E0.90098
G1 X231.663 Y179.733 E0.50649
G3 X237.907 Y183.069 I-14.108 J33.915 E1.31584
G1 X240.124 Y184.666 E0.50673
G3 X249.508 Y195.578 I-22.403 J28.757 E2.68794
G3 X249.502 Y204.435 I-8.399 J4.422 E1.70866
G3 X238.314 Y216.656 I-31.819 J-17.896 E3.10122
G1 X235.971 Y218.133 E0.51428
G1 X233.452 Y219.466 E0.52882
G1 X230.878 Y220.583 E0.52065
G1 X228.379 Y221.451 E0.49093
G1 X225.431 Y222.224 E0.56557
G1 X222.682 Y222.718 E0.51830
G1 X220.206 Y222.979 E0.46212
G1 X217.384 Y223.071 E0.52390
G1 X215.371 Y223.002 E0.37366
G1 X168.054 Y220.094 E8.79725
G3 X159.218 Y211.789 I1.299 J-10.234 E2.40539
G1 X159.042 Y210.425 E0.25545
G1 X159.047 Y189.505 E3.88205
G3 X162.54 Y182.383 I10.382 J0.675 E1.50987
G1 E-2.24000 F2400.000
;WIPE_START
G1 F12480.000
G3 X166.937 Y180.127 I6.548 J7.353 E-0.912
;WIPE_END
G1 E-0.04800 F2400.000
G1 Z0.700 F15600.000
G1 X214.327 Y197.062
G1 Z0.500
G1 E3.20000 F1500.000
;TYPE:External perimeter
G1 F940.967
G3 X217.11 Y197.084 I1.385 J0.82 E0.62271
G2 X217.876 Y198.646 I6.814 J-2.366 E0.32332
G3 X218.407 Y197.569 I5.581 J2.087 E0.22305
G3 X220.038 Y196.272 I1.648 J0.398 E0.41754
G3 X221.39 Y197.748 I-0.186 J1.528 E0.40504
G3 X221.11 Y198.925 I-2.023 J0.138 E0.22757
G3 X219.921 Y200.92 I-33.82 J-18.778 E0.43101
G2 X219.847 Y201.75 I0.629 J0.474 E0.16141
G3 X220.776 Y203.336 I-17.56 J11.35 E0.34128
G3 X221.368 Y204.323 I-5.878 J4.203 E0.21384
G3 X221.269 Y206.264 I-1.671 J0.887 E0.37773
G3 X218.393 Y205.689 I-1.29 J-1.027 E0.66976
G2 X218.014 Y204.793 I-1.735 J0.203 E0.1824
G1 X217.623 Y204.464 E0.09496
G2 X217.144 Y205.401 I6.892 J4.114 E0.19539
G3 X215.787 Y206.83 I-1.767 J-0.32 E0.38765
G3 X214.407 Y206.087 I-0.167 J-1.341 E0.30934
G1 X214.213 Y205.528 E0.11005
G3 X214.474 Y204.348 I2.223 J-0.124 E0.2269
G3 X215.176 Y202.733 I5.211 J1.303 E0.32834
G3 X216.006 Y201.536 I6.271 J3.457 E0.27053
G1 X215.501 Y200.774 E0.16959
G1 X214.466 Y198.938 E0.39119
G3 X214.192 Y197.385 I2.183 J-1.185 E0.29858
G1 X214.269 Y197.200 E0.03733
G1 E-2.24000 F2400.000
;WIPE_START
G1 F12480.000
G3 X217.11 Y197.084 I1.45 J0.669 E-0.63985
G2 X217.756 Y198.424 I5.811 J-1.971 E-0.27216
;WIPE_END
G1 E-0.04800 F2400.000
G1 Z0.700 F15600.000
G1 X223.232 Y196.333
G1 Z0.500
G1 E3.20000 F1500.000
G1 F940.967
G3 X225.604 Y197.818 I0.489 J1.856 E0.57971
G3 X226.063 Y199.806 I-12.801 J4.001 E0.379
G1 X226.570 Y201.161 E0.26828
G1 X227.008 Y199.895 E0.24863
G3 X227.966 Y197.025 I6.381 J0.535 E0.567
G3 X228.586 Y196.439 I1.656 J1.136 E0.15912
G3 X230.171 Y196.735 I0.613 J1.103 E0.32353
G3 X230.62 Y198.14 I-1.997 J1.41 E0.27821
G3 X230.102 Y200.102 I-5.72 J-0.462 E0.37814
G1 X229.673 Y201.408 E0.25508
G1 X227.770 Y206.724 E1.04770
G3 X226.705 Y209.393 I-38.532 J-13.828 E0.53327
G3 X225.205 Y211.296 I-3.815 J-1.461 E0.45701
G3 X223 Y211.902 I-2.228 J-3.793 E0.42945
G3 X221.372 Y210.296 I0.173 J-1.803 E0.45977
G3 X222.295 Y208.719 I1.305 J-0.294 E0.37111
G2 X223.299 Y208.424 I-0.673 J-4.13 E0.19428
G2 X223.961 Y207.705 I-0.611 J-1.227 E0.18507
G3 X224.814 Y205.668 I14.457 J4.863 E0.41032
G2 X224.799 Y205.088 I-0.727 J-0.269 E0.11007
G1 X224.257 Y203.850 E0.25095
G2 X222.473 Y199.188 I-70.414 J24.264 E0.92628
G3 X222.362 Y197.12 I4.043 J-1.254 E0.38911
G3 X223.092 Y196.388 I1.146 J0.412 E0.19782
G1 E-2.24000 F2400.000
;WIPE_START
G1 F12480.000
G3 X225.604 Y197.818 I0.642 J1.794 E-0.59769
G1 X225.974 Y199.284 E-0.27621
G1 X226.009 Y199.490 E-0.03810
;WIPE_END
G1 E-0.04800 F2400.000
G1 Z0.700 F15600.000
G1 X199.789 Y206.262
G1 Z0.500
G1 E3.20000 F1500.000
G1 F940.967
G3 X199.138 Y205.112 I1.13 J-1.399 E0.25072
G3 X199.12 Y203.317 I7.683 J-0.975 E0.33387
G3 X199.129 Y196.121 I205.755 J-3.312 E1.33545
G3 X199.062 Y194.711 I6.837 J-1.036 E0.26207
G3 X200.36 Y193.46 I1.531 J0.289 E0.35757
G3 X201.018 Y193.388 I0.64 J2.813 E0.12304
G2 X203.489 Y193.419 I1.747 J-39.546 E0.4586
G3 X206.558 Y194.013 I0.092 J7.764 E0.5841
G3 X209.161 Y197.402 I-2.514 J4.623 E0.81682
G3 X209.375 Y201.076 I-8.905 J2.361 E0.68763
G3 X209.044 Y201.998 I-3.938 J-0.893 E0.18204
G3 X208.77 Y202.891 I-5.557 J-1.21 E0.17355
G1 X209.130 Y203.123 E0.07911
G3 X209.957 Y202.475 I1.861 J1.529 E0.19624
G1 X210.103 Y202.345 E0.03629
G3 X212.675 Y202.556 I1.135 J1.939 E0.50966
G3 X213.501 Y204.229 I-1.088 J1.578 E0.36073
G3 X213.302 Y205.799 I-2.37 J0.497 E0.29864
G3 X212.052 Y207.217 I-1.919 J-0.43 E0.36626
G3 X208.854 Y206.236 I-0.992 J-2.469 E0.67069
G3 X208.596 Y205.086 I1.571 J-0.956 E0.22244
G3 X208.615 Y204.116 I2.822 J-0.429 E0.18069
G1 X208.234 Y203.974 E0.07553
G3 X207.646 Y204.711 I-4.092 J-2.657 E0.17513
G3 X205.894 Y206.08 I-2.571 J-1.483 E0.42293
G3 X203.253 Y206.448 I-2.482 J-8.175 E0.49638
G1 X201.637 Y206.432 E0.30006
G3 X200.561 Y206.514 I-1.081 J-7.002 E0.20041
G1 X200.100 Y206.429 E0.08695
G1 X199.921 Y206.333 E0.03762
G1 E-2.24000 F2400.000
;WIPE_START
G1 F12480.000
G3 X199.138 Y205.112 I0.906 J-1.442 E-0.27364
G3 X199.12 Y203.317 I7.683 J-0.975 E-0.32869
G1 X199.117 Y201.622 E-0.30967
;WIPE_END
G1 E-0.04800 F2400.000
G1 Z0.700 F15600.000
G1 X190.647 Y197.107
G1 Z0.500
G1 E3.20000 F1500.000
G1 F940.967
G3 X189.403 Y195.179 I0.464 J-1.664 E0.46509
G3 X190.194 Y193.872 I1.832 J0.217 E0.29287
G3 X193.575 Y193.074 I2.867 J4.579 E0.65669
G3 X196.194 Y194.009 I-0.059 J4.298 E0.52565
G3 X197.205 Y196.623 I-2.01 J2.279 E0.54018
M73 P0 R213
G3 X197.006 Y197.689 I-3.143 J-0.035 E0.20188
G3 X196.75 Y198.05 I-0.648 J-0.188 E0.08316
G3 X195.782 Y199.012 I-1.802 J-0.847 E0.25785
G3 X196.794 Y199.854 I-0.566 J1.706 E0.24913
G1 X197.070 Y200.109 E0.06958
G3 X197.542 Y203.55 I-4.199 J2.329 E0.66058
G3 X193.312 Y206.788 I-4.198 J-1.102 E1.06321
G3 X190.485 Y206.239 I-0.423 J-5.364 E0.54064
G3 X189.532 Y203.412 I0.954 J-1.896 E0.61508
G3 X191.562 Y202.718 I1.503 J1.083 E0.42486
G3 X192.991 Y203.564 I-1.282 J3.793 E0.31032
G2 X193.881 Y203.289 I0.246 J-0.779 E0.18447
G2 X193.86 Y201.838 I-0.881 J-0.713 E0.29153
G2 X192.614 Y201.05 I-1.564 J1.094 E0.28043
G1 X191.779 Y200.903 E0.15739
G3 X190.663 Y199.27 I0.301 J-1.403 E0.40523
G3 X191.907 Y197.758 I1.692 J0.126 E0.38648
G3 X192.812 Y197.536 I1.554 J4.362 E0.1732
G2 X193.526 Y196.65 I-0.077 J-0.792 E0.23434
G2 X192.8 Y196.3 I-0.518 J0.148 E0.16954
G2 X191.852 Y196.798 I1.242 J3.517 E0.19933
G3 X191.026 Y197.11 I-1.651 J-3.11 E0.16411
G1 X190.797 Y197.108 E0.04258
G1 E-2.24000 F2400.000
;WIPE_START
G1 F12480.000
G1 X190.215 Y196.923 E-0.11162
G3 X189.403 Y195.179 I0.886 J-1.472 E-0.37209
G3 X190.194 Y193.872 I1.832 J0.217 E-0.28833
G3 X190.861 Y193.5 I1.436 J1.786 E-0.13994
;WIPE_END
G1 E-0.04800 F2400.000
G1 Z0.700 F15600.000
G1 X188.282 Y196.037
G1 Z0.500
G1 E3.20000 F1500.000
G1 F940.967
G3 X187.278 Y196.647 I-1.24 J-0.907 E0.22325
G3 X184.762 Y196.671 I-1.36 J-10.698 E0.46817
G1 X184.783 Y197.552 E0.16339
G1 X184.769 Y203.034 E1.01728
G3 X184.799 Y204.742 I-14.02 J1.1 E0.31726
G3 X184.5 Y205.75 I-2.255 J-0.121 E0.19632
G3 X181.733 Y205.931 I-1.455 J-1.004 E0.59186
G3 X181.443 Y204.819 I1.322 J-0.938 E0.21748
G2 X181.5 Y202.87 I-9.596 J-1.256 E0.36247
G2 X181.486 Y198.292 I-122.413 J-1.941 E0.84956
G1 X181.558 Y197.159 E0.21066
G2 X180.986 Y196.65 I-0.481 J-0.034 E0.16254
G1 X180.746 Y196.652 E0.04462
G3 X179.243 Y196.799 I-1.458 J-7.156 E0.28029
G3 X177.822 Y195.407 I0.035 J-1.458 E0.40509
G3 X179.112 Y193.364 I1.565 J-0.439 E0.50656
G3 X180.604 Y193.431 I0.432 J6.905 E0.27761
G3 X187.222 Y193.412 I3.963 J216.596 E1.228
G3 X188.528 Y194.759 I-0.015 J1.323 E0.386
G3 X188.43 Y195.733 I-4.231 J0.061 E0.18179
G1 X188.348 Y195.902 E0.03493
G1 E-2.24000 F2400.000
;WIPE_START
G1 F12480.000
G3 X187.278 Y196.647 I-1.279 J-0.694 E-0.24674
G3 X184.762 Y196.671 I-1.36 J-10.698 E-0.4609
G3 X184.782 Y197.789 I-19.905 J0.915 E-0.20434
;WIPE_END
G1 E-0.04800 F2400.000
G1 Z0.700 F15600.000
G1 X175.568 Y197.507
G1 Z0.500
G1 E3.20000 F1500.000
G1 F940.967
G3 X174.211 Y197.144 I-0.037 J-2.573 E0.26402
G1 X173.284 Y196.585 E0.20093
G2 X170.786 Y197.854 I-0.664 J1.785 E0.58227
G2 X170.775 Y201.981 I7.142 J2.083 E0.77687
G2 X173.806 Y203.152 I2.005 J-0.682 E0.68935
G3 X176.237 Y202.629 I1.486 J0.997 E0.51059
G3 X176.911 Y204.61 I-0.633 J1.32 E0.43207
G3 X174.451 Y206.598 I-3.332 J-1.609 E0.60575
G3 X169.353 Y205.645 I-1.561 J-5.768 E0.99598
G3 X167.364 Y201.659 I3.126 J-4.049 E0.85449
G3 X167.526 Y196.984 I19.193 J-1.675 E0.8703
G3 X172.864 Y193.067 I5.128 J1.392 E1.32493
G3 X176.372 Y194.385 I0.217 J4.746 E0.7151
G3 X176.77 Y196.676 I-1.405 J1.424 E0.46076
G3 X175.713 Y197.473 I-1.333 J-0.67 E0.25356
G1 E-2.24000 F2400.000
;WIPE_START
G1 F12480.000
G1 X175.077 Y197.482 E-0.11638
G3 X173.283 Y196.585 I1.721 J-5.682 E-0.36794
G2 X171.173 Y197.162 I-0.659 J1.739 E-0.42766
;WIPE_END
G1 E-0.04800 F2400.000
G1 Z0.700 F15600.000
G1 X238.925 Y204.393
G1 Z0.500
G1 E3.20000 F1500.000
G1 F940.967
G1 X238.758 Y204.090 E0.06410
G2 X237.412 Y203.506 I-1.333 J1.229 E0.28012
G1 X236.781 Y203.546 E0.11734
G1 X236.514 Y203.666 E0.05429
G1 X236.218 Y203.550 E0.05903
G1 X235.707 Y203.549 E0.09491
G2 X235.985 Y202.86 I-1.213 J-0.89 E0.13892
G1 X236.042 Y202.782 E0.01795
G2 X236.963 Y201.824 I-2.588 J-3.414 E0.24772
G1 X238.451 Y199.717 E0.47862
G2 X238.973 Y198.644 I-2.77 J-2.011 E0.22223
G2 X238.608 Y196.752 I-1.994 J-0.595 E0.37051
G2 X237.546 Y196.281 I-1.13 J1.113 E0.22016
G1 X233.383 Y196.270 E0.77282
G2 X232.397 Y196.394 I-0.084 J3.301 E0.18456
G2 X231.437 Y197.723 I0.435 J1.326 E0.32615
G2 X231.758 Y199.076 I2.097 J0.216 E0.26358
G2 X233.542 Y199.46 I1.196 J-1.226 E0.35805
G2 X234.842 Y199.401 I0.313 J-7.443 E0.24165
G1 X234.127 Y200.397 E0.22755
G2 X233.272 Y201.258 I2.727 J3.559 E0.22553
G2 X231.551 Y203.667 I27.343 J21.353 E0.54955
G2 X231.56 Y206.326 I1.961 J1.324 E0.52411
G2 X232.729 Y206.883 I1.172 J-0.956 E0.24772
G3 X235.248 Y206.844 I1.575 J20.345 E0.46799
G2 X237.431 Y206.627 I0.418 J-6.876 E0.40925
G2 X238.379 Y206.413 I0.007 J-2.165 E0.18147
G1 X238.606 Y206.773 E0.07893
G1 X237.897 Y207.488 E0.18681
G1 X237.116 Y207.986 E0.17193
G3 X217.156 Y215.474 I-19.628 J-21.97 E4.0486
G1 X215.821 Y215.423 E0.24792
G1 X169.258 Y212.585 E8.65674
G3 X166.617 Y209.915 I0.076 J-2.716 E0.7671
G1 X166.609 Y203.773 E1.13984
G2 X166.45 Y201.461 I-28.096 J0.759 E0.43008
G3 X166.592 Y196.683 I28.101 J-1.555 E0.88784
G1 X166.609 Y196.172 E0.09509
G1 X166.617 Y190.103 E1.12634
G3 X169.256 Y187.414 I2.717 J0.028 E0.77008
G1 X215.864 Y184.574 E8.66502
G3 X242.802 Y199.145 I1.745 J28.96 E5.9872
G3 X242.812 Y200.834 I-1.686 J0.854 E0.32435
G3 X240.474 Y204.353 I-24.864 J-13.983 E0.78464
G2 X239.972 Y205.25 I3.818 J2.73 E0.19103
G3 X239.235 Y206.099 I-6.833 J-5.18 E0.20891
G1 X238.855 Y205.860 E0.08356
G2 X238.974 Y204.873 I-1.336 J-0.662 E0.18751
G2 X238.961 Y204.538 I-0.582 J-0.145 E0.06286
G1 X239.586 Y204.669 F15600.000
;TYPE:Gap fill
;WIDTH:0.346799
G1 F3507.334
G1 X239.538 Y204.857 E0.00967
;WIDTH:0.339
G1 F3600.000
G1 X239.512 Y205.001 E0.00703
;WIDTH:0.309405
G1 X239.486 Y205.144 E0.00613
G1 E-2.24000 F2400.000
;WIPE_START
G1 F12480.000
G1 X239.512 Y205.001 E-0.02665
;WIPE_END
G1 E-0.93335 F2400.000
G1 Z0.700 F15600.000
G1 X237.561 Y207.111
G1 Z0.500
G1 E3.20000 F1500.000
;WIDTH:0.259275
G1 F3600.000
G1 X237.421 Y207.176 E0.00487
;WIDTH:0.291248
G1 X237.282 Y207.242 E0.00590
;WIDTH:0.295756
G1 X235.953 Y207.808 E0.05656
G1 X235.943 Y207.779 F15600.000
;WIDTH:0.539444
G1 F1943.802
G1 X236.718 Y207.460 E0.07526
;WIDTH:0.534218
G1 F1967.593
G1 X236.728 Y207.455 E0.00100
;WIDTH:0.528415
G1 F1994.708
G1 X237.564 Y207.118 E0.07895
G1 X237.574 Y207.140 F15600.000
;WIDTH:0.822875
G1 F1173.883
G1 X236.275 Y207.637 E0.20699
;WIDTH:0.824163
G1 F1171.773
G1 X235.936 Y207.760 E0.05370
G1 E-2.24000 F2400.000
;WIPE_START
G1 F12480.000
G1 X236.275 Y207.637 E-0.06584
;WIPE_END
G1 E-0.89416 F2400.000
G1 Z0.700 F15600.000
G1 X236.412 Y203.146
G1 Z0.500
G1 E3.20000 F1500.000
;WIDTH:0.318399
G1 F3600.000
G1 X236.628 Y203.009 E0.01124
;WIDTH:0.337055
G1 X236.664 Y202.991 E0.00194
;WIDTH:0.357345
G1 F3359.406
G1 X236.694 Y202.979 E0.00168
;WIDTH:0.357347
G1 X236.865 Y202.993 E0.00893
;WIDTH:0.313998
G1 F3600.000
G1 X237.037 Y203.007 E0.00738
;WIDTH:0.270649
G1 X237.208 Y203.020 E0.00583
G1 E-2.24000 F2400.000
;WIPE_START
G1 F12480.000
G1 X237.037 Y203.007 E-0.03139
;WIPE_END
G1 E-0.92861 F2400.000
G1 Z0.700 F15600.000
G1 X232.551 Y199.796
G1 Z0.500
G1 E3.20000 F1500.000
;TYPE:Solid infill
;WIDTH:1.0051
G1 F935.626
G1 X233.142 Y200.386 E0.15591
G2 X232.569 Y201.085 I4.123 J3.957 E0.1685
G1 X231.019 Y199.533 E0.40941
G1 X230.686 Y200.470 E0.18553
G1 X232.034 Y201.817 E0.35560
G1 X231.497 Y202.550 E0.16954
G1 X230.372 Y201.425 E0.29687
G1 X230.042 Y202.365 E0.18582
G1 X230.986 Y203.309 E0.24923
G1 X230.663 Y203.971 E0.13751
G1 X230.605 Y204.198 E0.04367
G1 X229.393 Y202.985 E0.32001
G1 E-2.24000 F2400.000
;WIPE_START
G1 F12480.000
G1 X230.605 Y204.198 E-0.31326
G1 X230.663 Y203.971 E-0.04275
G1 X230.986 Y203.309 E-0.13461
G1 X230.042 Y202.365 E-0.24397
G1 X230.364 Y201.449 E-0.17741
;WIPE_END
G1 E-0.04800 F2400.000
G1 Z0.700 F15600.000
G1 X222.460 Y199.862
G1 Z0.500
G1 E3.20000 F1500.000
G1 F935.626
G1 X221.745 Y199.147 E0.18876
G1 X221.290 Y199.961 E0.17415
G1 X222.581 Y201.253 E0.34082
G1 X223.327 Y203.269 E0.40117
G1 X220.811 Y200.752 E0.66430
G2 X220.439 Y201.426 I1.822 J1.441 E0.14414
G1 X220.782 Y201.993 E0.12327
G1 X224.190 Y205.401 E0.89960
G1 X223.793 Y206.274 E0.17892
G1 X222.181 Y204.661 E0.42559
G3 X222.213 Y205.71 I-2.53 J0.604 E0.19677
G1 X222.157 Y205.907 E0.03833
G1 X223.441 Y207.191 E0.33892
G3 X222.854 Y207.873 I-0.831 J-0.12 E0.1767
G1 X221.731 Y206.751 E0.29646
G3 X221.015 Y207.306 I-1.462 J-1.145 E0.17017
G1 X221.884 Y208.173 E0.22900
G2 X221.147 Y208.707 I0.624 J1.632 E0.17135
G1 X219.990 Y207.549 E0.30587
G1 X219.899 Y207.560 E0.01711
G3 X217.729 Y205.795 I0.048 J-2.274 E0.5604
G3 X217.489 Y206.318 I-1.16 J-0.219 E0.10802
G1 X221.089 Y209.917 E0.95006
G1 E-2.24000 F2400.000
;WIPE_START
G1 F12480.000
G1 X217.559 Y206.388 E-0.91200
;WIPE_END
G1 E-0.04800 F2400.000
G1 Z0.700 F15600.000
G1 X233.521 Y207.114
G1 Z0.500
G1 E3.20000 F1500.000
G1 F935.626
G1 X235.145 Y208.738 E0.42856
G1 X234.416 Y209.278 E0.16939
G1 X232.694 Y207.556 E0.45443
G1 X232.041 Y207.448 E0.12346
G3 X230.49 Y205.353 I0.857 J-2.256 E0.51437
G1 X229.372 Y204.235 E0.29512
