; Postprocessed by [ArcWelder](https://github.com/FormerLurker/ArcWelderLib)
; Copyright(C) 2020 - Brad Hochgesang
; arc_welder_resolution_mm = 0.05
; arc_welder_g90_influences_extruder = False

; generated by PrusaSlicer 2.3.1+win64 on 2021-06-25 at 13:48:01 UTC







; 

; external perimeters extrusion width = 1.12mm
; perimeters extrusion width = 1.12mm
; infill extrusion width = 1.12mm
; solid infill extrusion width = 1.12mm
; top infill extrusion width = 1.00mm
; first layer extrusion width = 0.75mm

M73 P0 R5
M201 X1250 Y1250 Z1250 E5000 ; sets maximum accelerations, mm/sec^2
M203 X200 Y200 Z200 E200 ; sets maximum feedrates, mm/sec
M204 P1250 R1250 T1250 ; sets acceleration (P, T) and retract acceleration (R), mm/sec^2
M205 X8.00 Y8.00 Z2.00 E10.00 ; sets the jerk limits, mm/sec
M205 S0 T0 ; sets the minimum extruding and travel feed rate, mm/sec
M107
M190 S85 ; set bed temperature and wait for it to be reached
;TYPE:Custom
G90 ; use absolute coordinates
M83 ; extruder relative mode
G28 ; home all without mesh bed level
G29 ; mesh bed leveling 
M104 S230 ; set extruder temp
G92 E0.0
G1 Y-2.0 X179 F2400
M73 P1 R5
G1 Z3 F720
M109 S230 ; wait for extruder temp

; intro line
G1 X170 F1000
G1 Z0.2 F720
G1 X110.0 E8.0 F900
M73 P3 R5
G1 X40.0 E10.0 F700
G92 E0.0

M221 S95 ; set flow
G21 ; set units to millimeters
G90 ; use absolute coordinates
M83 ; use relative distances for extrusion
M900 K0.2 ; Filament gcode
;LAYER_CHANGE
;Z:0.5
;HEIGHT:0.5
;BEFORE_LAYER_CHANGE
G92 E0.0
;0.5


M73 P4 R5
G1 E-3.20000 F2400.000
G1 Z0.200 F15600.000
G1 Z0.500
;AFTER_LAYER_CHANGE
;0.5
G1 Z0.700
G1 X207.181 Y191.465
M73 P5 R5
G1 Z0.500
G1 E3.20000 F1500.000
;TYPE:Skirt
;WIDTH:0.75
G1 F1228
G3 X229.293 Y206.347 I10.319 J8.535 E5.26556
M73 P6 R5
G3 X207.092 Y191.586 I-11.789 J-6.343 E5.95091
G1 E-2.24000 F2400.000
;WIPE_START
G1 F12480.000
G1 X208.183 Y190.383 E-0.29666
G3 X210.27 Y188.729 I9.36 J9.667 E-0.48712
G1 X210.875 Y188.374 E-0.12820
;WIPE_END
G1 E-0.04800 F2400.000
G1 Z0.700 F15600.000
G1 X214.086 Y197.183
G1 Z0.500
G1 E3.20000 F1500.000
;TYPE:External perimeter
G1 F1228
G3 X220.907 Y197.174 I3.414 J2.816 E1.04007
M73 P7 R5
G3 X213.997 Y197.304 I-3.403 J2.827 E2.65429
G1 E-2.24000 F2400.000
;WIPE_START
G1 F12480.000
G3 X218.437 Y195.68 I3.487 J2.652 E-0.91197
;WIPE_END
G1 E-0.04800 F2400.000
G1 Z0.700 F15600.000
G1 X213.004 Y195.769
G1 Z0.500
G1 E3.20000 F1500.000
G1 F1228
G3 X211.375 Y199.225 I4.496 J4.231 E4.6615
M73 P8 R5
G3 X212.908 Y195.884 I6.012 J0.737 E0.49875
G1 E-2.24000 F2400.000
;WIPE_START
G1 F12480.000
G3 X217.308 Y193.834 I4.559 J4.035 E-0.912
;WIPE_END
G1 E-0.04800 F2400.000
G1 Z0.700 F15600.000
G1 X222.841 Y197.312
G1 Z0.500
G1 E3.20000 F1500.000
;TYPE:Solid infill
;WIDTH:0.775111
G1 F1228
G1 X221.304 Y195.775 E0.30176
G2 X219.134 Y194.55 I-3.73 J4.072 E0.34861
G1 X222.939 Y198.354 E0.74677
G3 X223.163 Y199.521 I-4.043 J1.38 E0.1657
G1 X222.179 Y198.539 E0.19312
G2 X218.961 Y195.322 I-4.619 J1.402 E0.65754
G1 X217.670 Y194.030 E0.25363
G1 E-2.24000 F2400.000
;WIPE_START
G1 F12480.000
G1 X218.962 Y195.322 E-0.33379
G3 X221.486 Y197.135 I-1.392 J4.603 E-0.57822
;WIPE_END
G1 E-0.04800 F2400.000
G1 Z0.700 F15600.000
G1 X218.119 Y195.423
G1 Z0.500
G1 E3.20000 F1500.000
G1 F1228
G1 X217.027 Y194.331 E0.21438
G2 X216.215 Y194.462 I0.297 J4.39 E0.11431
G1 X216.881 Y195.129 E0.13080
G2 X216.106 Y195.3 I0.299 J3.19 E0.11019
G1 X215.489 Y194.682 E0.12136
G2 X214.836 Y194.973 I1.386 J3.989 E0.09931
G1 X215.417 Y195.555 E0.11417
G1 X214.812 Y195.894 E0.09633
G1 X214.252 Y195.334 E0.10988
G1 X213.726 Y195.752 E0.09332
G1 X214.277 Y196.304 E0.10829
G2 X213.802 Y196.774 I2.269 J2.762 E0.09279
G1 X213.254 Y196.224 E0.10791
G2 X212.831 Y196.747 I2.421 J2.382 E0.09331
G1 X213.396 Y197.311 E0.11058
G2 X213.062 Y197.92 I2.651 J1.848 E0.09673
G1 X212.477 Y197.337 E0.11482
G1 X212.182 Y197.986 E0.09905
G1 X212.801 Y198.605 E0.12138
G2 X212.629 Y199.377 I2.905 J1.048 E0.1101
G1 X211.964 Y198.712 E0.13068
G2 X211.838 Y199.532 I3.112 J0.893 E0.11525
G1 X212.923 Y200.616 E0.21280
M73 P9 R5
G1 E-2.24000 F2400.000
;WIPE_START
G1 F12480.000
G1 X211.839 Y199.532 E-0.28005
G3 X211.963 Y198.711 I3.237 J0.073 E-0.15167
G1 X212.630 Y199.378 E-0.17197
G3 X212.8 Y198.604 I3.076 J0.275 E-0.14489
G1 X212.182 Y197.986 E-0.15973
G1 X212.191 Y197.968 E-0.00367
;WIPE_END
G1 E-0.04800 F2400.000
G1 Z0.700 F15600.000
G1 X222.078 Y199.382
G1 Z0.500
G1 E3.20000 F1500.000
G1 F1228
G1 X223.163 Y200.467 E0.21307
G3 X223.038 Y201.287 I-3.371 J-0.094 E0.11527
G1 X222.372 Y200.620 E0.13082
G3 X222.2 Y201.394 I-3.19 J-0.299 E0.1101
G1 X222.820 Y202.013 E0.12151
G1 X222.525 Y202.663 E0.09906
G1 X221.940 Y202.077 E0.11496
G3 X221.605 Y202.687 I-2.945 J-1.213 E0.09673
G1 X222.170 Y203.252 E0.11079
G1 X221.749 Y203.775 E0.09325
G1 X221.199 Y203.225 E0.10803
G3 X220.724 Y203.694 I-2.753 J-2.302 E0.0928
G1 X221.277 Y204.248 E0.10842
G1 X220.751 Y204.666 E0.09331
G1 X220.189 Y204.104 E0.11023
G1 X219.585 Y204.445 E0.09626
G1 X220.167 Y205.027 E0.11429
G3 X219.516 Y205.32 I-2.397 J-4.434 E0.09915
G1 X218.896 Y204.700 E0.12193
G3 X218.116 Y204.865 I-1.009 J-2.846 E0.11072
G1 X218.786 Y205.534 E0.13130
G3 X217.972 Y205.664 I-0.93 J-3.189 E0.11457
G1 X216.885 Y204.578 E0.21347
G1 E-2.24000 F2400.000
;WIPE_START
G1 F12480.000
G1 X217.972 Y205.665 E-0.28093
G2 X218.786 Y205.533 I-0.116 J-3.32 E-0.15076
G1 X218.117 Y204.865 E-0.17279
G2 X218.895 Y204.699 I-0.23 J-3.011 E-0.14571
G1 X219.517 Y205.321 E-0.16047
G1 X219.524 Y205.318 E-0.00133
;WIPE_END
G1 E-0.04800 F2400.000
G1 Z0.700 F15600.000
G1 X217.333 Y205.970
G1 Z0.500
G1 E3.20000 F1500.000
G1 F1228
G1 X216.051 Y204.689 E0.25159
G3 X212.822 Y201.459 I1.417 J-4.646 E0.65986
G1 X211.839 Y200.477 E0.19292
G2 X212.062 Y201.644 I4.231 J-0.207 E0.16566
G1 X215.856 Y205.438 E0.74468
G3 X214.155 Y204.604 I1.498 J-5.212 E0.26412
M73 P10 R5
G1 X213.745 Y204.271 E0.07348
G1 X212.160 Y202.687 E0.31103
;LAYER_CHANGE
;Z:1.2
;HEIGHT:0.7
;BEFORE_LAYER_CHANGE
G92 E0.0
;1.2


G1 E-2.24000 F2400.000
;WIPE_START
G1 F12480.000
G1 X213.745 Y204.271 E-0.40933
G2 X215.855 Y205.437 I3.593 J-4.008 E-0.44428
G1 X215.630 Y205.212 E-0.05838
;WIPE_END
G1 E-0.04800 F2400.000
G1 Z0.700 F15600.000
G1 Z1.200
;AFTER_LAYER_CHANGE
;1.2
M104 S240 ; set temperature
M140 S90 ; set bed temperature
G1 Z1.400
G1 X213.348 Y198.651
G1 Z1.200
G1 E3.20000 F1500.000
;TYPE:External perimeter
;WIDTH:1.125
G1 F615.524
G3 X213.253 Y201.019 I4.152 J1.35 E7.09693
M73 P11 R5
G3 X213.306 Y198.795 I4.171 J-1.012 E0.63774
G1 E-2.24000 F2400.000
;WIPE_START
G1 F12480.000
G3 X216.862 Y195.693 I4.143 J1.158 E-0.91199
;WIPE_END
G1 E-0.04800 F2400.000
G1 Z1.400 F15600.000
G1 X212.554 Y195.354
G1 Z1.200
G1 E3.20000 F1500.000
G1 F615.524
G3 X218.764 Y206.667 I4.946 J4.645 E7.25831
M73 P12 R5
G3 X212.455 Y195.467 I-1.265 J-6.664 E4.79295
G1 E-2.24000 F2400.000
;WIPE_START
G1 F12480.000
G3 X216.801 Y193.252 I5.025 J4.492 E-0.91199
;WIPE_END
G1 E-0.04800 F2400.000
G1 Z1.400 F15600.000
G1 X213.440 Y196.186
G1 Z1.200
G1 E3.20000 F1500.000
;TYPE:Gap fill
;WIDTH:1.60436
G1 F412.615
G1 X213.686 Y195.940 E0.14722
;WIDTH:1.60436
G1 X213.837 Y195.798 E0.08766
;WIDTH:1.59283
G1 F415.913
G1 X213.922 Y195.724 E0.04746
;WIDTH:1.5958
G1 X213.947 Y195.704 E0.01340
;WIDTH:1.60735
G1 F411.770
G1 X214.227 Y195.494 E0.14833
;WIDTH:1.60735
G1 X214.512 Y195.293 E0.14785
;WIDTH:1.59596
G1 F415.012
G1 X214.522 Y195.287 E0.00494
;WIDTH:1.59486
G1 X214.595 Y195.242 E0.03591
;WIDTH:1.59799
G1 F414.432
G1 X214.815 Y195.115 E0.10715
;WIDTH:1.59799
G1 X214.946 Y195.046 E0.06232
;WIDTH:1.59224
G1 F416.083
G1 X214.996 Y195.020 E0.02355
;WIDTH:1.59794
G1 F414.446
G1 X215.127 Y194.956 E0.06158
;WIDTH:1.59794
G1 X215.360 Y194.852 E0.10762
;WIDTH:1.59514
G1 F415.249
G1 X215.439 Y194.819 E0.03591
;WIDTH:1.59611
G1 F414.968
G1 X215.449 Y194.816 E0.00432
;WIDTH:1.6073
G1 F411.784
G1 X215.779 Y194.703 E0.14797
;WIDTH:1.6073
G1 X216.114 Y194.600 E0.14862
;WIDTH:1.59628
G1 F414.920
G1 X216.144 Y194.591 E0.01328
;WIDTH:1.59332
G1 F415.771
G1 X216.255 Y194.566 E0.04764
;WIDTH:1.60467
G1 F412.529
G1 X216.457 Y194.528 E0.08689
;WIDTH:1.60496
G1 X216.801 Y194.473 E0.14780
;WIDTH:1.60496
G1 X217.008 Y194.447 E0.08814
;WIDTH:1.59359
G1 F415.696
G1 X217.120 Y194.437 E0.04732
;WIDTH:1.59507
G1 X217.136 Y194.437 E0.00668
;WIDTH:1.60261
G1 F413.112
G1 X217.606 Y194.433 E0.19861
;WIDTH:1.60261
G1 X217.881 Y194.442 E0.11620
;WIDTH:1.58478
G1 F418.248
G1 X217.992 Y194.451 E0.04675
;WIDTH:1.60494
G1 F412.452
G1 X218.221 Y194.476 E0.09747
;WIDTH:1.60494
G1 X218.544 Y194.528 E0.13850
;WIDTH:1.60467
G1 X218.726 Y194.562 E0.07828
;WIDTH:1.59291
G1 F415.891
G1 X218.810 Y194.581 E0.03595
;WIDTH:1.597
G1 F414.715
G1 X218.888 Y194.600 E0.03396
;WIDTH:1.597
G1 X219.196 Y194.688 E0.13510
;WIDTH:1.59548
G1 F415.150
G1 X219.225 Y194.697 E0.01271
;WIDTH:1.59548
G1 X219.250 Y194.706 E0.01080
;WIDTH:1.59753
G1 F414.562
G1 X219.552 Y194.816 E0.13581
;WIDTH:1.59753
M73 P13 R5
G1 X219.626 Y194.845 E0.03314
;WIDTH:1.59331
G1 F415.775
G1 X219.704 Y194.879 E0.03593
;WIDTH:1.60487
G1 F412.470
G1 X219.873 Y194.959 E0.07893
;WIDTH:1.60487
G1 X220.184 Y195.118 E0.14815
;WIDTH:1.60487
G1 X220.365 Y195.217 E0.08718
;WIDTH:1.59368
G1 F415.667
G1 X220.462 Y195.275 E0.04761
;WIDTH:1.59672
G1 F414.795
G1 X220.489 Y195.293 E0.01355
;WIDTH:1.6081
G1 F411.556
G1 X220.774 Y195.493 E0.14794
;WIDTH:1.6081
G1 X221.054 Y195.703 E0.14822
;WIDTH:1.59657
G1 F414.837
G1 X221.079 Y195.723 E0.01360
;WIDTH:1.59354
G1 F415.707
G1 X221.164 Y195.798 E0.04751
;WIDTH:1.6049
G1 F412.462
G1 X221.315 Y195.939 E0.08767
;WIDTH:1.60509
G1 X221.562 Y196.186 E0.14750
;WIDTH:1.60509
G1 X221.703 Y196.336 E0.08751
;WIDTH:1.59359
G1 F415.694
G1 X221.777 Y196.422 E0.04751
;WIDTH:1.59655
G1 F414.842
G1 X221.797 Y196.447 E0.01339
;WIDTH:1.6081
G1 F411.556
G1 X222.007 Y196.726 E0.14842
;WIDTH:1.6081
G1 X222.208 Y197.011 E0.14794
;WIDTH:1.59672
G1 F414.794
G1 X222.214 Y197.021 E0.00493
;WIDTH:1.59562
G1 F415.111
G1 X222.259 Y197.094 E0.03594
;WIDTH:1.59875
G1 F414.215
G1 X222.386 Y197.314 E0.10721
;WIDTH:1.59875
G1 X222.455 Y197.445 E0.06241
;WIDTH:1.593
G1 F415.864
G1 X222.481 Y197.495 E0.02366
;WIDTH:1.59872
G1 F414.221
G3 X222.649 Y197.86 I-4.754 J2.404 E0.16975
;WIDTH:1.59597
G1 F415.009
G1 X222.682 Y197.940 E0.03589
;WIDTH:1.59683
G1 F414.764
G1 X222.685 Y197.948 E0.00376
;WIDTH:1.60803
G1 F411.575
G1 X222.798 Y198.278 E0.14806
;WIDTH:1.60803
G1 X222.901 Y198.613 E0.14851
;WIDTH:1.59706
G1 F414.697
G1 X222.909 Y198.644 E0.01352
;WIDTH:1.59403
G1 F415.566
G1 X222.935 Y198.754 E0.04766
;WIDTH:1.60432
G1 F412.626
G1 X222.971 Y198.942 E0.08090
;WIDTH:1.60432
G1 X223.040 Y199.406 E0.19851
;WIDTH:1.59756
G1 F414.553
G1 X223.051 Y199.508 E0.04309
;WIDTH:1.58735
G1 F417.500
G1 X223.059 Y199.620 E0.04690
;WIDTH:1.6076
G1 F411.698
G1 X223.070 Y200.022 E0.17061
;WIDTH:1.6076
G1 X223.065 Y200.350 E0.13933
;WIDTH:1.59714
G1 F414.674
G1 X223.063 Y200.380 E0.01261
;WIDTH:1.59434
G1 F415.477
G1 X223.054 Y200.493 E0.04737
;WIDTH:1.60571
G1 F412.232
G1 X223.028 Y200.699 E0.08816
;WIDTH:1.60571
G1 X222.973 Y201.044 E0.14789
;WIDTH:1.60542
G1 X222.939 Y201.225 E0.07829
;WIDTH:1.59367
G1 F415.672
G1 X222.920 Y201.309 E0.03597
;WIDTH:1.5977
G1 F414.514
G1 X222.901 Y201.386 E0.03360
;WIDTH:1.5977
G1 X222.812 Y201.696 E0.13545
;WIDTH:1.59575
G1 F415.074
G1 X222.804 Y201.724 E0.01245
;WIDTH:1.59575
G1 X222.795 Y201.749 E0.01109
;WIDTH:1.59777
G1 F414.493
G1 X222.685 Y202.052 E0.13576
;WIDTH:1.59777
G1 X222.655 Y202.125 E0.03333
;WIDTH:1.59344
G1 F415.738
G1 X222.621 Y202.204 E0.03594
;WIDTH:1.60487
G1 F412.470
G1 X222.542 Y202.372 E0.07873
;WIDTH:1.60487
G1 X222.383 Y202.684 E0.14835
;WIDTH:1.60487
G1 X222.284 Y202.864 E0.08718
;WIDTH:1.59368
G1 F415.667
G1 X222.225 Y202.962 E0.04761
;WIDTH:1.59668
G1 F414.807
G1 X222.208 Y202.988 E0.01336
;WIDTH:1.60789
G1 F411.616
G1 X222.007 Y203.274 E0.14810
;WIDTH:1.60789
G1 X221.797 Y203.554 E0.14861
;WIDTH:1.59651
G1 F414.854
G1 X221.777 Y203.578 E0.01321
;WIDTH:1.59359
G1 F415.694
G1 X221.703 Y203.664 E0.04751
;WIDTH:1.60512
G1 F412.400
G1 X221.561 Y203.815 E0.08769
;WIDTH:1.60512
G1 X221.315 Y204.061 E0.14731
;WIDTH:1.60512
G1 X221.164 Y204.203 E0.08773
;WIDTH:1.5936
G1 F415.693
G1 X221.079 Y204.277 E0.04755
;WIDTH:1.5965
G1 F414.857
G1 X221.054 Y204.296 E0.01312
;WIDTH:1.60793
G1 F411.605
G1 X220.774 Y204.507 E0.14859
;WIDTH:1.60793
G1 X220.489 Y204.707 E0.14813
;WIDTH:1.59676
G1 F414.783
G1 X220.477 Y204.715 E0.00609
;WIDTH:1.5954
G1 F415.174
G1 X220.403 Y204.761 E0.03650
;WIDTH:1.59896
G1 F414.153
G1 X220.186 Y204.885 E0.10531
;WIDTH:1.59896
G1 X220.048 Y204.958 E0.06582
;WIDTH:1.59326
G1 F415.789
G1 X219.999 Y204.983 E0.02298
;WIDTH:1.59869
G1 F414.230
G1 X219.874 Y205.044 E0.05875
;WIDTH:1.59869
G1 X219.641 Y205.148 E0.10769
;WIDTH:1.59555
G1 F415.130
G1 X219.565 Y205.180 E0.03438
;WIDTH:1.5956
G1 X219.562 Y205.181 E0.00156
;WIDTH:1.60316
G1 F412.955
G1 X219.122 Y205.327 E0.19599
;WIDTH:1.60316
G1 X218.855 Y205.404 E0.11748
;WIDTH:1.5848
G1 F418.241
G1 X218.745 Y205.431 E0.04709
;WIDTH:1.60468
G1 F412.524
G1 X218.523 Y205.476 E0.09600
;WIDTH:1.60496
G1 X218.200 Y205.527 E0.13873
;WIDTH:1.60496
G1 X217.993 Y205.553 E0.08814
;WIDTH:1.59359
G1 F415.696
G1 X217.881 Y205.563 E0.04732
;WIDTH:1.59642
G1 F414.880
G1 X217.850 Y205.564 E0.01279
;WIDTH:1.60775
G1 F411.655
G1 X217.501 Y205.570 E0.14842
;WIDTH:1.60775
G1 X217.151 Y205.564 E0.14842
;WIDTH:1.59643
G1 F414.879
G1 X217.120 Y205.563 E0.01296
;WIDTH:1.59355
G1 F415.705
G1 X217.007 Y205.553 E0.04753
;WIDTH:1.60504
G1 F412.422
G1 X216.802 Y205.527 E0.08777
;WIDTH:1.60504
G1 X216.457 Y205.472 E0.14780
;WIDTH:1.60499
G1 X216.271 Y205.437 E0.08010
;WIDTH:1.59309
G1 F415.838
G1 X216.188 Y205.418 E0.03574
;WIDTH:1.59692
G1 F414.738
G1 X216.115 Y205.400 E0.03177
;WIDTH:1.59692
G1 X215.805 Y205.311 E0.13557
;WIDTH:1.59476
G1 F415.358
G1 X215.777 Y205.303 E0.01222
;WIDTH:1.59476
G1 X215.752 Y205.294 E0.01128
;WIDTH:1.59677
G1 F414.779
G1 X215.449 Y205.184 E0.13585
;WIDTH:1.59678
G1 X215.376 Y205.155 E0.03313
;WIDTH:1.59255
G1 F415.994
G1 X215.297 Y205.120 E0.03589
;WIDTH:1.60412
G1 F412.685
G1 X215.128 Y205.041 E0.07890
;WIDTH:1.60412
G1 X214.817 Y204.882 E0.14806
;WIDTH:1.60411
G1 X214.636 Y204.783 E0.08714
;WIDTH:1.59292
G1 F415.886
G1 X214.539 Y204.724 E0.04756
;WIDTH:1.59596
G1 X214.512 Y204.707 E0.01356
;WIDTH:1.60735
G1 F411.769
G1 X214.227 Y204.506 E0.14785
;WIDTH:1.60735
G1 X213.959 Y204.305 E0.14237
;WIDTH:1.59627
G1 F414.925
G1 X213.923 Y204.276 E0.01935
;WIDTH:1.59126
G1 F416.367
G1 X213.838 Y204.201 E0.04733
;WIDTH:1.60273
G1 F413.077
G1 X213.613 Y203.986 E0.13178
;WIDTH:1.60274
G1 X213.300 Y203.661 E0.19037
;WIDTH:1.59007
G1 F416.710
G1 X213.225 Y203.577 E0.04724
;WIDTH:1.59655
G1 F414.844
G1 X213.191 Y203.535 E0.02297
;WIDTH:1.60735
G1 F411.770
G1 X212.994 Y203.274 E0.13872
;WIDTH:1.60735
G1 X212.794 Y202.988 E0.14785
;WIDTH:1.59597
G1 F415.011
G1 X212.787 Y202.978 E0.00528
;WIDTH:1.59478
G1 X212.742 Y202.904 E0.03636
;WIDTH:1.59828
G1 F414.349
G1 X212.616 Y202.685 E0.10637
;WIDTH:1.59828
G1 X212.543 Y202.548 E0.06561
;WIDTH:1.5925
G1 F416.007
G1 X212.518 Y202.499 E0.02310
;WIDTH:1.59795
G1 F414.441
G1 X212.457 Y202.373 E0.05893
;WIDTH:1.59795
M73 P14 R5
G1 X212.352 Y202.140 E0.10744
;WIDTH:1.59533
G1 F415.194
G1 X212.320 Y202.061 E0.03592
;WIDTH:1.59636
G1 F414.898
G1 X212.316 Y202.051 E0.00454
;WIDTH:1.60753
G1 F411.719
G1 X212.203 Y201.721 E0.14781
;WIDTH:1.60753
G1 X212.100 Y201.387 E0.14845
;WIDTH:1.59653
G1 F414.849
G1 X212.092 Y201.356 E0.01346
;WIDTH:1.59352
G1 F415.716
G1 X212.066 Y201.246 E0.04765
;WIDTH:1.6038
G1 F412.773
G1 X212.031 Y201.058 E0.08091
;WIDTH:1.6038
G1 X211.961 Y200.594 E0.19838
;WIDTH:1.59705
G1 F414.700
G1 X211.950 Y200.492 E0.04310
;WIDTH:1.58683
G1 F417.651
G1 X211.943 Y200.380 E0.04687
;WIDTH:1.60709
G1 F411.843
G1 X211.931 Y199.978 E0.17055
;WIDTH:1.60709
G1 X211.936 Y199.650 E0.13927
;WIDTH:1.59663
G1 F414.821
G1 X211.938 Y199.620 E0.01262
;WIDTH:1.59383
G1 F415.626
G1 X211.947 Y199.507 E0.04734
;WIDTH:1.60519
G1 F412.379
G3 X212.027 Y198.955 I8.503 J0.968 E0.23593
