; generated by PrusaSlicer 2.3.1+win64 on 2021-06-25 at 13:38:29 UTC


;
;

;
;
; 

; external perimeters extrusion width = 1.12mm
; perimeters extrusion width = 1.12mm
; infill extrusion width = 1.12mm
; solid infill extrusion width = 1.12mm
; top infill extrusion width = 1.00mm
; first layer extrusion width = 0.75mm

M73 P0 R45
M201 X1250 Y1250 Z1250 E5000 ; sets maximum accelerations, mm/sec^2
M203 X200 Y200 Z200 E200 ; sets maximum feedrates, mm/sec
M204 P1250 R1250 T1250 ; sets acceleration (P, T) and retract acceleration (R), mm/sec^2
M205 X8.00 Y8.00 Z2.00 E10.00 ; sets the jerk limits, mm/sec
M205 S0 T0 ; sets the minimum extruding and travel feed rate, mm/sec
M107
M190 S85 ; set bed temperature and wait for it to be reached
;TYPE:Custom
G90 ; use absolute coordinates
M83 ; extruder relative mode
G28 ; home all without mesh bed level
G29 ; mesh bed leveling 
M104 S230 ; set extruder temp
G92 E0.0
G1 Y-2.0 X179 F2400
G1 Z3 F720
M109 S230 ; wait for extruder temp

; intro line
G1 X170 F1000
G1 Z0.2 F720
G1 X110.0 E8.0 F900
G1 X40.0 E10.0 F700
G92 E0.0

M221 S95 ; set flow
G21 ; set units to millimeters
G90 ; use absolute coordinates
M83 ; use relative distances for extrusion
M900 K0.2 ; Filament gcode
;LAYER_CHANGE
;Z:0.5
;HEIGHT:0.5
;BEFORE_LAYER_CHANGE
G92 E0.0
;0.5


G1 E-3.20000 F2400.000
G1 Z0.200 F15600.000
G1 Z0.500
;AFTER_LAYER_CHANGE
;0.5
G1 Z0.700
G1 X195.127 Y177.622
G1 Z0.500
G1 E3.20000 F1500.000
;TYPE:Skirt
;WIDTH:0.75
G1 F1306.988
G1 X197.426 Y175.540 E0.41438
G1 X199.919 Y173.691 E0.41470
G1 X202.583 Y172.094 E0.41490
G1 X205.390 Y170.766 E0.41488
G1 X208.312 Y169.720 E0.41472
G1 X211.296 Y168.973 E0.41100
G1 X214.396 Y168.510 E0.41869
G1 X217.506 Y168.357 E0.41601
G1 X220.599 Y168.509 E0.41370
G1 X223.641 Y168.960 E0.41092
G1 X226.652 Y169.711 E0.41458
G1 X229.607 Y170.765 E0.41920
G1 X232.415 Y172.093 E0.41495
G1 X235.078 Y173.689 E0.41479
G1 X237.573 Y175.540 E0.41504
G1 X239.873 Y177.623 E0.41457
G1 X241.960 Y179.926 E0.41523
G1 X243.809 Y182.419 E0.41470
G1 X245.406 Y185.083 E0.41490
G1 X246.734 Y187.890 E0.41488
G1 X247.780 Y190.812 E0.41472
G1 X248.535 Y193.826 E0.41510
G1 X248.991 Y196.898 E0.41484
G1 X249.143 Y200.000 E0.41494
G1 X248.991 Y203.099 E0.41455
G1 X248.535 Y206.172 E0.41502
G1 X247.781 Y209.184 E0.41483
G1 X246.744 Y212.081 E0.41110
G1 X245.410 Y214.909 E0.41786
G1 X243.811 Y217.578 E0.41564
G1 X241.960 Y220.073 E0.41504
G1 X239.877 Y222.373 E0.41457
G1 X237.574 Y224.460 E0.41523
G1 X235.081 Y226.309 E0.41470
G1 X232.417 Y227.906 E0.41490
G1 X229.610 Y229.234 E0.41488
G1 X226.688 Y230.280 E0.41472
G1 X223.674 Y231.035 E0.41510
G1 X220.602 Y231.491 E0.41484
G1 X217.500 Y231.643 E0.41494
G1 X214.401 Y231.491 E0.41455
G1 X211.328 Y231.035 E0.41502
G1 X208.316 Y230.281 E0.41483
G1 X205.391 Y229.234 E0.41511
G1 X202.585 Y227.907 E0.41472
G1 X199.922 Y226.311 E0.41480
G1 X197.427 Y224.460 E0.41504
G1 X195.127 Y222.377 E0.41457
G1 X193.040 Y220.074 E0.41523
G1 X191.191 Y217.581 E0.41470
G1 X189.594 Y214.917 E0.41490
G1 X188.266 Y212.110 E0.41488
G1 X187.220 Y209.188 E0.41472
G1 X186.465 Y206.174 E0.41510
G1 X186.009 Y203.102 E0.41484
G1 X185.857 Y200.000 E0.41494
G1 X186.009 Y196.901 E0.41455
G1 X186.465 Y193.828 E0.41502
G1 X187.219 Y190.816 E0.41483
G1 X188.266 Y187.891 E0.41511
G1 X189.593 Y185.085 E0.41472
G1 X191.189 Y182.422 E0.41479
G1 X193.040 Y179.927 E0.41504
G1 X195.027 Y177.734 E0.39538
G1 E-2.24000 F2400.000
;WIPE_START
G1 F12480.000
G1 X197.426 Y175.540 E-0.59392
G1 X198.824 Y174.503 E-0.31808
;WIPE_END
G1 E-0.04800 F2400.000
G1 Z0.700 F15600.000
G1 X200.229 Y182.729
G1 Z0.500
G1 E3.20000 F1500.000
;TYPE:External perimeter
G1 F1306.988
G1 X202.005 Y181.120 E0.32019
G1 X203.931 Y179.692 E0.32032
G1 X205.986 Y178.460 E0.32017
G1 X208.153 Y177.435 E0.32026
M73 P1 R45
G1 X210.410 Y176.627 E0.32025
G1 X212.735 Y176.045 E0.32024
G1 X215.106 Y175.693 E0.32025
G1 X217.500 Y175.576 E0.32017
G1 X219.894 Y175.693 E0.32017
G1 X222.265 Y176.045 E0.32025
G1 X224.590 Y176.627 E0.32024
G1 X226.847 Y177.435 E0.32025
G1 X229.014 Y178.460 E0.32026
G1 X231.069 Y179.692 E0.32017
G1 X232.995 Y181.120 E0.32032
G1 X234.771 Y182.729 E0.32019
G1 X236.380 Y184.505 E0.32018
G1 X237.808 Y186.431 E0.32032
G1 X239.040 Y188.486 E0.32017
G1 X240.065 Y190.653 E0.32026
G1 X240.873 Y192.910 E0.32025
G1 X241.455 Y195.235 E0.32024
G1 X241.807 Y197.606 E0.32025
G1 X241.924 Y200.000 E0.32017
G1 X241.807 Y202.394 E0.32017
G1 X241.455 Y204.765 E0.32025
G1 X240.873 Y207.090 E0.32024
G1 X240.065 Y209.347 E0.32025
G1 X239.040 Y211.514 E0.32026
G1 X237.808 Y213.569 E0.32017
G1 X236.380 Y215.495 E0.32032
G1 X234.771 Y217.271 E0.32018
G1 X232.995 Y218.880 E0.32018
G1 X231.069 Y220.308 E0.32032
G1 X229.014 Y221.540 E0.32017
G1 X226.847 Y222.565 E0.32026
G1 X224.590 Y223.373 E0.32025
M73 P1 R44
G1 X222.265 Y223.955 E0.32024
G1 X219.894 Y224.307 E0.32025
G1 X217.500 Y224.424 E0.32017
G1 X215.106 Y224.307 E0.32017
G1 X212.735 Y223.955 E0.32025
G1 X210.410 Y223.373 E0.32024
G1 X208.153 Y222.565 E0.32025
G1 X205.986 Y221.540 E0.32026
G1 X203.931 Y220.308 E0.32017
G1 X202.005 Y218.880 E0.32032
G1 X200.229 Y217.271 E0.32019
G1 X198.620 Y215.495 E0.32018
G1 X197.192 Y213.569 E0.32032
G1 X195.960 Y211.514 E0.32017
G1 X194.935 Y209.347 E0.32026
G1 X194.127 Y207.090 E0.32025
G1 X193.545 Y204.765 E0.32024
G1 X193.193 Y202.394 E0.32025
G1 X193.076 Y200.000 E0.32017
G1 X193.193 Y197.606 E0.32017
G1 X193.545 Y195.235 E0.32025
G1 X194.127 Y192.910 E0.32024
G1 X194.935 Y190.653 E0.32025
G1 X195.960 Y188.486 E0.32026
G1 X197.192 Y186.431 E0.32017
G1 X198.620 Y184.505 E0.32032
G1 X200.128 Y182.840 E0.30014
G1 E-2.24000 F2400.000
;WIPE_START
G1 F12480.000
G1 X202.005 Y181.120 E-0.46511
G1 X203.931 Y179.692 E-0.43802
G1 X203.972 Y179.667 E-0.00887
;WIPE_END
G1 E-0.04800 F2400.000
G1 Z0.700 F15600.000
G1 X231.918 Y180.562
G1 Z0.500
G1 E3.20000 F1500.000
;TYPE:Solid infill
;WIDTH:0.754338
G1 F1298.226
G1 X234.455 Y183.098 E0.48242
G1 X236.007 Y184.811 E0.31098
G1 X237.407 Y186.699 E0.31612
G1 X237.806 Y187.364 E0.10426
G1 X230.136 Y179.694 E1.45885
G1 X228.786 Y178.885 E0.21169
G1 X228.076 Y178.550 E0.10562
G1 X238.950 Y189.424 E2.06844
G1 X239.619 Y190.838 E0.21043
G1 X239.714 Y191.102 E0.03775
G1 X226.398 Y177.786 E2.53296
G1 X224.972 Y177.276 E0.20363
G1 X240.224 Y192.528 E2.90114
G1 X240.411 Y193.050 E0.07467
G1 X240.605 Y193.823 E0.10720
G1 X223.677 Y176.895 E3.22004
G1 X222.456 Y176.589 E0.16926
G1 X240.911 Y195.044 E3.51039
G1 X240.982 Y195.329 E0.03956
G1 X241.104 Y196.153 E0.11195
G1 X221.347 Y176.396 E3.75809
G1 X220.273 Y176.236 E0.14609
G1 X241.264 Y197.227 E3.99278
G1 X241.327 Y197.654 E0.05799
G1 X241.355 Y198.234 E0.07814
G1 X219.266 Y176.145 E4.20171
G1 X218.304 Y176.098 E0.12957
G1 X241.402 Y199.196 E4.39370
G1 X241.435 Y200.143 E0.12750
G1 X217.357 Y176.065 E4.58006
G1 X216.484 Y176.108 E0.11747
G1 X241.392 Y201.016 E4.73787
G1 X241.349 Y201.888 E0.11747
G1 X215.612 Y176.151 E4.89567
G1 X215.154 Y176.173 E0.06171
G1 X214.775 Y176.229 E0.05143
G1 X241.271 Y202.725 E5.03984
G1 X241.152 Y203.521 E0.10835
G1 X213.979 Y176.348 E5.16893
M73 P2 R44
G1 X213.182 Y176.466 E0.10835
G1 X241.034 Y204.318 E5.29802
G1 X240.982 Y204.671 E0.04790
G1 X240.880 Y205.079 E0.05661
G1 X212.421 Y176.620 E5.41331
G1 X211.689 Y176.803 E0.10147
G1 X240.697 Y205.811 E5.51765
G1 X240.513 Y206.542 E0.10147
G1 X210.958 Y176.987 E5.62199
G1 X210.550 Y177.089 E0.05647
G1 X210.251 Y177.196 E0.04269
G1 X240.304 Y207.249 E5.71655
G1 X240.063 Y207.922 E0.09626
G1 X209.578 Y177.437 E5.79883
G1 X208.904 Y177.678 E0.09626
G1 X239.822 Y208.596 E5.88112
G1 X239.572 Y209.262 E0.09559
G1 X208.238 Y177.928 E5.96019
G1 X207.617 Y178.222 E0.09243
G1 X239.278 Y209.883 E6.02248
G1 X238.985 Y210.504 E0.09243
G1 X206.996 Y178.515 E6.08476
G1 X206.375 Y178.809 E0.09243
G1 X238.691 Y211.125 E6.14704
G1 X238.615 Y211.286 E0.02394
G1 X238.361 Y211.710 E0.06648
G1 X205.790 Y179.139 E6.19548
G1 X205.218 Y179.482 E0.08972
G1 X238.018 Y212.282 E6.23908
M73 P3 R44
G1 X237.675 Y212.854 E0.08972
G1 X204.646 Y179.825 E6.28269
G1 X204.084 Y180.178 E0.08926
G1 X237.322 Y213.416 E6.32239
G1 X236.932 Y213.942 E0.08798
G1 X203.558 Y180.568 E6.34820
G1 X203.033 Y180.958 E0.08798
G1 X236.542 Y214.467 E6.37400
G1 X236.153 Y214.992 E0.08798
G1 X202.508 Y181.347 E6.39981
M73 P3 R43
G1 X202.311 Y181.493 E0.03288
G1 X202.011 Y181.766 E0.05457
G1 X235.734 Y215.489 E6.41484
G1 X235.300 Y215.969 E0.08713
G1 X201.531 Y182.200 E6.42343
G1 X201.050 Y182.635 E0.08713
G1 X234.865 Y216.450 E6.43202
G1 X234.430 Y216.930 E0.08713
G1 X200.570 Y183.070 E6.44060
G1 X200.135 Y183.550 E0.08713
G1 X233.950 Y217.365 E6.43201
G1 X233.469 Y217.800 E0.08713
G1 X199.700 Y184.031 E6.42342
G1 X199.265 Y184.511 E0.08713
G1 X232.989 Y218.235 E6.41483
M73 P4 R43
G1 X232.689 Y218.507 E0.05456
G1 X232.492 Y218.653 E0.03289
G1 X198.847 Y185.008 E6.39981
G1 X198.458 Y185.533 E0.08798
G1 X231.967 Y219.042 E6.37400
G1 X231.442 Y219.432 E0.08798
G1 X198.068 Y186.058 E6.34819
G1 X197.678 Y186.584 E0.08798
G1 X230.916 Y219.822 E6.32239
G1 X230.354 Y220.175 E0.08926
G1 X197.325 Y187.146 E6.28269
G1 X196.982 Y187.718 E0.08972
G1 X229.782 Y220.518 E6.23908
G1 X229.210 Y220.861 E0.08972
G1 X196.639 Y188.290 E6.19548
G1 X196.385 Y188.714 E0.06648
G1 X196.309 Y188.875 E0.02395
G1 X228.625 Y221.191 E6.14703
G1 X228.004 Y221.485 E0.09243
G1 X196.015 Y189.496 E6.08475
G1 X195.722 Y190.117 E0.09243
G1 X227.383 Y221.778 E6.02247
G1 X226.761 Y222.072 E0.09243
G1 X195.428 Y190.739 E5.96019
G1 X195.178 Y191.404 E0.09559
G1 X226.096 Y222.322 E5.88111
G1 X225.422 Y222.563 E0.09626
G1 X194.937 Y192.078 E5.79883
M73 P5 R43
G1 X194.696 Y192.752 E0.09626
G1 X224.748 Y222.804 E5.71654
G1 X224.450 Y222.911 E0.04268
G1 X224.042 Y223.013 E0.05648
G1 X194.487 Y193.458 E5.62198
G1 X194.303 Y194.189 E0.10147
G1 X223.311 Y223.197 E5.51764
G1 X222.579 Y223.380 E0.10147
G1 X194.120 Y194.921 E5.41330
G1 X194.018 Y195.329 E0.05660
G1 X193.966 Y195.682 E0.04791
G1 X221.818 Y223.534 E5.29801
G1 X221.021 Y223.653 E0.10835
G1 X193.847 Y196.479 E5.16892
G1 X193.729 Y197.275 E0.10835
G1 X220.225 Y223.771 E5.03983
G1 X219.846 Y223.827 E0.05143
G1 X219.388 Y223.849 E0.06172
G1 X193.651 Y198.112 E4.89566
M73 P5 R42
G1 X193.608 Y198.984 E0.11747
G1 X218.516 Y223.892 E4.73785
G1 X217.643 Y223.935 E0.11747
G1 X193.565 Y199.857 E4.58005
G1 X193.598 Y200.804 E0.12750
G1 X216.696 Y223.902 E4.39368
G1 X215.734 Y223.855 E0.12957
G1 X193.645 Y201.766 E4.20170
G1 X193.673 Y202.346 E0.07813
G1 X193.736 Y202.773 E0.05800
G1 X214.727 Y223.764 E3.99276
G1 X213.653 Y223.604 E0.14609
G1 X193.896 Y203.847 E3.75807
G1 X194.018 Y204.671 E0.11194
G1 X194.089 Y204.956 E0.03957
G1 X212.544 Y223.411 E3.51037
G1 X211.323 Y223.105 E0.16927
M73 P6 R42
G1 X194.395 Y206.177 E3.22001
G1 X194.589 Y206.950 E0.10718
G1 X194.776 Y207.473 E0.07468
G1 X210.027 Y222.724 E2.90111
G1 X208.602 Y222.214 E0.20363
G1 X195.286 Y208.898 E2.53293
G1 X195.381 Y209.162 E0.03773
G1 X196.050 Y210.576 E0.21046
G1 X206.924 Y221.450 E2.06840
G1 X206.214 Y221.115 E0.10560
G1 X204.864 Y220.305 E0.21172
G1 X197.195 Y212.636 E1.45879
G1 X197.593 Y213.301 E0.10423
G1 X198.993 Y215.189 E0.31612
G1 X200.546 Y216.903 E0.31113
G1 X203.081 Y219.438 E0.48222
;LAYER_CHANGE
;Z:1.2
;HEIGHT:0.7
;BEFORE_LAYER_CHANGE
G92 E0.0
;1.2


G1 E-2.24000 F2400.000
;WIPE_START
G1 F12480.000
G1 X200.546 Y216.903 E-0.65499
G1 X199.602 Y215.860 E-0.25701
;WIPE_END
G1 E-0.04800 F2400.000
G1 Z0.700 F15600.000
G1 Z1.200
;AFTER_LAYER_CHANGE
;1.2
M104 S240 ; set temperature
M140 S90 ; set bed temperature
G1 X200.220 Y182.720
G1 E3.20000 F1500.000
;TYPE:External perimeter
;WIDTH:1.125
G1 F615.524
G1 X201.997 Y181.110 E0.68022
G1 X203.924 Y179.681 E0.68051
G1 X205.980 Y178.449 E0.68018
G1 X208.149 Y177.423 E0.68038
G1 X210.407 Y176.615 E0.68036
G1 X212.733 Y176.032 E0.68033
G1 X215.105 Y175.680 E0.68035
G1 X217.500 Y175.563 E0.68020
G1 X219.792 Y175.675 E0.65094
G1 X222.268 Y176.033 E0.70979
G1 X224.593 Y176.615 E0.68001
G1 X226.851 Y177.423 E0.68036
G1 X229.020 Y178.449 E0.68038
G1 X231.076 Y179.681 E0.68018
G1 X233.003 Y181.110 E0.68051
G1 X234.780 Y182.720 E0.68022
G1 X236.390 Y184.497 E0.68022
G1 X237.819 Y186.424 E0.68051
G1 X239.051 Y188.480 E0.68018
G1 X240.077 Y190.649 E0.68038
G1 X240.885 Y192.907 E0.68036
G1 X241.468 Y195.233 E0.68033
G1 X241.820 Y197.605 E0.68035
G1 X241.937 Y200.000 E0.68020
G1 X241.820 Y202.395 E0.68020
G1 X241.468 Y204.767 E0.68035
G1 X240.885 Y207.093 E0.68033
G1 X240.077 Y209.351 E0.68036
G1 X239.051 Y211.520 E0.68038
G1 X237.819 Y213.576 E0.68018
G1 X236.390 Y215.503 E0.68051
G1 X234.780 Y217.280 E0.68022
G1 X233.003 Y218.890 E0.68022
G1 X231.076 Y220.319 E0.68051
G1 X229.020 Y221.551 E0.68018
G1 X226.851 Y222.577 E0.68038
G1 X224.593 Y223.385 E0.68036
G1 X222.267 Y223.968 E0.68033
G1 X219.895 Y224.320 E0.68035
G1 X217.500 Y224.437 E0.68020
G1 X215.105 Y224.320 E0.68020
G1 X212.733 Y223.968 E0.68035
G1 X210.407 Y223.385 E0.68033
G1 X208.149 Y222.577 E0.68036
G1 X205.980 Y221.551 E0.68038
G1 X203.924 Y220.319 E0.68018
G1 X201.997 Y218.890 E0.68051
G1 X200.220 Y217.280 E0.68022
G1 X198.610 Y215.503 E0.68022
G1 X197.181 Y213.576 E0.68051
G1 X195.949 Y211.520 E0.68018
G1 X194.923 Y209.351 E0.68038
G1 X194.115 Y207.093 E0.68036
G1 X193.532 Y204.767 E0.68033
G1 X193.180 Y202.395 E0.68035
G1 X193.063 Y200.000 E0.68020
G1 X193.180 Y197.605 E0.68020
G1 X193.532 Y195.233 E0.68035
G1 X194.115 Y192.907 E0.68033
G1 X194.923 Y190.649 E0.68036
G1 X195.949 Y188.480 E0.68038
G1 X197.181 Y186.424 E0.68018
G1 X198.610 Y184.497 E0.68051
G1 X200.120 Y182.831 E0.63767
G1 X231.020 Y219.997 F15600.000
;TYPE:Solid infill
;WIDTH:1.1377
G1 F607.607
G1 X234.341 Y216.675 E1.34999
G1 X235.824 Y215.038 E0.63456
G1 X237.210 Y213.169 E0.66876
G1 X238.347 Y211.273 E0.63546
G1 X228.773 Y220.847 E3.89111
G1 X226.571 Y221.900 E0.70140
G1 X226.184 Y222.039 E0.11821
G1 X239.539 Y208.684 E5.42780
G1 X240.185 Y206.881 E0.55037
G1 X240.264 Y206.562 E0.09445
G1 X224.062 Y222.764 E6.58496
M73 P7 R42
G1 X222.199 Y223.231 E0.55194
G1 X240.731 Y204.699 E7.53176
G1 X240.983 Y203.050 E0.47932
G1 X220.550 Y223.483 E8.30431
G1 X219.823 Y223.591 E0.21129
G1 X219.006 Y223.631 E0.23512
G1 X241.131 Y201.506 E8.99210
G1 X241.203 Y200.038 E0.42251
G1 X217.538 Y223.703 E9.61813
G1 X216.203 Y223.641 E0.38401
G1 X241.141 Y198.703 E10.13555
G1 X241.091 Y197.677 E0.29519
G1 X241.050 Y197.398 E0.08105
G1 X214.898 Y223.550 E10.62864
G1 X213.682 Y223.369 E0.35332
G1 X240.869 Y196.182 E11.04959
M73 P7 R41
G1 X240.750 Y195.376 E0.23421
G1 X240.655 Y194.999 E0.11154
G1 X212.499 Y223.155 E11.44332
M73 P8 R41
G1 X211.382 Y222.876 E0.33087
G1 X240.376 Y193.882 E11.78356
G1 X240.185 Y193.119 E0.22612
G1 X240.068 Y192.793 E0.09938
G1 X210.293 Y222.568 E12.10102
G1 X209.265 Y222.200 E0.31390
G1 X239.700 Y191.765 E12.36934
G1 X239.400 Y190.929 E0.25530
G1 X239.317 Y190.752 E0.05626
G1 X208.252 Y221.817 E12.62548
G1 X207.304 Y221.368 E0.30141
G1 X238.868 Y189.804 E12.82857
G1 X238.420 Y188.856 E0.30141
G1 X206.356 Y220.920 E13.03166
M73 P9 R41
G1 X205.480 Y220.399 E0.29279
G1 X237.899 Y187.980 E13.17577
G1 X237.376 Y187.107 E0.29255
G1 X204.607 Y219.876 E13.31796
G1 X204.331 Y219.710 E0.09255
G1 X203.782 Y219.304 E0.19613
G1 X236.804 Y186.282 E13.42047
G1 X236.209 Y185.481 E0.28689
G1 X202.981 Y218.709 E13.50463
G1 X202.462 Y218.324 E0.18574
G1 X202.203 Y218.090 E0.10017
G1 X235.590 Y184.703 E13.56898
G1 X234.926 Y183.971 E0.28413
G1 X201.470 Y217.426 E13.59699
M73 P10 R40
G1 X200.738 Y216.762 E0.28413
G1 X234.262 Y183.238 E13.62500
G1 X233.529 Y182.574 E0.28413
G1 X200.074 Y216.029 E13.59699
G1 X199.410 Y215.297 E0.28413
G1 X232.797 Y181.910 E13.56898
G1 X232.538 Y181.676 E0.10016
G1 X232.019 Y181.291 E0.18576
G1 X198.791 Y214.519 E13.50462
G1 X198.196 Y213.718 E0.28689
G1 X231.218 Y180.696 E13.42047
G1 X230.669 Y180.290 E0.19611
G1 X230.393 Y180.124 E0.09257
G1 X197.624 Y212.893 E13.31795
M73 P11 R40
G1 X197.101 Y212.020 E0.29255
G1 X229.520 Y179.601 E13.17577
G1 X228.644 Y179.080 E0.29279
G1 X196.580 Y211.144 E13.03164
G1 X196.132 Y210.196 E0.30141
