; generated by PrusaSlicer 2.3.1+win64 on 2021-06-25 at 13:48:01 UTC


;
;

;
;
; 

; external perimeters extrusion width = 1.12mm
; perimeters extrusion width = 1.12mm
; infill extrusion width = 1.12mm
; solid infill extrusion width = 1.12mm
; top infill extrusion width = 1.00mm
; first layer extrusion width = 0.75mm

M73 P0 R5
M201 X1250 Y1250 Z1250 E5000 ; sets maximum accelerations, mm/sec^2
M203 X200 Y200 Z200 E200 ; sets maximum feedrates, mm/sec
M204 P1250 R1250 T1250 ; sets acceleration (P, T) and retract acceleration (R), mm/sec^2
M205 X8.00 Y8.00 Z2.00 E10.00 ; sets the jerk limits, mm/sec
M205 S0 T0 ; sets the minimum extruding and travel feed rate, mm/sec
M107
M190 S85 ; set bed temperature and wait for it to be reached
;TYPE:Custom
G90 ; use absolute coordinates
M83 ; extruder relative mode
G28 ; home all without mesh bed level
G29 ; mesh bed leveling 
M104 S230 ; set extruder temp
G92 E0.0
G1 Y-2.0 X179 F2400
M73 P1 R5
G1 Z3 F720
M109 S230 ; wait for extruder temp

; intro line
G1 X170 F1000
G1 Z0.2 F720
G1 X110.0 E8.0 F900
M73 P3 R5
G1 X40.0 E10.0 F700
G92 E0.0

M221 S95 ; set flow
G21 ; set units to millimeters
G90 ; use absolute coordinates
M83 ; use relative distances for extrusion
M900 K0.2 ; Filament gcode
;LAYER_CHANGE
;Z:0.5
;HEIGHT:0.5
;BEFORE_LAYER_CHANGE
G92 E0.0
;0.5


M73 P4 R5
G1 E-3.20000 F2400.000
G1 Z0.200 F15600.000
G1 Z0.500
;AFTER_LAYER_CHANGE
;0.5
G1 Z0.700
G1 X207.181 Y191.465
M73 P5 R5
G1 Z0.500
G1 E3.20000 F1500.000
;TYPE:Skirt
;WIDTH:0.75
G1 F1228
G1 X208.183 Y190.383 E0.19702
G1 X209.071 Y189.596 E0.15856
G1 X210.270 Y188.729 E0.19768
G1 X211.204 Y188.182 E0.14466
G1 X212.522 Y187.568 E0.19426
G1 X213.549 Y187.206 E0.14550
G1 X214.980 Y186.848 E0.19697
G1 X216.030 Y186.691 E0.14191
G1 X217.505 Y186.608 E0.19741
G1 X218.984 Y186.692 E0.19784
G1 X220.052 Y186.853 E0.14426
G1 X221.486 Y187.215 E0.19758
G1 X222.576 Y187.607 E0.15488
G1 X223.847 Y188.208 E0.18779
G1 X224.844 Y188.802 E0.15501
G1 X226.036 Y189.680 E0.19777
G1 X227.118 Y190.682 E0.19703
G1 X227.905 Y191.570 E0.15857
G1 X228.773 Y192.769 E0.19769
G1 X229.319 Y193.704 E0.14467
G1 X229.934 Y195.021 E0.19428
G1 X230.294 Y196.043 E0.14466
G1 X230.654 Y197.480 E0.19798
G1 X230.815 Y198.570 E0.14716
G1 X230.893 Y200.005 E0.19204
G1 X230.809 Y201.484 E0.19786
G1 X230.648 Y202.551 E0.14426
G1 X230.286 Y203.986 E0.19768
G1 X229.893 Y205.076 E0.15480
G1 X229.293 Y206.347 E0.18779
M73 P6 R5
G1 X228.700 Y207.341 E0.15467
G1 X227.821 Y208.535 E0.19811
G1 X226.819 Y209.617 E0.19703
G1 X225.931 Y210.405 E0.15857
G1 X224.732 Y211.272 E0.19769
G1 X223.797 Y211.819 E0.14467
G1 X222.479 Y212.433 E0.19428
G1 X221.452 Y212.795 E0.14551
G1 X220.021 Y213.152 E0.19697
G1 X218.971 Y213.309 E0.14191
G1 X217.496 Y213.392 E0.19741
G1 X216.017 Y213.308 E0.19784
G1 X214.949 Y213.147 E0.14426
G1 X213.514 Y212.784 E0.19781
G1 X212.425 Y212.392 E0.15464
G1 X211.154 Y211.792 E0.18778
G1 X210.158 Y211.197 E0.15500
G1 X208.966 Y210.319 E0.19775
G1 X207.884 Y209.317 E0.19702
G1 X207.096 Y208.430 E0.15856
G1 X206.229 Y207.231 E0.19767
G1 X205.683 Y206.296 E0.14466
G1 X205.068 Y204.979 E0.19413
G1 X204.706 Y203.951 E0.14564
G1 X204.348 Y202.520 E0.19711
G1 X204.187 Y201.430 E0.14713
G1 X204.109 Y199.995 E0.19204
G1 X204.192 Y198.517 E0.19785
G1 X204.354 Y197.449 E0.14425
G1 X204.716 Y196.015 E0.19767
G1 X205.108 Y194.924 E0.15479
G1 X205.709 Y193.654 E0.18778
G1 X206.302 Y192.659 E0.15466
G1 X207.092 Y191.586 E0.17805
G1 E-2.24000 F2400.000
;WIPE_START
G1 F12480.000
G1 X208.183 Y190.383 E-0.29666
G1 X209.071 Y189.596 E-0.21682
G1 X210.270 Y188.729 E-0.27031
G1 X210.875 Y188.374 E-0.12820
;WIPE_END
G1 E-0.04800 F2400.000
G1 Z0.700 F15600.000
G1 X214.086 Y197.183
G1 Z0.500
G1 E3.20000 F1500.000
;TYPE:External perimeter
G1 F1228
G1 X214.277 Y196.965 E0.03875
G1 X214.674 Y196.592 E0.07274
G1 X215.132 Y196.259 E0.07574
G1 X215.610 Y195.997 E0.07282
G1 X215.876 Y195.881 E0.03867
G1 X216.400 Y195.711 E0.07355
G1 X216.940 Y195.608 E0.07350
G1 X217.506 Y195.573 E0.07579
G1 X218.055 Y195.607 E0.07352
G1 X218.601 Y195.711 E0.07427
G1 X219.130 Y195.883 E0.07430
G1 X219.628 Y196.117 E0.07340
G1 X220.111 Y196.425 E0.07662
G1 X220.532 Y196.773 E0.07287
G1 X220.908 Y197.174 E0.07353
M73 P7 R5
G1 X221.086 Y197.403 E0.03869
G1 X221.378 Y197.862 E0.07278
G1 X221.619 Y198.375 E0.07575
G1 X221.789 Y198.899 E0.07355
G1 X221.892 Y199.440 E0.07351
G1 X221.928 Y200.007 E0.07590
G1 X221.893 Y200.555 E0.07340
G1 X221.789 Y201.101 E0.07426
G1 X221.617 Y201.630 E0.07430
G1 X221.383 Y202.128 E0.07350
G1 X221.235 Y202.378 E0.03887
G1 X220.916 Y202.817 E0.07256
G1 X220.724 Y203.035 E0.03878
G1 X220.327 Y203.408 E0.07274
G1 X219.869 Y203.741 E0.07574
G1 X219.391 Y204.003 E0.07282
G1 X219.125 Y204.119 E0.03867
G1 X218.603 Y204.288 E0.07336
G1 X218.171 Y204.374 E0.05886
G1 X217.782 Y204.418 E0.05230
G1 X217.494 Y204.427 E0.03845
G1 X216.946 Y204.393 E0.07341
G1 X216.405 Y204.290 E0.07350
G1 X216.123 Y204.207 E0.03927
G1 X215.621 Y204.008 E0.07215
G1 X215.354 Y203.872 E0.03997
G1 X214.900 Y203.583 E0.07205
G1 X214.597 Y203.340 E0.05181
G1 X214.272 Y203.030 E0.06002
G1 X213.923 Y202.608 E0.07315
G1 X213.759 Y202.368 E0.03883
G1 X213.497 Y201.890 E0.07282
G1 X213.382 Y201.624 E0.03871
G1 X213.210 Y201.093 E0.07463
G1 X213.109 Y200.560 E0.07239
G1 X213.073 Y199.994 E0.07578
G1 X213.108 Y199.445 E0.07352
G1 X213.212 Y198.899 E0.07427
G1 X213.384 Y198.370 E0.07430
G1 X213.617 Y197.873 E0.07340
G1 X213.765 Y197.622 E0.03889
G1 X213.997 Y197.304 E0.05264
G1 E-2.24000 F2400.000
;WIPE_START
G1 F12480.000
G1 X214.277 Y196.965 E-0.08031
G1 X214.674 Y196.592 E-0.09947
G1 X215.132 Y196.259 E-0.10357
G1 X215.610 Y195.997 E-0.09957
G1 X215.876 Y195.881 E-0.05288
G1 X216.400 Y195.711 E-0.10058
G1 X216.940 Y195.608 E-0.10051
G1 X217.506 Y195.573 E-0.10363
G1 X218.055 Y195.607 E-0.10053
G1 X218.437 Y195.680 E-0.07093
;WIPE_END
G1 E-0.04800 F2400.000
G1 Z0.700 F15600.000
G1 X213.004 Y195.769
G1 Z0.500
G1 E3.20000 F1500.000
G1 F1228
G1 X213.270 Y195.504 E0.05012
G1 X213.876 Y195.002 E0.10519
G1 X214.527 Y194.590 E0.10285
G1 X214.872 Y194.414 E0.05173
G1 X215.228 Y194.259 E0.05194
G1 X215.966 Y194.020 E0.10356
G1 X216.726 Y193.875 E0.10347
G1 X217.112 Y193.839 E0.05174
G1 X217.532 Y193.828 E0.05611
G1 X218.280 Y193.876 E0.10022
G1 X219.036 Y194.020 E0.10277
G1 X219.410 Y194.128 E0.05200
G1 X219.774 Y194.259 E0.05167
G1 X220.475 Y194.589 E0.10357
G1 X220.810 Y194.787 E0.05194
G1 X221.125 Y195.001 E0.05098
G1 X221.732 Y195.503 E0.10521
G1 X221.997 Y195.769 E0.05013
G1 X222.499 Y196.375 E0.10520
G1 X222.911 Y197.026 E0.10287
G1 X223.242 Y197.727 E0.10364
G1 X223.373 Y198.091 E0.05168
G1 X223.566 Y198.842 E0.10354
G1 X223.629 Y199.257 E0.05610
G1 X223.675 Y200.005 E0.10016
G1 X223.627 Y200.774 E0.10293
G1 X223.566 Y201.157 E0.05175
G1 X223.373 Y201.909 E0.10369
G1 X223.242 Y202.273 E0.05171
G1 X222.911 Y202.974 E0.10361
G1 X222.714 Y203.309 E0.05190
G1 X222.499 Y203.625 E0.05106
G1 X221.997 Y204.231 E0.10517
G1 X221.732 Y204.497 E0.05012
G1 X221.125 Y204.999 E0.10525
G1 X220.475 Y205.411 E0.10283
G1 X219.774 Y205.741 E0.10351
G1 X219.379 Y205.881 E0.05595
G1 X218.652 Y206.065 E0.10025
G1 X218.275 Y206.125 E0.05103
G1 X217.501 Y206.174 E0.10365
G1 X216.726 Y206.125 E0.10365
G1 X216.344 Y206.065 E0.05174
G1 X215.592 Y205.872 E0.10366
G1 X215.228 Y205.741 E0.05175
G1 X214.527 Y205.410 E0.10355
G1 X214.192 Y205.212 E0.05193
G1 X213.872 Y204.995 E0.05172
G1 X213.567 Y204.757 E0.05166
G1 X213.252 Y204.478 E0.05626
G1 X212.740 Y203.930 E0.10010
G1 X212.505 Y203.629 E0.05104
G1 X212.288 Y203.309 E0.05172
G1 X212.090 Y202.974 E0.05193
G1 X211.760 Y202.272 E0.10363
G1 X211.629 Y201.908 E0.05167
G1 X211.436 Y201.158 E0.10353
G1 X211.373 Y200.743 E0.05607
G1 X211.327 Y199.995 E0.10017
G1 X211.375 Y199.226 E0.10292
M73 P8 R5
G1 X211.436 Y198.843 E0.05174
G1 X211.629 Y198.092 E0.10367
G1 X211.760 Y197.727 E0.05170
G1 X212.090 Y197.026 E0.10360
G1 X212.288 Y196.692 E0.05189
G1 X212.502 Y196.375 E0.05105
G1 X212.909 Y195.885 E0.08511
G1 E-2.24000 F2400.000
;WIPE_START
G1 F12480.000
G1 X213.270 Y195.504 E-0.09585
G1 X213.876 Y195.002 E-0.14385
G1 X214.527 Y194.590 E-0.14064
G1 X214.872 Y194.414 E-0.07074
G1 X215.228 Y194.259 E-0.07103
G1 X215.966 Y194.020 E-0.14162
G1 X216.726 Y193.875 E-0.14149
G1 X217.112 Y193.839 E-0.07075
G1 X217.309 Y193.834 E-0.03604
;WIPE_END
G1 E-0.04800 F2400.000
G1 Z0.700 F15600.000
G1 X222.841 Y197.312
G1 Z0.500
G1 E3.20000 F1500.000
;TYPE:Solid infill
;WIDTH:0.775111
G1 F1228
G1 X221.304 Y195.775 E0.30176
G1 X220.836 Y195.387 E0.08434
G1 X220.249 Y195.016 E0.09641
G1 X219.589 Y194.704 E0.10130
G1 X219.135 Y194.550 E0.06656
G1 X222.939 Y198.354 E0.74677
G1 X223.016 Y198.592 E0.03472
G1 X223.092 Y198.931 E0.04826
G1 X223.149 Y199.308 E0.05298
G1 X223.163 Y199.522 E0.02975
G1 X222.179 Y198.539 E0.19312
G1 X222.071 Y198.205 E0.04874
G1 X221.797 Y197.623 E0.08918
G1 X221.480 Y197.125 E0.08197
G1 X221.275 Y196.861 E0.04647
G1 X220.862 Y196.420 E0.08379
G1 X220.402 Y196.039 E0.08297
G1 X219.853 Y195.690 E0.09028
G1 X219.308 Y195.434 E0.08362
G1 X218.962 Y195.322 E0.05052
G1 X217.670 Y194.030 E0.25363
G1 E-2.24000 F2400.000
;WIPE_START
G1 F12480.000
G1 X218.962 Y195.322 E-0.33379
G1 X219.308 Y195.434 E-0.06648
G1 X219.853 Y195.690 E-0.11005
G1 X220.402 Y196.039 E-0.11881
G1 X220.862 Y196.420 E-0.10920
G1 X221.275 Y196.861 E-0.11027
G1 X221.480 Y197.125 E-0.06115
G1 X221.487 Y197.136 E-0.00226
;WIPE_END
G1 E-0.04800 F2400.000
G1 Z0.700 F15600.000
G1 X218.119 Y195.423
G1 Z0.500
G1 E3.20000 F1500.000
G1 F1228
G1 X217.027 Y194.331 E0.21438
G1 X216.794 Y194.353 E0.03243
G1 X216.215 Y194.463 E0.08189
G1 X216.881 Y195.129 E0.13080
G1 X216.280 Y195.244 E0.08497
G1 X216.107 Y195.300 E0.02523
G1 X215.489 Y194.682 E0.12136
G1 X215.077 Y194.850 E0.06172
G1 X214.836 Y194.973 E0.03760
G1 X215.417 Y195.555 E0.11417
G1 X214.812 Y195.894 E0.09633
G1 X214.252 Y195.334 E0.10988
G1 X213.726 Y195.752 E0.09332
G1 X214.277 Y196.304 E0.10829
G1 X213.931 Y196.629 E0.06601
G1 X213.803 Y196.774 E0.02679
G1 X213.254 Y196.224 E0.10791
G1 X212.888 Y196.665 E0.07945
G1 X212.832 Y196.748 E0.01386
G1 X213.396 Y197.311 E0.11058
G1 X213.191 Y197.647 E0.05470
G1 X213.062 Y197.921 E0.04204
G1 X212.477 Y197.337 E0.11482
G1 X212.182 Y197.986 E0.09905
G1 X212.801 Y198.605 E0.12138
G1 X212.744 Y198.779 E0.02543
G1 X212.630 Y199.378 E0.08467
G1 X211.964 Y198.712 E0.13068
G1 X211.854 Y199.286 E0.08111
G1 X211.839 Y199.532 E0.03415
G1 X212.923 Y200.616 E0.21280
M73 P9 R5
G1 E-2.24000 F2400.000
;WIPE_START
G1 F12480.000
G1 X211.839 Y199.532 E-0.28005
G1 X211.854 Y199.286 E-0.04494
G1 X211.964 Y198.712 E-0.10674
G1 X212.630 Y199.378 E-0.17197
G1 X212.744 Y198.779 E-0.11143
G1 X212.801 Y198.605 E-0.03347
G1 X212.182 Y197.986 E-0.15973
G1 X212.191 Y197.968 E-0.00367
;WIPE_END
G1 E-0.04800 F2400.000
G1 Z0.700 F15600.000
G1 X222.078 Y199.382
G1 Z0.500
G1 E3.20000 F1500.000
G1 F1228
G1 X223.163 Y200.467 E0.21307
G1 X223.147 Y200.714 E0.03431
G1 X223.038 Y201.287 E0.08097
G1 X222.372 Y200.620 E0.13082
G1 X222.257 Y201.221 E0.08489
G1 X222.201 Y201.394 E0.02522
G1 X222.820 Y202.013 E0.12151
G1 X222.525 Y202.663 E0.09906
G1 X221.940 Y202.077 E0.11496
G1 X221.810 Y202.354 E0.04244
G1 X221.606 Y202.688 E0.05429
G1 X222.170 Y203.252 E0.11079
G1 X221.749 Y203.775 E0.09325
G1 X221.199 Y203.225 E0.10803
G1 X221.070 Y203.371 E0.02698
G1 X220.725 Y203.695 E0.06582
G1 X221.277 Y204.248 E0.10842
G1 X220.751 Y204.666 E0.09331
G1 X220.189 Y204.104 E0.11023
G1 X219.585 Y204.445 E0.09626
G1 X220.167 Y205.027 E0.11429
G1 X219.924 Y205.150 E0.03785
G1 X219.517 Y205.321 E0.06130
G1 X218.896 Y204.700 E0.12193
G1 X218.725 Y204.755 E0.02498
G1 X218.117 Y204.865 E0.08574
G1 X218.786 Y205.534 E0.13130
G1 X218.562 Y205.591 E0.03199
G1 X217.972 Y205.665 E0.08258
G1 X216.885 Y204.578 E0.21347
G1 E-2.24000 F2400.000
;WIPE_START
G1 F12480.000
G1 X217.972 Y205.665 E-0.28093
G1 X218.562 Y205.591 E-0.10867
G1 X218.786 Y205.534 E-0.04210
G1 X218.117 Y204.865 E-0.17279
G1 X218.725 Y204.755 E-0.11284
G1 X218.896 Y204.700 E-0.03287
G1 X219.517 Y205.321 E-0.16047
G1 X219.524 Y205.318 E-0.00133
;WIPE_END
G1 E-0.04800 F2400.000
G1 Z0.700 F15600.000
G1 X217.333 Y205.970
G1 Z0.500
G1 E3.20000 F1500.000
G1 F1228
G1 X216.051 Y204.689 E0.25159
G1 X215.422 Y204.448 E0.09349
G1 X215.115 Y204.291 E0.04790
G1 X214.618 Y203.975 E0.08172
G1 X214.280 Y203.703 E0.06033
G1 X213.919 Y203.359 E0.06919
G1 X213.538 Y202.898 E0.08301
G1 X213.348 Y202.621 E0.04669
G1 X213.064 Y202.102 E0.08205
G1 X212.930 Y201.795 E0.04656
G1 X212.822 Y201.459 E0.04893
G1 X211.839 Y200.477 E0.19292
G1 X211.852 Y200.692 E0.02991
G1 X211.910 Y201.069 E0.05295
G1 X211.986 Y201.408 E0.04826
G1 X212.063 Y201.644 E0.03454
G1 X215.856 Y205.438 E0.74468
G1 X215.406 Y205.291 E0.06572
G1 X214.752 Y204.984 E0.10023
G1 X214.155 Y204.605 E0.09817
M73 P10 R5
G1 X213.745 Y204.271 E0.07348
G1 X212.160 Y202.687 E0.31103
;LAYER_CHANGE
;Z:1.2
;HEIGHT:0.7
;BEFORE_LAYER_CHANGE
G92 E0.0
;1.2


G1 E-2.24000 F2400.000
;WIPE_START
G1 F12480.000
G1 X213.745 Y204.271 E-0.40933
G1 X214.155 Y204.605 E-0.09670
G1 X214.752 Y204.984 E-0.12920
G1 X215.406 Y205.291 E-0.13190
G1 X215.856 Y205.438 E-0.08649
G1 X215.630 Y205.212 E-0.05838
;WIPE_END
G1 E-0.04800 F2400.000
G1 Z0.700 F15600.000
G1 Z1.200
;AFTER_LAYER_CHANGE
;1.2
M104 S240 ; set temperature
M140 S90 ; set bed temperature
G1 Z1.400
G1 X213.348 Y198.651
G1 Z1.200
G1 E3.20000 F1500.000
;TYPE:External perimeter
;WIDTH:1.125
G1 F615.524
G1 X213.470 Y198.319 E0.10029
G1 X213.776 Y197.718 E0.19142
G1 X214.179 Y197.164 E0.19451
G1 X214.664 Y196.679 E0.19440
G1 X215.210 Y196.282 E0.19139
G1 X215.519 Y196.109 E0.10051
G1 X215.840 Y195.961 E0.10033
G1 X216.481 Y195.753 E0.19115
G1 X217.158 Y195.646 E0.19454
G1 X217.843 Y195.647 E0.19407
G1 X218.509 Y195.752 E0.19143
G1 X218.850 Y195.848 E0.10033
G1 X219.181 Y195.970 E0.10022
G1 X219.782 Y196.276 E0.19143
G1 X220.337 Y196.679 E0.19451
G1 X220.822 Y197.164 E0.19440
G1 X221.218 Y197.709 E0.19139
G1 X221.391 Y198.019 E0.10053
G1 X221.540 Y198.341 E0.10064
G1 X221.747 Y198.981 E0.19083
G1 X221.854 Y199.658 E0.19453
G1 X221.854 Y200.342 E0.19408
G1 X221.749 Y201.009 E0.19142
G1 X221.653 Y201.349 E0.10026
G1 X221.531 Y201.681 E0.10030
G1 X221.225 Y202.282 E0.19143
G1 X220.822 Y202.836 E0.19451
G1 X220.337 Y203.321 E0.19441
G1 X219.789 Y203.719 E0.19212
G1 X219.476 Y203.893 E0.10155
G1 X219.161 Y204.039 E0.09856
G1 X218.520 Y204.247 E0.19115
G1 X217.843 Y204.353 E0.19453
G1 X217.158 Y204.354 E0.19413
G1 X216.488 Y204.247 E0.19241
G1 X216.152 Y204.152 E0.09922
G1 X215.820 Y204.030 E0.10029
G1 X215.219 Y203.724 E0.19143
G1 X214.664 Y203.321 E0.19451
G1 X214.179 Y202.836 E0.19440
G1 X213.783 Y202.290 E0.19151
G1 X213.607 Y201.976 E0.10218
G1 X213.462 Y201.660 E0.09853
G1 X213.254 Y201.019 E0.19115
M73 P11 R5
G1 X213.147 Y200.342 E0.19453
G1 X213.147 Y199.658 E0.19408
G1 X213.252 Y198.991 E0.19142
G1 X213.307 Y198.796 E0.05771
G1 E-2.24000 F2400.000
;WIPE_START
G1 F12480.000
G1 X213.470 Y198.319 E-0.09194
G1 X213.776 Y197.718 E-0.12327
G1 X214.179 Y197.164 E-0.12526
G1 X214.664 Y196.679 E-0.12519
G1 X215.210 Y196.282 E-0.12326
G1 X215.519 Y196.109 E-0.06473
G1 X215.840 Y195.961 E-0.06461
G1 X216.481 Y195.753 E-0.12310
G1 X216.863 Y195.693 E-0.07064
;WIPE_END
G1 E-0.04800 F2400.000
G1 Z1.400 F15600.000
G1 X212.554 Y195.354
G1 Z1.200
G1 E3.20000 F1500.000
G1 F615.524
G1 X212.855 Y195.053 E0.12066
G1 X213.175 Y194.771 E0.12114
G1 X213.511 Y194.510 E0.12089
G1 X213.864 Y194.271 E0.12081
G1 X214.231 Y194.053 E0.12110
G1 X214.611 Y193.860 E0.12081
G1 X215.003 Y193.690 E0.12112
G1 X215.403 Y193.546 E0.12080
G1 X215.813 Y193.427 E0.12109
G1 X216.229 Y193.334 E0.12086
G1 X216.650 Y193.267 E0.12084
G1 X217.070 Y193.228 E0.11977
G1 X217.638 Y193.219 E0.16118
G1 X218.358 Y193.268 E0.20481
G1 X218.772 Y193.334 E0.11887
G1 X219.188 Y193.427 E0.12095
G1 X219.598 Y193.545 E0.12113
G1 X219.999 Y193.689 E0.12071
G1 X220.390 Y193.859 E0.12111
G1 X220.770 Y194.053 E0.12082
G1 X221.137 Y194.270 E0.12111
G1 X221.490 Y194.509 E0.12083
G1 X221.826 Y194.771 E0.12086
