; Postprocessed by [ArcWelder](https://github.com/FormerLurker/ArcWelderLib)
; Copyright(C) 2020 - Brad Hochgesang
; arc_welder_resolution_mm = 0.05
; arc_welder_g90_influences_extruder = False

; generated by PrusaSlicer 2.3.1+win64 on 2021-06-25 at 12:33:55 UTC







; 

; external perimeters extrusion width = 1.12mm
; perimeters extrusion width = 1.12mm
; infill extrusion width = 1.12mm
; solid infill extrusion width = 1.12mm
; top infill extrusion width = 1.00mm
; first layer extrusion width = 0.75mm

M73 P0 R238
M201 X1250 Y1250 Z1250 E5000 ; sets maximum accelerations, mm/sec^2
M203 X200 Y200 Z200 E200 ; sets maximum feedrates, mm/sec
M204 P1250 R1250 T1250 ; sets acceleration (P, T) and retract acceleration (R), mm/sec^2
M205 X8.00 Y8.00 Z2.00 E10.00 ; sets the jerk limits, mm/sec
M205 S0 T0 ; sets the minimum extruding and travel feed rate, mm/sec
M107
M190 S85 ; set bed temperature and wait for it to be reached
;TYPE:Custom
G90 ; use absolute coordinates
M83 ; extruder relative mode
G28 ; home all without mesh bed level
G29 ; mesh bed leveling 
M104 S230 ; set extruder temp
G92 E0.0
G1 Y-2.0 X179 F2400
G1 Z3 F720
M109 S230 ; wait for extruder temp

; intro line
G1 X170 F1000
G1 Z0.2 F720
G1 X110.0 E8.0 F900
G1 X40.0 E10.0 F700
G92 E0.0

M221 S95 ; set flow
G21 ; set units to millimeters
G90 ; use absolute coordinates
M83 ; use relative distances for extrusion
M900 K0.2 ; Filament gcode
;LAYER_CHANGE
;Z:0.5
;HEIGHT:0.5
;BEFORE_LAYER_CHANGE
G92 E0.0
;0.5


M73 P0 R237
G1 E-3.20000 F2400.000
G1 Z0.200 F15600.000
G1 Z0.500
;AFTER_LAYER_CHANGE
;0.5
G1 Z0.700
G1 X177.869 Y171.741
G1 Z0.500
G1 E3.20000 F1500.000
;TYPE:Skirt
;WIDTH:0.75
G1 F1306.988
G1 X178.525 Y170.996 E0.13258
G1 X187.952 Y161.830 E1.75659
G3 X189.573 Y160.683 I4.589 J4.772 E0.26601
G1 X201.490 Y154.782 E1.77667
G3 X203.292 Y154.207 I2.905 J6.005 E0.2533
G1 X216.526 Y152.169 E1.78903
G3 X218.473 Y152.169 I0.973 J6.551 E0.26093
G1 X231.713 Y154.209 E1.78968
G3 X233.514 Y154.783 I-1.092 J6.536 E0.2533
G1 X245.427 Y160.683 E1.77594
G3 X247.048 Y161.83 I-2.994 J5.95 E0.26601
G1 X256.473 Y170.995 E1.75640
G3 X257.668 Y172.573 I-4.606 J4.729 E0.26516
G1 X263.760 Y184.194 E1.75297
G3 X264.416 Y186.174 I-5.877 J3.049 E0.27958
G1 X266.503 Y198.976 E1.73295
G3 X266.502 Y201.031 I-6.6 J1.024 E0.27533
G1 X264.417 Y213.825 E1.73187
G3 X263.761 Y215.805 I-6.592 J-1.085 E0.27957
G1 X257.666 Y227.431 E1.75376
G3 X256.47 Y229.008 I-5.805 J-3.16 E0.26515
G1 X247.048 Y238.170 E1.75574
G3 X245.426 Y239.316 I-4.589 J-4.772 E0.266
G1 X233.510 Y245.218 E1.77666
G3 X231.715 Y245.79 I-2.911 J-6.021 E0.25244
G1 X218.474 Y247.831 E1.78989
G3 X216.526 Y247.83 I-0.973 J-6.551 E0.26093
G1 X203.287 Y245.791 E1.78968
G3 X201.485 Y245.216 I1.092 J-6.536 E0.25329
G1 X189.573 Y239.317 E1.77594
G3 X187.951 Y238.169 I2.994 J-5.95 E0.266
G1 X178.527 Y229.005 E1.75640
G3 X177.331 Y227.426 I4.606 J-4.729 E0.26515
G1 X171.240 Y215.806 E1.75297
G3 X170.582 Y213.825 I5.877 J-3.049 E0.27958
G1 X168.497 Y201.024 E1.73295
G3 X168.497 Y198.968 I6.6 J-1.024 E0.27533
G1 X170.583 Y186.175 E1.73187
G3 X171.239 Y184.194 I6.5 J1.055 E0.27958
G1 X177.331 Y172.574 E1.75291
G1 X177.788 Y171.867 E0.11254
G1 E-2.24000 F2400.000
;WIPE_START
G1 F12480.000
G1 X178.525 Y170.996 E-0.20844
G1 X181.286 Y168.311 E-0.70356
;WIPE_END
G1 E-0.04800 F2400.000
G1 Z0.700 F15600.000
G1 X183.633 Y176.097
G1 Z0.500
G1 E3.20000 F1500.000
;TYPE:External perimeter
G1 F1306.988
G1 X192.891 Y167.094 E1.72522
G1 X204.562 Y161.315 E1.73991
G1 X217.500 Y159.321 E1.74897
G1 X230.438 Y161.315 E1.74897
G1 X242.109 Y167.094 E1.73991
G1 X251.367 Y176.097 E1.72522
G1 X257.310 Y187.434 E1.71015
G1 X259.357 Y200.000 E1.70100
G1 X257.310 Y212.566 E1.70100
G1 X251.367 Y223.903 E1.71015
G1 X242.109 Y232.906 E1.72522
G1 X230.438 Y238.685 E1.73991
G1 X217.500 Y240.679 E1.74897
G1 X204.562 Y238.685 E1.74897
G1 X192.891 Y232.906 E1.73991
G1 X183.633 Y223.903 E1.72522
G1 X177.690 Y212.566 E1.71015
G1 X175.643 Y200.000 E1.70100
G1 X177.690 Y187.434 E1.70100
G1 X183.564 Y176.229 E1.69011
G1 E-2.24000 F2400.000
;WIPE_START
G1 F12480.000
G1 X187.130 Y172.737 E-0.91200
;WIPE_END
G1 E-0.04800 F2400.000
G1 Z0.700 F15600.000
G1 X251.663 Y177.078
G1 Z0.500
G1 E3.20000 F1500.000
;TYPE:Solid infill
;WIDTH:0.753152
G1 F1300.610
G1 X250.927 Y176.342 E0.13971
G1 X241.827 Y167.493 E1.70418
G1 X240.516 Y166.843 E0.19647
G1 X251.983 Y178.311 E2.17733
G1 X252.989 Y180.231 E0.29098
G1 X238.706 Y165.947 E2.71194
G1 X236.897 Y165.051 E0.27109
G1 X253.996 Y182.150 E3.24655
G1 X255.002 Y184.070 E0.29098
G1 X235.087 Y164.155 E3.78115
G1 X233.278 Y163.259 E0.27108
G1 X256.008 Y185.989 E4.31576
G1 X256.846 Y187.588 E0.24238
G1 X256.876 Y187.771 E0.02479
G1 X231.468 Y162.363 E4.82410
G1 X230.291 Y161.780 E0.17637
G1 X229.914 Y161.722 E0.05124
G1 X257.054 Y188.862 E5.15299
G1 X257.232 Y189.953 E0.14842
G1 X228.834 Y161.555 E5.39175
G1 X227.754 Y161.389 E0.14667
G1 X257.409 Y191.044 E5.63051
G1 X257.587 Y192.135 E0.14842
G1 X226.675 Y161.223 E5.86926
G1 X225.595 Y161.056 E0.14667
G1 X257.765 Y193.226 E6.10802
G1 X257.943 Y194.317 E0.14842
G1 X224.515 Y160.890 E6.34678
G1 X223.435 Y160.724 E0.14667
G1 X258.120 Y195.408 E6.58553
G1 X258.298 Y196.500 E0.14842
G1 X222.356 Y160.557 E6.82429
G1 X221.276 Y160.391 E0.14667
G1 X258.476 Y197.591 E7.06305
G1 X258.654 Y198.682 E0.14842
G1 X220.196 Y160.225 E7.30180
M73 P0 R236
G1 X219.117 Y160.058 E0.14667
G1 X258.831 Y199.773 E7.54056
G1 X258.868 Y200.000 E0.03088
G1 X258.767 Y200.622 E0.08461
G1 X218.037 Y159.892 E7.73335
G2 X217.102 Y159.87 I-0.502 J1.471 E0.12698
G1 X258.639 Y201.407 E7.88654
G1 X258.511 Y202.193 E0.10684
G1 X216.311 Y159.992 E8.01251
G1 X215.519 Y160.114 E0.10751
G1 X258.383 Y202.978 E8.13849
G1 X258.255 Y203.764 E0.10684
G1 X214.728 Y160.236 E8.26446
G1 X213.936 Y160.358 E0.10751
G1 X258.127 Y204.549 E8.39043
G1 X257.999 Y205.335 E0.10684
G1 X213.145 Y160.480 E8.51641
G1 X212.353 Y160.602 E0.10751
G1 X257.871 Y206.120 E8.64238
G1 X257.743 Y206.905 E0.10684
G1 X211.562 Y160.724 E8.76835
G1 X210.771 Y160.846 E0.10751
G1 X257.615 Y207.691 E8.89432
G1 X257.487 Y208.476 E0.10684
G1 X209.979 Y160.968 E9.02030
G1 X209.188 Y161.090 E0.10751
G1 X257.360 Y209.262 E9.14627
G1 X257.232 Y210.047 E0.10684
G1 X208.396 Y161.212 E9.27224
G1 X207.605 Y161.334 E0.10751
G1 X257.104 Y210.832 E9.39822
G1 X256.976 Y211.618 E0.10684
G1 X206.813 Y161.456 E9.52419
G1 X206.022 Y161.578 E0.10751
G1 X256.848 Y212.403 E9.65016
G1 X256.536 Y213.005 E0.09095
G1 X205.231 Y161.700 E9.74116
G1 X204.709 Y161.780 E0.07088
G1 X204.501 Y161.883 E0.03118
G1 X256.221 Y213.604 E9.82011
M73 P0 R235
G1 X255.907 Y214.203 E0.09084
G1 X203.890 Y162.186 E9.87645
G1 X203.279 Y162.488 E0.09152
G1 X255.593 Y214.802 E9.93279
G1 X255.279 Y215.402 E0.09084
G1 X202.668 Y162.791 E9.98913
M73 P1 R235
G1 X202.057 Y163.093 E0.09152
G1 X254.965 Y216.001 E10.04547
G1 X254.651 Y216.600 E0.09084
G1 X201.446 Y163.396 E10.10181
G1 X200.836 Y163.698 E0.09152
G1 X254.337 Y217.199 E10.15816
G1 X254.023 Y217.799 E0.09084
G1 X200.225 Y164.001 E10.21450
G1 X199.614 Y164.303 E0.09152
G1 X253.709 Y218.398 E10.27084
G1 X253.394 Y218.997 E0.09084
G1 X199.003 Y164.606 E10.32718
G1 X198.392 Y164.908 E0.09152
G1 X253.080 Y219.596 E10.38352
G1 X252.766 Y220.196 E0.09084
G1 X197.781 Y165.211 E10.43986
G1 X197.170 Y165.513 E0.09152
G1 X252.452 Y220.795 E10.49620
G1 X252.138 Y221.394 E0.09084
G1 X196.560 Y165.816 E10.55255
G1 X195.949 Y166.118 E0.09152
G1 X251.824 Y221.993 E10.60889
G1 X251.510 Y222.593 E0.09084
G1 X195.338 Y166.421 E10.66523
G1 X194.727 Y166.723 E0.09152
G1 X251.196 Y223.192 E10.72157
G1 X250.976 Y223.611 E0.06362
G1 X250.837 Y223.746 E0.02598
G1 X194.116 Y167.026 E10.76944
M73 P1 R234
G1 X193.505 Y167.328 E0.09152
G1 X250.374 Y224.197 E10.79750
G1 X249.911 Y224.647 E0.08672
G1 X192.962 Y167.698 E10.81276
G1 X192.499 Y168.148 E0.08672
G1 X249.448 Y225.097 E10.81276
G1 X248.984 Y225.548 E0.08672
G1 X192.036 Y168.599 E10.81276
G1 X191.573 Y169.049 E0.08672
G1 X248.521 Y225.998 E10.81276
G1 X248.058 Y226.448 E0.08672
G1 X191.109 Y169.499 E10.81276
G1 X190.646 Y169.950 E0.08672
G1 X247.595 Y226.898 E10.81276
G1 X247.132 Y227.349 E0.08672
G1 X190.183 Y170.400 E10.81276
G1 X189.720 Y170.850 E0.08672
G1 X246.669 Y227.799 E10.81276
G1 X246.206 Y228.249 E0.08672
G1 X189.257 Y171.300 E10.81276
G1 X188.794 Y171.751 E0.08672
G1 X245.743 Y228.700 E10.81276
G1 X245.280 Y229.150 E0.08672
G1 X188.331 Y172.201 E10.81276
G1 X187.868 Y172.651 E0.08672
G1 X244.817 Y229.600 E10.81276
G1 X244.354 Y230.050 E0.08672
G1 X187.405 Y173.102 E10.81276
G1 X186.942 Y173.552 E0.08672
G1 X243.891 Y230.501 E10.81276
G1 X243.427 Y230.951 E0.08672
G1 X186.479 Y174.002 E10.81276
M73 P1 R233
G1 X186.016 Y174.452 E0.08672
G1 X242.964 Y231.401 E10.81276
G1 X242.501 Y231.852 E0.08672
G1 X185.552 Y174.903 E10.81276
G1 X185.089 Y175.353 E0.08672
G1 X242.038 Y232.302 E10.81276
G3 X241.495 Y232.671 I-0.849 J-0.663 E0.08933
G1 X184.626 Y175.803 E10.79750
G1 X184.163 Y176.254 E0.08672
G1 X240.884 Y232.974 E10.76944
G1 X240.273 Y233.277 E0.09152
G1 X183.804 Y176.808 E10.72157
G1 X183.490 Y177.407 E0.09084
G1 X239.662 Y233.579 E10.66523
G1 X239.051 Y233.882 E0.09152
G1 X183.176 Y178.007 E10.60889
G1 X182.862 Y178.606 E0.09084
G1 X238.440 Y234.184 E10.55254
M73 P2 R233
G1 X237.830 Y234.487 E0.09152
G1 X182.548 Y179.205 E10.49620
G1 X182.234 Y179.804 E0.09084
G1 X237.219 Y234.789 E10.43986
G1 X236.608 Y235.092 E0.09152
G1 X181.920 Y180.404 E10.38352
G1 X181.606 Y181.003 E0.09084
G1 X235.997 Y235.394 E10.32718
G1 X235.386 Y235.697 E0.09152
G1 X181.291 Y181.602 E10.27084
G1 X180.977 Y182.201 E0.09084
G1 X234.775 Y235.999 E10.21449
G1 X234.164 Y236.302 E0.09152
G1 X180.663 Y182.801 E10.15815
G1 X180.349 Y183.400 E0.09084
G1 X233.554 Y236.604 E10.10181
M73 P2 R232
G1 X232.943 Y236.907 E0.09152
G1 X180.035 Y183.999 E10.04547
G1 X179.721 Y184.598 E0.09084
G1 X232.332 Y237.209 E9.98913
G1 X231.721 Y237.512 E0.09152
G1 X179.407 Y185.198 E9.93279
G1 X179.093 Y185.797 E0.09084
G1 X231.110 Y237.814 E9.87645
G1 X230.499 Y238.117 E0.09152
G1 X178.779 Y186.396 E9.82010
G1 X178.464 Y186.995 E0.09084
G1 X229.769 Y238.300 E9.74116
G1 X228.978 Y238.422 E0.10751
G1 X178.152 Y187.597 E9.65016
G1 X178.024 Y188.382 E0.10684
G1 X228.186 Y238.544 E9.52418
G1 X227.395 Y238.666 E0.10751
G1 X177.896 Y189.168 E9.39821
G1 X177.768 Y189.953 E0.10684
G1 X226.604 Y238.788 E9.27224
G1 X225.812 Y238.910 E0.10751
G1 X177.640 Y190.738 E9.14627
G1 X177.513 Y191.524 E0.10684
G1 X225.021 Y239.032 E9.02029
G1 X224.229 Y239.154 E0.10751
G1 X177.385 Y192.309 E8.89432
G1 X177.257 Y193.095 E0.10684
G1 X223.438 Y239.276 E8.76835
G1 X222.646 Y239.398 E0.10751
G1 X177.129 Y193.880 E8.64237
G1 X177.001 Y194.666 E0.10684
G1 X221.855 Y239.520 E8.51640
G1 X221.064 Y239.642 E0.10751
G1 X176.873 Y195.451 E8.39043
G1 X176.745 Y196.236 E0.10684
G1 X220.272 Y239.764 E8.26446
M73 P2 R231
G1 X219.481 Y239.886 E0.10751
G1 X176.617 Y197.022 E8.13848
G1 X176.489 Y197.807 E0.10684
G1 X218.689 Y240.008 E8.01251
G1 X217.898 Y240.130 E0.10751
G1 X176.361 Y198.593 E7.88654
G1 X176.233 Y199.378 E0.10684
G1 X216.963 Y240.108 E7.73335
G1 X215.883 Y239.942 E0.14667
G1 X176.169 Y200.227 E7.54055
G1 X176.346 Y201.318 E0.14842
G1 X214.804 Y239.775 E7.30180
G1 X213.724 Y239.609 E0.14667
G1 X176.524 Y202.409 E7.06304
G1 X176.702 Y203.500 E0.14842
G1 X212.644 Y239.443 E6.82428
G1 X211.564 Y239.276 E0.14667
G1 X176.880 Y204.592 E6.58553
G1 X177.057 Y205.683 E0.14842
G1 X210.485 Y239.110 E6.34677
G1 X209.405 Y238.944 E0.14667
G1 X177.235 Y206.774 E6.10801
G1 X177.413 Y207.865 E0.14842
G1 X208.325 Y238.777 E5.86926
G1 X207.246 Y238.611 E0.14667
G1 X177.591 Y208.956 E5.63050
G1 X177.768 Y210.047 E0.14842
G1 X206.166 Y238.445 E5.39174
G1 X205.086 Y238.278 E0.14667
G1 X177.946 Y211.138 E5.15298
G1 X178.124 Y212.229 E0.14842
G1 X203.532 Y237.637 E4.82408
G1 X201.722 Y236.741 E0.27109
G1 X178.992 Y214.011 E4.31574
G1 X179.998 Y215.930 E0.29098
G1 X199.913 Y235.845 E3.78114
G1 X198.103 Y234.949 E0.27109
G1 X181.004 Y217.850 E3.24653
G1 X182.011 Y219.770 E0.29098
G1 X196.294 Y234.053 E2.71192
G1 X194.484 Y233.157 E0.27109
G1 X183.017 Y221.689 E2.17732
G1 X184.023 Y223.609 E0.29098
G1 X193.314 Y232.900 E1.76410
;LAYER_CHANGE
;Z:1.2
;HEIGHT:0.7
;BEFORE_LAYER_CHANGE
G92 E0.0
;1.2


G1 E-2.24000 F2400.000
;WIPE_START
G1 F12480.000
G1 X189.784 Y229.370 E-0.91200
;WIPE_END
G1 E-0.04800 F2400.000
G1 Z0.700 F15600.000
G1 Z1.200
;AFTER_LAYER_CHANGE
;1.2
M104 S240 ; set temperature
M140 S90 ; set bed temperature
G1 X183.623 Y176.089
G1 E3.20000 F1500.000
;TYPE:External perimeter
;WIDTH:1.125
G1 F615.524
G1 X192.884 Y167.084 E3.66441
G1 X204.558 Y161.303 E3.69559
G1 X217.500 Y159.309 E3.71482
G1 X230.442 Y161.303 E3.71482
G1 X242.116 Y167.084 E3.69559
G1 X251.377 Y176.089 E3.66441
G1 X257.322 Y187.430 E3.63243
M73 P3 R231
G1 X259.369 Y200.000 E3.61301
G1 X257.322 Y212.570 E3.61301
G1 X251.377 Y223.911 E3.63243
G1 X242.116 Y232.916 E3.66441
M73 P3 R230
G1 X230.442 Y238.697 E3.69559
G1 X217.500 Y240.691 E3.71482
G1 X204.558 Y238.697 E3.71482
G1 X192.884 Y232.916 E3.69559
G1 X183.623 Y223.911 E3.66441
G1 X177.678 Y212.570 E3.63243
G1 X175.631 Y200.000 E3.61301
G1 X177.678 Y187.430 E3.61301
G1 X183.554 Y176.222 E3.58988
G1 X241.214 Y233.036 F15600.000
;TYPE:Solid infill
;WIDTH:1.12897
G1 F613.029
G1 X250.785 Y223.465 E3.85549
G1 X252.310 Y220.556 E0.93556
G1 X239.442 Y233.425 E5.18372
G1 X236.699 Y234.783 E0.87158
G1 X253.835 Y217.647 E6.90257
G1 X255.360 Y214.738 E0.93556
G1 X233.957 Y236.140 E8.62141
G1 X231.215 Y237.498 E0.87158
G1 X256.666 Y212.048 E10.25217
G1 X256.935 Y210.394 E0.47720
G1 X229.177 Y238.152 E11.18167
G1 X227.541 Y238.404 E0.47158
G1 X257.205 Y208.741 E11.94932
G1 X257.474 Y207.087 E0.47720
G1 X225.905 Y238.657 E12.71696
G1 X224.268 Y238.909 E0.47158
G1 X257.743 Y205.434 E13.48460
G1 X258.013 Y203.780 E0.47720
G1 X222.632 Y239.161 E14.25224
G1 X220.996 Y239.413 E0.47158
G1 X258.282 Y202.127 E15.01989
G1 X258.552 Y200.473 E0.47720
G1 X219.360 Y239.665 E15.78753
G1 X217.723 Y239.917 E0.47158
G1 X258.490 Y199.150 E16.42195
M73 P3 R229
G1 X258.296 Y197.960 E0.34350
G1 X216.464 Y239.792 E16.85099
G1 X215.265 Y239.607 E0.34566
G1 X258.102 Y196.770 E17.25601
G1 X257.909 Y195.580 E0.34350
G1 X214.066 Y239.422 E17.66104
G1 X212.866 Y239.238 E0.34566
G1 X257.715 Y194.389 E18.06606
G1 X257.521 Y193.199 E0.34350
G1 X211.667 Y239.053 E18.47109
G1 X210.468 Y238.868 E0.34566
G1 X257.327 Y192.009 E18.87611
G1 X257.133 Y190.818 E0.34350
G1 X209.268 Y238.683 E19.28113
G1 X208.069 Y238.498 E0.34566
G1 X256.939 Y189.628 E19.68616
G1 X256.745 Y188.438 E0.34350
G1 X206.869 Y238.314 E20.09118
M73 P3 R228
G1 X205.670 Y238.129 E0.34566
G1 X256.452 Y187.346 E20.45643
G1 X255.976 Y186.438 E0.29206
G1 X204.542 Y237.873 E20.71929
G1 X203.616 Y237.415 E0.29425
G1 X255.500 Y185.530 E20.90044
M73 P4 R228
G1 X255.024 Y184.622 E0.29206
G1 X202.690 Y236.956 E21.08159
G1 X201.764 Y236.498 E0.29425
G1 X254.548 Y183.714 E21.26273
G1 X254.072 Y182.806 E0.29206
G1 X200.839 Y236.039 E21.44388
G1 X199.913 Y235.581 E0.29425
G1 X253.596 Y181.898 E21.62503
G1 X253.120 Y180.990 E0.29206
G1 X198.987 Y235.123 E21.80618
M73 P4 R227
G1 X198.061 Y234.664 E0.29425
G1 X252.644 Y180.081 E21.98732
G1 X252.168 Y179.173 E0.29206
G1 X197.136 Y234.206 E22.16847
G1 X196.210 Y233.747 E0.29425
G1 X251.692 Y178.265 E22.34962
G1 X251.216 Y177.357 E0.29206
G1 X195.284 Y233.289 E22.53077
G1 X194.359 Y232.830 E0.29425
G1 X250.720 Y176.470 E22.70362
G1 X250.018 Y175.787 E0.27881
G1 X193.433 Y232.372 E22.79383
G1 X193.311 Y232.312 E0.03865
G1 X192.702 Y231.719 E0.24219
G1 X249.316 Y175.105 E22.80568
G1 X248.614 Y174.422 E0.27881
G1 X192.000 Y231.037 E22.80568
M73 P4 R226
G1 X191.298 Y230.354 E0.27881
G1 X247.912 Y173.740 E22.80568
G1 X247.211 Y173.058 E0.27881
G1 X190.596 Y229.672 E22.80568
G1 X189.895 Y228.990 E0.27881
G1 X246.509 Y172.375 E22.80568
G1 X245.807 Y171.693 E0.27881
G1 X189.193 Y228.307 E22.80568
G1 X188.491 Y227.625 E0.27881
G1 X245.105 Y171.010 E22.80568
M73 P5 R226
G1 X244.404 Y170.328 E0.27881
G1 X187.789 Y226.942 E22.80568
