; generated by PrusaSlicer 2.3.1+win64 on 2021-06-25 at 12:30:09 UTC


;
;

;
;
; 

; external perimeters extrusion width = 1.12mm
; perimeters extrusion width = 1.12mm
; infill extrusion width = 1.12mm
; solid infill extrusion width = 1.12mm
; top infill extrusion width = 1.00mm
; first layer extrusion width = 0.75mm

M73 P0 R129
M201 X1250 Y1250 Z1250 E5000 ; sets maximum accelerations, mm/sec^2
M203 X200 Y200 Z200 E200 ; sets maximum feedrates, mm/sec
M204 P1250 R1250 T1250 ; sets acceleration (P, T) and retract acceleration (R), mm/sec^2
M205 X8.00 Y8.00 Z2.00 E10.00 ; sets the jerk limits, mm/sec
M205 S0 T0 ; sets the minimum extruding and travel feed rate, mm/sec
M107
M190 S85 ; set bed temperature and wait for it to be reached
;TYPE:Custom
G90 ; use absolute coordinates
M83 ; extruder relative mode
G28 ; home all without mesh bed level
G29 ; mesh bed leveling 
M104 S230 ; set extruder temp
G92 E0.0
G1 Y-2.0 X179 F2400
G1 Z3 F720
M109 S230 ; wait for extruder temp

; intro line
G1 X170 F1000
G1 Z0.2 F720
G1 X110.0 E8.0 F900
G1 X40.0 E10.0 F700
G92 E0.0

M221 S95 ; set flow
G21 ; set units to millimeters
G90 ; use absolute coordinates
M83 ; use relative distances for extrusion
M900 K0.2 ; Filament gcode
;LAYER_CHANGE
;Z:0.5
;HEIGHT:0.5
;BEFORE_LAYER_CHANGE
G92 E0.0
;0.5


M73 P0 R128
G1 E-3.20000 F2400.000
G1 Z0.200 F15600.000
G1 Z0.500
;AFTER_LAYER_CHANGE
;0.5
G1 Z0.700
G1 X194.564 Y163.805
G1 Z0.500
G1 E3.20000 F1500.000
;TYPE:Skirt
;WIDTH:0.75
G1 F1306.988
G1 X195.345 Y163.214 E0.13089
G1 X204.280 Y157.649 E1.40628
G1 X205.221 Y157.171 E0.14107
G1 X206.482 Y156.794 E0.17581
G1 X216.312 Y154.891 E1.33777
G1 X217.509 Y154.784 E0.16056
G1 X218.694 Y154.892 E0.15887
G1 X228.521 Y156.794 E1.33737
G1 X229.782 Y157.172 E0.17581
G1 X230.717 Y157.647 E0.14022
G1 X239.659 Y163.217 E1.40734
G1 X240.440 Y163.808 E0.13089
G1 X241.125 Y164.508 E0.13089
G1 X248.198 Y173.151 E1.49202
G1 X248.740 Y173.928 E0.12665
G1 X249.151 Y174.740 E0.12155
G1 X253.661 Y185.560 E1.56612
G1 X253.927 Y186.343 E0.11052
G1 X254.093 Y187.154 E0.11052
G1 X255.651 Y199.172 E1.61906
G1 X255.703 Y200.003 E0.11137
G1 X255.652 Y200.823 E0.10967
G1 X254.093 Y212.849 E1.62013
G1 X253.926 Y213.659 E0.11052
G1 X253.661 Y214.442 E0.11052
G1 X249.149 Y225.264 E1.56643
G1 X248.740 Y226.070 E0.12071
G1 X248.199 Y226.848 E0.12665
G1 X241.122 Y235.496 E1.49286
G1 X240.436 Y236.195 E0.13089
G1 X239.655 Y236.786 E0.13089
G1 X230.720 Y242.351 E1.40628
G1 X229.779 Y242.829 E0.14107
G1 X228.518 Y243.206 E0.17581
G1 X218.694 Y245.108 E1.33691
G1 X217.497 Y245.216 E0.16056
G1 X216.306 Y245.108 E0.15971
G1 X206.479 Y243.206 E1.33738
G1 X205.218 Y242.828 E0.17581
G1 X204.283 Y242.353 E0.14022
G1 X195.341 Y236.783 E1.40734
G1 X194.560 Y236.192 E0.13089
G1 X193.875 Y235.492 E0.13089
G1 X186.802 Y226.849 E1.49202
G1 X186.260 Y226.072 E0.12665
G1 X185.850 Y225.260 E0.12155
G1 X181.339 Y214.440 E1.56612
G1 X181.073 Y213.657 E0.11052
G1 X180.907 Y212.846 E0.11052
G1 X179.349 Y200.828 E1.61906
G1 X179.297 Y199.997 E0.11137
G1 X179.348 Y199.177 E0.10967
G1 X180.907 Y187.151 E1.62014
G1 X181.074 Y186.341 E0.11052
G1 X181.339 Y185.558 E0.11052
G1 X185.851 Y174.736 E1.56642
G1 X186.260 Y173.930 E0.12071
G1 X186.801 Y173.152 E0.12665
G1 X193.878 Y164.504 E1.49286
G1 X194.459 Y163.912 E0.11085
G1 E-2.24000 F2400.000
;WIPE_START
G1 F12480.000
G1 X195.345 Y163.214 E-0.20613
G1 X198.625 Y161.171 E-0.70587
;WIPE_END
G1 E-0.04800 F2400.000
G1 Z0.700 F15600.000
G1 X199.334 Y169.232
G1 Z0.500
G1 E3.20000 F1500.000
;TYPE:External perimeter
G1 F1306.988
G1 X207.962 Y163.859 E1.35785
G1 X217.500 Y162.012 E1.29802
G1 X227.038 Y163.859 E1.29802
G1 X235.666 Y169.232 E1.35785
G1 X242.534 Y177.626 E1.44910
G1 X246.955 Y188.231 E1.53500
G1 X248.481 Y200.000 E1.58552
G1 X246.955 Y211.769 E1.58552
G1 X242.534 Y222.374 E1.53500
G1 X235.666 Y230.768 E1.44910
G1 X227.038 Y236.141 E1.35785
G1 X217.500 Y237.988 E1.29802
G1 X207.962 Y236.141 E1.29802
G1 X199.334 Y230.768 E1.35785
G1 X192.466 Y222.374 E1.44910
G1 X188.045 Y211.769 E1.53500
G1 X186.519 Y200.000 E1.58552
G1 X188.045 Y188.231 E1.58552
G1 X192.466 Y177.626 E1.53500
G1 X199.239 Y169.348 E1.42906
G1 E-2.24000 F2400.000
;WIPE_START
G1 F12480.000
G1 X203.464 Y166.689 E-0.91200
;WIPE_END
G1 E-0.04800 F2400.000
G1 Z0.700 F15600.000
G1 X241.474 Y176.636
G1 Z0.500
G1 E3.20000 F1500.000
;TYPE:Solid infill
;WIDTH:0.751023
G1 F1304.911
G1 X232.942 Y168.103 E1.61473
G1 X230.529 Y166.600 E0.38042
G1 X242.339 Y178.410 E2.23496
G1 X242.990 Y179.972 E0.22636
G1 X228.115 Y165.097 E2.81483
G1 X226.859 Y164.315 E0.19800
G1 X226.318 Y164.210 E0.07379
G1 X243.641 Y181.533 E3.27816
G1 X244.291 Y183.094 E0.22636
G1 X225.189 Y163.992 E3.61499
G1 X224.060 Y163.773 E0.15388
G1 X244.942 Y184.656 E3.95182
G1 X245.593 Y186.217 E0.22636
G1 X222.931 Y163.555 E4.28866
G1 X221.802 Y163.336 E0.15388
G1 X246.244 Y187.778 E4.62549
G1 X246.486 Y188.357 E0.08391
G1 X246.571 Y189.015 E0.08881
G1 X220.673 Y163.117 E4.90095
G1 X219.544 Y162.899 E0.15388
G1 X246.706 Y190.061 E5.14025
G1 X246.842 Y191.107 E0.14113
G1 X218.415 Y162.680 E5.37955
G1 X217.500 Y162.503 E0.12474
G1 X217.356 Y162.531 E0.01969
G1 X246.978 Y192.153 E5.60572
G1 X247.113 Y193.199 E0.14113
G1 X216.593 Y162.679 E5.77570
G1 X215.830 Y162.826 E0.10395
G1 X247.249 Y194.245 E5.94568
G1 X247.384 Y195.291 E0.14113
G1 X215.068 Y162.974 E6.11567
G1 X214.305 Y163.122 E0.10395
G1 X247.520 Y196.336 E6.28565
G1 X247.655 Y197.382 E0.14113
G1 X213.542 Y163.269 E6.45563
G1 X212.780 Y163.417 E0.10395
G1 X247.791 Y198.428 E6.62561
G1 X247.926 Y199.474 E0.14113
G1 X212.017 Y163.565 E6.79559
G1 X211.254 Y163.712 E0.10395
G1 X247.943 Y200.401 E6.94299
M73 P0 R127
G1 X247.838 Y201.207 E0.10874
G1 X210.491 Y163.860 E7.06756
M73 P1 R127
G1 X209.729 Y164.008 E0.10395
G1 X247.734 Y202.013 E7.19212
G1 X247.629 Y202.818 E0.10874
G1 X208.966 Y164.155 E7.31669
G1 X208.203 Y164.303 E0.10395
G1 X247.525 Y203.624 E7.44125
G1 X247.420 Y204.430 E0.10874
G1 X207.626 Y164.636 E7.53079
G1 X207.065 Y164.985 E0.08844
G1 X247.316 Y205.236 E7.61719
G1 X247.211 Y206.042 E0.10874
G1 X206.504 Y165.335 E7.70359
G1 X205.943 Y165.684 E0.08844
G1 X247.107 Y206.848 E7.78999
G1 X247.003 Y207.654 E0.10874
G1 X205.382 Y166.033 E7.87639
G1 X204.821 Y166.383 E0.08844
G1 X246.898 Y208.460 E7.96279
G1 X246.794 Y209.266 E0.10874
G1 X204.260 Y166.732 E8.04918
G1 X203.699 Y167.081 E0.08844
G1 X246.689 Y210.072 E8.13558
G1 X246.585 Y210.878 E0.10874
G1 X203.138 Y167.431 E8.22198
G1 X202.577 Y167.780 E0.08844
G1 X246.472 Y211.675 E8.30683
G1 X246.204 Y212.318 E0.09315
G1 X202.016 Y168.129 E8.36230
G1 X201.455 Y168.479 E0.08844
G1 X245.936 Y212.960 E8.41777
G1 X245.669 Y213.603 E0.09315
G1 X200.894 Y168.828 E8.47325
G1 X200.333 Y169.178 E0.08844
G1 X245.401 Y214.245 E8.52872
G1 X245.133 Y214.888 E0.09315
G1 X199.772 Y169.527 E8.58419
G1 X199.657 Y169.599 E0.01814
G1 X199.331 Y169.997 E0.06881
G1 X244.865 Y215.530 E8.61690
G1 X244.597 Y216.173 E0.09315
G1 X198.922 Y170.497 E8.64373
G1 X198.512 Y170.998 E0.08657
G1 X244.329 Y216.815 E8.67056
M73 P1 R126
G1 X244.061 Y217.458 E0.09315
G1 X198.102 Y171.499 E8.69739
G1 X197.693 Y171.999 E0.08657
G1 X243.793 Y218.100 E8.72422
G1 X243.526 Y218.743 E0.09315
G1 X197.283 Y172.500 E8.75106
G1 X196.873 Y173.001 E0.08657
G1 X243.258 Y219.385 E8.77789
G1 X242.990 Y220.028 E0.09315
G1 X196.464 Y173.501 E8.80472
G1 X196.054 Y174.002 E0.08657
G1 X242.722 Y220.670 E8.83155
M73 P2 R126
G1 X242.454 Y221.313 E0.09315
G1 X195.644 Y174.503 E8.85838
G1 X195.235 Y175.004 E0.08657
G1 X242.186 Y221.955 E8.88522
G1 X242.116 Y222.123 E0.02433
G1 X241.814 Y222.493 E0.06395
G1 X194.825 Y175.504 E8.89223
G1 X194.415 Y176.005 E0.08657
G1 X241.404 Y222.994 E8.89223
G1 X240.994 Y223.494 E0.08657
G1 X194.006 Y176.506 E8.89223
G1 X193.596 Y177.006 E0.08657
G1 X240.585 Y223.995 E8.89223
G1 X240.175 Y224.496 E0.08657
G1 X193.186 Y177.507 E8.89223
G1 X192.884 Y177.877 E0.06395
G1 X192.814 Y178.045 E0.02434
G1 X239.765 Y224.996 E8.88522
G1 X239.356 Y225.497 E0.08657
G1 X192.546 Y178.687 E8.85838
G1 X192.278 Y179.330 E0.09315
G1 X238.946 Y225.998 E8.83155
G1 X238.536 Y226.499 E0.08657
G1 X192.010 Y179.972 E8.80472
G1 X191.742 Y180.615 E0.09315
G1 X238.127 Y226.999 E8.77789
G1 X237.717 Y227.500 E0.08657
G1 X191.474 Y181.257 E8.75106
M73 P2 R125
G1 X191.207 Y181.900 E0.09315
G1 X237.307 Y228.001 E8.72422
G1 X236.898 Y228.501 E0.08657
G1 X190.939 Y182.542 E8.69739
G1 X190.671 Y183.185 E0.09315
G1 X236.488 Y229.002 E8.67056
G1 X236.078 Y229.503 E0.08657
G1 X190.403 Y183.827 E8.64373
G1 X190.135 Y184.470 E0.09315
G1 X235.669 Y230.003 E8.61689
G1 X235.343 Y230.401 E0.06880
G1 X235.228 Y230.473 E0.01815
G1 X189.867 Y185.112 E8.58419
G1 X189.599 Y185.755 E0.09315
G1 X234.667 Y230.823 E8.52871
G1 X234.106 Y231.172 E0.08844
G1 X189.331 Y186.397 E8.47324
G1 X189.064 Y187.040 E0.09315
G1 X233.545 Y231.521 E8.41777
G1 X232.984 Y231.871 E0.08844
G1 X188.796 Y187.682 E8.36230
G1 X188.528 Y188.325 E0.09315
G1 X232.423 Y232.220 E8.30683
G1 X231.862 Y232.569 E0.08844
G1 X188.415 Y189.122 E8.22198
G1 X188.311 Y189.928 E0.10874
G1 X231.301 Y232.919 E8.13558
M73 P3 R125
G1 X230.740 Y233.268 E0.08844
G1 X188.206 Y190.734 E8.04918
G1 X188.102 Y191.540 E0.10874
G1 X230.179 Y233.617 E7.96278
G1 X229.618 Y233.967 E0.08844
G1 X187.997 Y192.346 E7.87638
G1 X187.893 Y193.152 E0.10874
G1 X229.057 Y234.316 E7.78998
G1 X228.496 Y234.666 E0.08844
G1 X187.789 Y193.958 E7.70359
G1 X187.684 Y194.764 E0.10874
G1 X227.935 Y235.015 E7.61719
G1 X227.374 Y235.364 E0.08844
G1 X187.580 Y195.570 E7.53079
G1 X187.475 Y196.376 E0.10875
G1 X226.797 Y235.697 E7.44125
M73 P3 R124
G1 X226.034 Y235.845 E0.10395
G1 X187.371 Y197.182 E7.31668
G1 X187.266 Y197.987 E0.10874
G1 X225.271 Y235.992 E7.19212
G1 X224.508 Y236.140 E0.10395
G1 X187.162 Y198.793 E7.06755
G1 X187.057 Y199.599 E0.10874
G1 X223.746 Y236.288 E6.94299
G1 X222.983 Y236.435 E0.10395
G1 X187.074 Y200.526 E6.79558
G1 X187.209 Y201.572 E0.14113
G1 X222.220 Y236.583 E6.62560
G1 X221.458 Y236.731 E0.10395
G1 X187.345 Y202.618 E6.45562
G1 X187.480 Y203.664 E0.14113
G1 X220.695 Y236.878 E6.28564
G1 X219.932 Y237.026 E0.10395
G1 X187.616 Y204.710 E6.11566
G1 X187.751 Y205.755 E0.14113
G1 X219.170 Y237.174 E5.94567
G1 X218.407 Y237.322 E0.10395
G1 X187.887 Y206.801 E5.77569
G1 X188.022 Y207.847 E0.14113
G1 X217.644 Y237.469 E5.60571
G1 X217.500 Y237.497 E0.01968
G1 X216.585 Y237.320 E0.12475
G1 X188.158 Y208.893 E5.37953
G1 X188.294 Y209.939 E0.14113
G1 X215.456 Y237.101 E5.14023
G1 X214.327 Y236.883 E0.15388
G1 X188.429 Y210.985 E4.90093
G1 X188.514 Y211.643 E0.08881
G1 X188.756 Y212.222 E0.08392
G1 X213.198 Y236.664 E4.62548
G1 X212.069 Y236.445 E0.15388
G1 X189.407 Y213.783 E4.28864
G1 X190.058 Y215.345 E0.22636
G1 X210.940 Y236.227 E3.95181
G1 X209.811 Y236.008 E0.15388
G1 X190.709 Y216.906 E3.61497
G1 X191.360 Y218.467 E0.22636
G1 X208.682 Y235.790 E3.27814
G1 X208.141 Y235.685 E0.07378
G1 X206.885 Y234.903 E0.19803
G1 X192.010 Y220.029 E2.81479
G1 X192.661 Y221.590 E0.22636
G1 X204.471 Y233.400 E2.23493
G1 X202.058 Y231.897 E0.38042
G1 X193.526 Y223.365 E1.61466
;LAYER_CHANGE
;Z:1.2
;HEIGHT:0.7
;BEFORE_LAYER_CHANGE
G92 E0.0
;1.2


G1 E-2.24000 F2400.000
;WIPE_START
G1 F12480.000
G1 X197.056 Y226.895 E-0.91200
;WIPE_END
G1 E-0.04800 F2400.000
G1 Z0.700 F15600.000
G1 Z1.200
;AFTER_LAYER_CHANGE
;1.2
M104 S240 ; set temperature
M140 S90 ; set bed temperature
G1 X199.325 Y169.224
G1 E3.20000 F1500.000
;TYPE:External perimeter
;WIDTH:1.125
G1 F615.524
G1 X207.957 Y163.847 E2.88503
G1 X217.500 Y161.999 E2.75753
G1 X227.043 Y163.847 E2.75753
G1 X235.674 Y169.222 E2.88448
G1 X242.545 Y177.620 E3.07809
G1 X246.968 Y188.228 E3.26037
G1 X248.493 Y200.000 E3.36758
G1 X246.968 Y211.772 E3.36758
G1 X242.545 Y222.380 E3.26037
G1 X235.674 Y230.778 E3.07809
M73 P4 R124
G1 X227.043 Y236.153 E2.88448
G1 X217.500 Y238.001 E2.75753
G1 X207.957 Y236.153 E2.75753
G1 X199.326 Y230.778 E2.88448
G1 X192.455 Y222.380 E3.07809
G1 X188.032 Y211.772 E3.26037
M73 P4 R123
G1 X186.507 Y200.000 E3.36758
G1 X188.032 Y188.228 E3.36758
G1 X192.455 Y177.620 E3.26037
G1 X199.230 Y169.340 E3.03495
G1 X230.141 Y233.879 F15600.000
;TYPE:Solid infill
;WIDTH:1.13216
G1 F611.037
G1 X241.421 Y222.600 E4.55833
G1 X241.911 Y222.000 E0.22147
G1 X242.826 Y219.805 E0.67946
G1 X227.830 Y234.802 E6.06052
G1 X226.771 Y235.461 E0.35642
G1 X225.545 Y235.698 E0.35711
G1 X243.819 Y217.424 E7.38549
G1 X244.812 Y215.042 E0.73738
G1 X223.822 Y236.032 E8.48276
G1 X222.100 Y236.365 E0.50127
G1 X245.805 Y212.661 E9.58004
G1 X246.255 Y211.581 E0.33416
G1 X246.368 Y210.709 E0.25140
G1 X220.378 Y236.699 E10.50357
G1 X218.656 Y237.032 E0.50127
G1 X246.575 Y209.113 E11.28311
G1 X246.782 Y207.518 E0.45974
G1 X217.118 Y237.182 E11.98842
G1 X215.954 Y236.957 E0.33864
G1 X246.988 Y205.923 E12.54215
G1 X247.195 Y204.327 E0.45974
G1 X214.791 Y236.732 E13.09589
G1 X213.627 Y236.506 E0.33864
G1 X247.402 Y202.732 E13.64962
G1 X247.609 Y201.136 E0.45974
G1 X212.464 Y236.281 E14.20336
G1 X211.301 Y236.056 E0.33864
G1 X247.710 Y199.646 E14.71452
G1 X247.551 Y198.417 E0.35425
G1 X210.137 Y235.830 E15.12030
M73 P4 R122
G1 X208.974 Y235.605 E0.33864
G1 X247.391 Y197.188 E15.52609
G1 X247.232 Y195.958 E0.35425
G1 X207.921 Y235.269 E15.88718
M73 P5 R122
G1 X207.065 Y234.736 E0.28809
G1 X247.073 Y194.729 E16.16863
G1 X246.914 Y193.499 E0.35425
G1 X206.209 Y234.204 E16.45008
G1 X205.354 Y233.671 E0.28809
G1 X246.754 Y192.270 E16.73154
G1 X246.595 Y191.041 E0.35425
G1 X204.498 Y233.138 E17.01299
G1 X203.642 Y232.605 E0.28809
G1 X246.436 Y189.811 E17.29444
G1 X246.276 Y188.582 E0.35425
G1 X202.787 Y232.072 E17.57589
G1 X201.931 Y231.539 E0.28809
G1 X245.901 Y187.569 E17.76999
G1 X245.492 Y186.589 E0.30344
G1 X201.075 Y231.006 E17.95070
G1 X200.219 Y230.473 E0.28809
G1 X245.084 Y185.609 E18.13140
M73 P5 R121
G1 X244.675 Y184.629 E0.30344
G1 X199.485 Y229.818 E18.26287
G1 X198.860 Y229.055 E0.28201
G1 X244.266 Y183.649 E18.35028
G1 X243.858 Y182.669 E0.30344
G1 X198.236 Y228.291 E18.43769
G1 X197.611 Y227.527 E0.28201
G1 X243.449 Y181.689 E18.52510
M73 P6 R121
G1 X243.041 Y180.708 E0.30344
G1 X196.986 Y226.763 E18.61251
G1 X196.361 Y225.999 E0.28201
G1 X242.632 Y179.728 E18.69991
G1 X242.223 Y178.748 E0.30344
G1 X195.736 Y225.236 E18.78732
G1 X195.111 Y224.472 E0.28201
G1 X241.764 Y177.819 E18.85407
G1 X241.139 Y177.056 E0.28201
G1 X194.486 Y223.708 E18.85407
M73 P6 R120
G1 X193.861 Y222.944 E0.28201
G1 X240.514 Y176.292 E18.85407
G1 X239.889 Y175.528 E0.28201
G1 X193.236 Y222.181 E18.85407
G1 X193.089 Y222.000 E0.06664
G1 X192.777 Y221.252 E0.23173
G1 X239.264 Y174.764 E18.78732
G1 X238.639 Y174.001 E0.28201
G1 X192.368 Y220.272 E18.69991
G1 X191.959 Y219.291 E0.30344
G1 X238.014 Y173.237 E18.61250
G1 X237.389 Y172.473 E0.28201
G1 X191.551 Y218.311 E18.52510
G1 X191.142 Y217.331 E0.30344
G1 X236.764 Y171.709 E18.43769
M73 P7 R120
G1 X236.140 Y170.945 E0.28201
G1 X190.734 Y216.351 E18.35028
G1 X190.325 Y215.371 E0.30344
G1 X235.515 Y170.182 E18.26287
M73 P7 R119
G1 X235.185 Y169.779 E0.14880
G1 X234.781 Y169.527 E0.13608
G1 X189.916 Y214.391 E18.13140
G1 X189.508 Y213.411 E0.30344
G1 X233.925 Y168.994 E17.95069
G1 X233.069 Y168.461 E0.28809
G1 X189.099 Y212.431 E17.76999
G1 X188.745 Y211.581 E0.26309
G1 X188.724 Y211.418 E0.04710
G1 X232.213 Y167.928 E17.57589
G1 X231.358 Y167.395 E0.28809
G1 X188.564 Y210.189 E17.29443
G1 X188.405 Y208.959 E0.35425
G1 X230.502 Y166.862 E17.01298
G1 X229.646 Y166.329 E0.28809
G1 X188.246 Y207.730 E16.73153
G1 X188.086 Y206.500 E0.35425
G1 X228.790 Y165.796 E16.45007
G1 X227.935 Y165.264 E0.28809
G1 X187.927 Y205.271 E16.16862
G1 X187.768 Y204.042 E0.35425
G1 X227.079 Y164.731 E15.88717
M73 P7 R118
G1 X226.771 Y164.539 E0.10355
G1 X226.026 Y164.395 E0.21692
G1 X187.608 Y202.812 E15.52607
M73 P8 R118
G1 X187.449 Y201.583 E0.35425
G1 X224.863 Y164.170 E15.12029
G1 X223.699 Y163.944 E0.33864
G1 X187.290 Y200.354 E14.71450
G1 X187.244 Y200.000 E0.10193
G1 X187.391 Y198.864 E0.32745
G1 X222.536 Y163.719 E14.20334
G1 X221.373 Y163.494 E0.33864
G1 X187.598 Y197.268 E13.64961
