; generated by PrusaSlicer 2.3.1+win64 on 2021-07-19 at 09:42:27 UTC


;
;

;
;
; 

; external perimeters extrusion width = 1.12mm
; perimeters extrusion width = 1.12mm
; infill extrusion width = 1.12mm
; solid infill extrusion width = 1.12mm
; top infill extrusion width = 1.00mm
; first layer extrusion width = 1.00mm

M73 P0 R7
M201 X1250 Y1250 Z1250 E5000 ; sets maximum accelerations, mm/sec^2
M203 X400 Y400 Z400 E400 ; sets maximum feedrates, mm/sec
M204 P1250 R1250 T1250 ; sets acceleration (P, T) and retract acceleration (R), mm/sec^2
M205 X8.00 Y8.00 Z2.00 E10.00 ; sets the jerk limits, mm/sec
M205 S0 T0 ; sets the minimum extruding and travel feed rate, mm/sec
M107
M190 S85 ; set bed temperature and wait for it to be reached
;TYPE:Custom
G90 ; use absolute coordinates
M83 ; extruder relative mode
G28 ; home all without mesh bed level
G29 ; mesh bed leveling 
M104 S230 ; set extruder temp
G92 E0.0
G1 Y-2.0 X179 F2400
M73 P1 R7
G1 Z3 F720
M109 S230 ; wait for extruder temp

; intro line
G1 X170 F1000
G1 Z0.2 F720
G1 X110.0 E8.0 F900
M73 P2 R7
G1 X40.0 E10.0 F700
G92 E0.0

M221 S95 ; set flow
G21 ; set units to millimeters
G90 ; use absolute coordinates
M83 ; use relative distances for extrusion
M900 K0.2 ; Filament gcode
;LAYER_CHANGE
;Z:0.5
;HEIGHT:0.5
;BEFORE_LAYER_CHANGE
G92 E0.0
;0.5


M73 P3 R7
G1 E-3.20000 F2400.000
G1 Z0.200 F15600.000
G1 Z0.500
;AFTER_LAYER_CHANGE
;0.5
G1 Z0.700
G1 X191.514 Y161.740
M73 P4 R6
G1 Z0.500
G1 E3.20000 F1500.000
;TYPE:Skirt
;WIDTH:1
G1 F7200.000
G1 X192.138 Y161.163 E0.15758
G1 X192.821 Y160.671 E0.15637
G1 X193.566 Y160.263 E0.15758
G1 X194.349 Y159.952 E0.15637
G1 X195.164 Y159.738 E0.15637
G1 X195.999 Y159.626 E0.15637
G1 X238.506 Y159.607 E7.88808
G1 X239.783 Y159.728 E0.23797
G1 X241.016 Y160.083 E0.23797
G1 X242.166 Y160.663 E0.23917
G1 X243.184 Y161.443 E0.23797
G1 X244.040 Y162.399 E0.23797
G1 X244.704 Y163.496 E0.23797
G1 X245.154 Y164.703 E0.23917
G1 X245.372 Y165.967 E0.23797
G1 X245.392 Y233.584 E12.54779
G1 X245.327 Y234.450 E0.16118
G1 X245.153 Y235.301 E0.16118
G1 X244.874 Y236.124 E0.16118
G1 X244.493 Y236.905 E0.16118
G1 X244.021 Y237.626 E0.15998
G1 X243.459 Y238.288 E0.16118
G1 X242.817 Y238.873 E0.16118
G1 X242.113 Y239.370 E0.15998
G1 X241.352 Y239.775 E0.15998
G1 X240.546 Y240.082 E0.15998
G1 X239.708 Y240.286 E0.15998
G1 X238.845 Y240.384 E0.16118
G1 X196.364 Y240.391 E7.88332
G1 X195.511 Y240.321 E0.15878
G1 X194.674 Y240.146 E0.15878
G1 X193.864 Y239.869 E0.15878
G1 X193.095 Y239.493 E0.15878
G1 X192.358 Y239.010 E0.16358
G1 X191.694 Y238.441 E0.16238
G1 X191.106 Y237.792 E0.16238
G1 X190.603 Y237.068 E0.16358
G1 X190.196 Y236.286 E0.16358
G1 X189.893 Y235.465 E0.16238
G1 X189.697 Y234.606 E0.16358
G1 X189.611 Y233.735 E0.16238
G1 X189.608 Y166.416 E12.49251
G1 X189.673 Y165.550 E0.16118
G1 X189.847 Y164.699 E0.16118
G1 X190.126 Y163.876 E0.16118
G1 X190.507 Y163.095 E0.16118
G1 X190.967 Y162.390 E0.15637
G1 X191.418 Y161.855 E0.12974
G1 E-2.24000 F2400.000
;WIPE_START
G1 F12480.000
G1 X192.138 Y161.163 E-0.18236
G1 X192.821 Y160.671 E-0.15395
G1 X193.566 Y160.263 E-0.15513
G1 X194.349 Y159.952 E-0.15395
G1 X195.164 Y159.738 E-0.15395
G1 X195.775 Y159.656 E-0.11266
;WIPE_END
G1 E-0.04800 F2400.000
G1 Z0.700 F15600.000
G1 X214.338 Y171.114
G1 Z0.500
G1 E3.20000 F1500.000
;TYPE:External perimeter
G1 F7200.000
G1 X214.610 Y170.611 E0.10607
G1 X214.960 Y170.162 E0.10576
G1 X215.379 Y169.776 E0.10559
G1 X215.857 Y169.464 E0.10602
G1 X216.379 Y169.235 E0.10582
G1 X216.930 Y169.095 E0.10532
G1 X217.500 Y169.048 E0.10621
G1 X218.070 Y169.095 E0.10621
G1 X218.621 Y169.235 E0.10532
G1 X219.143 Y169.464 E0.10582
G1 X219.621 Y169.776 E0.10602
G1 X220.040 Y170.162 E0.10559
G1 X220.390 Y170.611 E0.10576
G1 X220.662 Y171.114 E0.10607
G1 X220.846 Y171.652 E0.10563
G1 X220.940 Y172.214 E0.10569
G1 X220.940 Y172.786 E0.10609
G1 X220.846 Y173.348 E0.10569
G1 X220.662 Y173.886 E0.10563
G1 X220.390 Y174.389 E0.10607
G1 X220.040 Y174.838 E0.10576
G1 X219.621 Y175.224 E0.10559
G1 X219.143 Y175.536 E0.10602
G1 X218.621 Y175.765 E0.10582
G1 X218.070 Y175.905 E0.10532
M73 P5 R6
G1 X217.500 Y175.952 E0.10621
G1 X216.930 Y175.905 E0.10621
G1 X216.379 Y175.765 E0.10532
G1 X215.857 Y175.536 E0.10582
G1 X215.379 Y175.224 E0.10602
G1 X214.960 Y174.838 E0.10559
G1 X214.610 Y174.389 E0.10576
G1 X214.338 Y173.886 E0.10607
G1 X214.154 Y173.348 E0.10563
G1 X214.060 Y172.786 E0.10569
G1 X214.060 Y172.214 E0.10609
G1 X214.154 Y171.652 E0.10569
G1 X214.289 Y171.256 E0.07780
G1 E-2.24000 F2400.000
;WIPE_START
G1 F12480.000
G1 X214.610 Y170.611 E-0.13153
G1 X214.960 Y170.162 E-0.10412
G1 X215.379 Y169.776 E-0.10396
G1 X215.857 Y169.464 E-0.10438
G1 X216.379 Y169.235 E-0.10418
G1 X216.930 Y169.095 E-0.10369
G1 X217.500 Y169.048 E-0.10457
G1 X218.070 Y169.095 E-0.10457
G1 X218.341 Y169.164 E-0.05101
;WIPE_END
G1 E-0.04800 F2400.000
G1 Z0.700 F15600.000
G1 X197.200 Y167.200
G1 Z0.500
G1 E3.20000 F1500.000
G1 F7200.000
G1 X237.800 Y167.200 E7.53417
G1 X237.800 Y232.800 E12.17343
G1 X197.200 Y232.800 E7.53417
G1 X197.200 Y167.350 E12.14559
G1 E-2.24000 F2400.000
;WIPE_START
G1 F12480.000
G1 X202.192 Y167.332 E-0.91200
;WIPE_END
G1 E-0.04800 F2400.000
G1 Z0.700 F15600.000
G1 X216.184 Y168.226
G1 Z0.500
G1 E3.20000 F1500.000
;TYPE:Gap fill
;WIDTH:1.13817
G1 F7200.000
G1 X216.730 Y168.158 E0.11782
;WIDTH:1.13008
G1 X216.814 Y168.151 E0.01788
;WIDTH:1.11612
G1 X217.137 Y168.137 E0.06785
;WIDTH:1.0892
G1 X217.460 Y168.124 E0.06604
;WIDTH:1.06227
G1 X217.540 Y168.124 E0.01576
;WIDTH:1.0892
G1 X217.863 Y168.137 E0.06604
;WIDTH:1.11612
G1 X218.186 Y168.151 E0.06785
;WIDTH:1.13008
G1 X218.270 Y168.158 E0.01788
;WIDTH:1.13817
G1 X218.816 Y168.226 E0.11782
G1 E-2.24000 F2400.000
;WIPE_START
G1 F12480.000
G1 X218.270 Y168.158 E-0.10045
;WIPE_END
G1 E-0.85955 F2400.000
G1 Z0.700 F15600.000
G1 X235.718 Y167.468
G1 Z0.500
G1 E3.20000 F1500.000
;TYPE:Solid infill
;WIDTH:1.00445
M73 P6 R6
G1 F7200.000
G1 X237.130 Y168.880 E0.37247
G1 X237.130 Y170.149 E0.23662
G1 X234.851 Y167.870 E0.60115
G1 X233.582 Y167.870 E0.23662
G1 X237.130 Y171.418 E0.93578
G1 X237.130 Y172.686 E0.23662
G1 X232.314 Y167.870 E1.27041
G1 X231.045 Y167.870 E0.23662
G1 X237.130 Y173.955 E1.60504
G1 X237.130 Y175.224 E0.23662
G1 X229.776 Y167.870 E1.93967
G1 X228.507 Y167.870 E0.23662
G1 X237.130 Y176.493 E2.27430
G1 X237.130 Y177.761 E0.23662
G1 X227.239 Y167.870 E2.60893
G1 X225.970 Y167.870 E0.23662
G1 X237.130 Y179.030 E2.94356
G1 X237.130 Y180.299 E0.23662
G1 X224.701 Y167.870 E3.27819
G1 X223.432 Y167.870 E0.23662
G1 X237.130 Y181.568 E3.61282
G1 X237.130 Y182.836 E0.23662
G1 X222.164 Y167.870 E3.94745
G1 X220.895 Y167.870 E0.23662
G1 X237.130 Y184.105 E4.28208
G1 X237.130 Y185.374 E0.23662
G1 X219.626 Y167.870 E4.61671
G1 X219.535 Y167.870 E0.01700
G1 X219.412 Y168.851 E0.18440
G1 X220.034 Y169.246 E0.13738
G1 X220.534 Y169.707 E0.12676
G1 X220.952 Y170.244 E0.12698
G1 X221.212 Y170.725 E0.10200
G1 X237.130 Y186.643 E4.19829
G1 X237.130 Y187.911 E0.23662
G1 X221.610 Y172.391 E4.09345
G1 X221.610 Y172.841 E0.08401
G1 X221.489 Y173.539 E0.13195
G1 X237.130 Y189.180 E4.12542
M73 P7 R6
G1 X237.130 Y190.449 E0.23662
G1 X221.123 Y174.441 E4.22197
G1 X220.952 Y174.756 E0.06681
G1 X220.609 Y175.197 E0.10408
G1 X237.130 Y191.718 E4.35739
G1 X237.130 Y192.987 E0.23662
G1 X219.952 Y175.808 E4.53085
G1 X219.463 Y176.127 E0.10897
G1 X219.143 Y176.267 E0.06513
G1 X237.130 Y194.255 E4.74420
G1 X237.130 Y195.524 E0.23662
G1 X217.802 Y176.196 E5.09770
G1 E-2.24000 F2400.000
;WIPE_START
G1 F12480.000
G1 X221.332 Y179.726 E-0.91200
;WIPE_END
G1 E-0.04800 F2400.000
G1 Z0.700 F15600.000
G1 X215.854 Y169.173
G1 Z0.500
G1 E3.20000 F1500.000
G1 F7200.000
G1 X214.551 Y167.870 E0.34367
G1 X213.282 Y167.870 E0.23662
G1 X214.806 Y169.393 E0.40194
G1 X214.466 Y169.707 E0.08620
G1 X214.197 Y170.053 E0.08181
G1 X212.013 Y167.870 E0.57579
G1 X210.745 Y167.870 E0.23662
G1 X213.722 Y170.847 E0.78524
G1 X213.502 Y171.487 E0.12632
G1 X213.444 Y171.837 E0.06615
G1 X209.476 Y167.870 E1.04649
G1 X208.207 Y167.870 E0.23662
G1 X213.432 Y173.095 E1.37812
G1 X213.502 Y173.513 E0.07901
G1 X213.723 Y174.156 E0.12681
G1 X214.048 Y174.756 E0.12735
G1 X214.466 Y175.293 E0.12698
G1 X214.966 Y175.754 E0.12676
G1 X215.537 Y176.127 E0.12729
G1 X216.161 Y176.401 E0.12703
G1 X216.819 Y176.567 E0.12647
G1 X216.913 Y176.575 E0.01764
G1 X237.130 Y196.793 E5.33227
G1 X237.130 Y198.062 E0.23662
G1 X206.938 Y167.870 E7.96301
M73 P8 R6
G1 X205.670 Y167.870 E0.23662
G1 X237.130 Y199.330 E8.29764
G1 X237.130 Y200.599 E0.23662
G1 X204.401 Y167.870 E8.63227
G1 X203.132 Y167.870 E0.23662
G1 X237.130 Y201.868 E8.96690
G1 X237.130 Y203.137 E0.23662
G1 X201.863 Y167.870 E9.30153
G1 X200.595 Y167.870 E0.23662
G1 X237.130 Y204.405 E9.63616
G1 X237.130 Y205.674 E0.23662
G1 X199.326 Y167.870 E9.97079
G1 X198.057 Y167.870 E0.23662
G1 X237.130 Y206.943 E10.30542
G1 X237.130 Y208.212 E0.23662
G1 X197.870 Y168.951 E10.35489
M73 P9 R6
G1 X197.870 Y170.219 E0.23662
G1 X237.130 Y209.480 E10.35489
G1 X237.130 Y210.749 E0.23662
G1 X197.870 Y171.488 E10.35489
G1 X197.870 Y172.757 E0.23662
G1 X237.130 Y212.018 E10.35489
G1 X237.130 Y213.287 E0.23662
G1 X197.870 Y174.026 E10.35489
G1 X197.870 Y175.295 E0.23662
G1 X237.130 Y214.555 E10.35489
G1 X237.130 Y215.824 E0.23662
G1 X197.870 Y176.563 E10.35489
G1 X197.870 Y177.832 E0.23662
G1 X237.130 Y217.093 E10.35489
M73 P10 R6
G1 X237.130 Y218.362 E0.23662
G1 X197.870 Y179.101 E10.35489
G1 X197.870 Y180.370 E0.23662
G1 X237.130 Y219.631 E10.35489
G1 X237.130 Y220.899 E0.23662
G1 X197.870 Y181.638 E10.35489
G1 X197.870 Y182.907 E0.23662
G1 X237.130 Y222.168 E10.35489
G1 X237.130 Y223.437 E0.23662
G1 X197.870 Y184.176 E10.35489
G1 X197.870 Y185.445 E0.23662
G1 X237.130 Y224.706 E10.35489
M73 P11 R6
G1 X237.130 Y225.974 E0.23662
G1 X197.870 Y186.713 E10.35489
G1 X197.870 Y187.982 E0.23662
G1 X237.130 Y227.243 E10.35489
G1 X237.130 Y228.512 E0.23662
G1 X197.870 Y189.251 E10.35489
G1 X197.870 Y190.520 E0.23662
G1 X237.130 Y229.781 E10.35489
G1 X237.130 Y231.049 E0.23662
G1 X197.870 Y191.788 E10.35489
G1 X197.870 Y193.057 E0.23662
G1 X236.943 Y232.130 E10.30539
G1 X235.674 Y232.130 E0.23662
G1 X197.870 Y194.326 E9.97076
M73 P12 R6
G1 X197.870 Y195.595 E0.23662
G1 X234.405 Y232.130 E9.63613
G1 X233.136 Y232.130 E0.23662
G1 X197.870 Y196.864 E9.30150
G1 X197.870 Y198.132 E0.23662
G1 X231.868 Y232.130 E8.96687
G1 X230.599 Y232.130 E0.23662
G1 X197.870 Y199.401 E8.63224
G1 X197.870 Y200.670 E0.23662
G1 X229.330 Y232.130 E8.29761
G1 X228.061 Y232.130 E0.23662
G1 X197.870 Y201.939 E7.96298
G1 X197.870 Y203.207 E0.23662
G1 X226.793 Y232.130 E7.62835
G1 X225.524 Y232.130 E0.23662
G1 X197.870 Y204.476 E7.29372
M73 P13 R6
G1 X197.870 Y205.745 E0.23662
G1 X224.255 Y232.130 E6.95909
G1 X222.986 Y232.130 E0.23662
G1 X197.870 Y207.014 E6.62446
G1 X197.870 Y208.282 E0.23662
G1 X221.718 Y232.130 E6.28983
G1 X220.449 Y232.130 E0.23662
G1 X197.870 Y209.551 E5.95520
G1 X197.870 Y210.820 E0.23662
G1 X219.180 Y232.130 E5.62056
G1 X217.911 Y232.130 E0.23662
G1 X197.870 Y212.089 E5.28593
G1 X197.870 Y213.357 E0.23662
G1 X216.643 Y232.130 E4.95130
G1 X215.374 Y232.130 E0.23662
G1 X197.870 Y214.626 E4.61667
G1 X197.870 Y215.895 E0.23662
G1 X214.105 Y232.130 E4.28204
G1 X212.836 Y232.130 E0.23662
G1 X197.870 Y217.164 E3.94741
G1 X197.870 Y218.432 E0.23662
G1 X211.568 Y232.130 E3.61278
M73 P14 R6
G1 X210.299 Y232.130 E0.23662
G1 X197.870 Y219.701 E3.27815
G1 X197.870 Y220.970 E0.23662
G1 X209.030 Y232.130 E2.94352
G1 X207.761 Y232.130 E0.23662
G1 X197.870 Y222.239 E2.60889
G1 X197.870 Y223.508 E0.23662
G1 X206.492 Y232.130 E2.27426
G1 X205.224 Y232.130 E0.23662
G1 X197.870 Y224.776 E1.93963
G1 X197.870 Y226.045 E0.23662
G1 X203.955 Y232.130 E1.60500
G1 X202.686 Y232.130 E0.23662
G1 X197.870 Y227.314 E1.27037
G1 X197.870 Y228.583 E0.23662
G1 X201.417 Y232.130 E0.93574
G1 X200.149 Y232.130 E0.23662
G1 X197.870 Y229.851 E0.60111
G1 X197.870 Y231.120 E0.23662
G1 X199.282 Y232.532 E0.37243
;LAYER_CHANGE
;Z:1.2
;HEIGHT:0.7
;BEFORE_LAYER_CHANGE
G92 E0.0
;1.2


G1 E-2.24000 F2400.000
;WIPE_START
G1 F12480.000
G1 X197.870 Y231.120 E-0.36484
G1 X197.870 Y229.851 E-0.23179
G1 X199.090 Y231.072 E-0.31537
;WIPE_END
G1 E-0.04800 F2400.000
G1 Z0.700 F15600.000
G1 Z1.200
;AFTER_LAYER_CHANGE
;1.2
M104 S240 ; set temperature
M140 S90 ; set bed temperature
G1 X214.465 Y171.169
G1 E3.20000 F1500.000
;TYPE:External perimeter
;WIDTH:1.125
G1 F5913
G1 X214.726 Y170.687 E0.15567
G1 X215.062 Y170.255 E0.15522
G1 X215.464 Y169.885 E0.15498
G1 X215.923 Y169.585 E0.15560
G1 X216.424 Y169.365 E0.15531
G1 X216.952 Y169.231 E0.15457
G1 X217.500 Y169.186 E0.15589
G1 X218.048 Y169.231 E0.15589
G1 X218.576 Y169.365 E0.15457
G1 X219.077 Y169.585 E0.15531
G1 X219.536 Y169.885 E0.15560
G1 X219.938 Y170.255 E0.15498
G1 X220.274 Y170.687 E0.15522
G1 X220.535 Y171.169 E0.15567
G1 X220.713 Y171.686 E0.15503
G1 X220.803 Y172.226 E0.15511
G1 X220.803 Y172.774 E0.15570
G1 X220.713 Y173.314 E0.15511
G1 X220.535 Y173.831 E0.15503
G1 X220.274 Y174.313 E0.15567
G1 X219.938 Y174.745 E0.15522
G1 X219.536 Y175.115 E0.15498
G1 X219.077 Y175.415 E0.15560
G1 X218.576 Y175.635 E0.15531
G1 X218.048 Y175.769 E0.15457
G1 X217.500 Y175.814 E0.15589
G1 X216.952 Y175.769 E0.15589
G1 X216.424 Y175.635 E0.15457
G1 X215.923 Y175.415 E0.15531
G1 X215.464 Y175.115 E0.15560
G1 X215.062 Y174.745 E0.15498
G1 X214.726 Y174.313 E0.15522
G1 X214.465 Y173.831 E0.15567
G1 X214.287 Y173.314 E0.15503
G1 X214.197 Y172.774 E0.15511
G1 X214.197 Y172.226 E0.15570
G1 X214.287 Y171.686 E0.15511
G1 X214.416 Y171.311 E0.11248
G1 X197.062 Y167.200 F15600.000
G1 F5913
G1 X197.062 Y167.062 E0.03901
G1 X237.938 Y167.062 E11.59567
M73 P15 R6
G1 X237.938 Y232.938 E18.68782
G1 X197.062 Y232.938 E11.59567
G1 X197.062 Y167.350 E18.60626
G1 X197.355 Y168.450 F15600.000
;TYPE:Internal infill
G1 F5913
G1 X198.011 Y167.794 E0.26320
G1 X201.457 Y167.794 E0.97769
G1 X197.794 Y171.457 E1.46988
G1 X197.794 Y174.904 E0.97768
G1 X204.904 Y167.794 E2.85253
G1 X208.350 Y167.794 E0.97769
G1 X197.794 Y178.350 E4.23519
G1 X197.794 Y181.796 E0.97769
G1 X211.796 Y167.794 E5.61784
G1 X215.243 Y167.794 E0.97769
G1 X197.355 Y185.681 E7.17648
G1 E-2.24000 F2400.000
;WIPE_START
G1 F12480.000
G1 X200.885 Y182.152 E-0.91200
;WIPE_END
G1 E-0.04800 F2400.000
G1 Z1.400 F15600.000
G1 X226.021 Y167.355
M73 P16 R6
G1 Z1.200
G1 E3.20000 F1500.000
G1 F5913
G1 X221.488 Y171.888 E1.81854
G1 X221.424 Y171.506 E0.10975
G1 X221.207 Y170.875 E0.18934
G1 X220.888 Y170.285 E0.19013
G1 X220.478 Y169.758 E0.18958
G1 X220.318 Y169.611 E0.06160
G1 X222.136 Y167.794 E0.72917
G1 X218.689 Y167.794 E0.97769
G1 X217.990 Y168.493 E0.28052
G1 X217.500 Y168.452 E0.13948
G1 X216.831 Y168.508 E0.19036
G1 X216.186 Y168.671 E0.18883
G1 X215.574 Y168.940 E0.18967
G1 X215.013 Y169.306 E0.19005
G1 X214.522 Y169.758 E0.18926
G1 X214.112 Y170.285 E0.18958
G1 X213.793 Y170.875 E0.19014
G1 X213.576 Y171.506 E0.18934
G1 X213.466 Y172.165 E0.18944
G1 X213.466 Y172.835 E0.19017
G1 X213.492 Y172.991 E0.04476
G1 X197.794 Y188.689 E6.29807
G1 X197.794 Y192.136 E0.97769
G1 X214.608 Y175.321 E6.74589
G1 X215.013 Y175.694 E0.15612
G1 X215.574 Y176.060 E0.19005
G1 X216.186 Y176.329 E0.18967
G1 X216.879 Y176.496 E0.20229
G1 X197.794 Y195.582 E7.65700
G1 X197.794 Y199.028 E0.97768
G1 X229.028 Y167.794 E12.53112
G1 X232.475 Y167.794 E0.97769
G1 X197.794 Y202.475 E13.91378
G1 X197.794 Y205.921 E0.97769
G1 X235.921 Y167.794 E15.29643
G1 X237.206 Y167.794 E0.36466
G1 X237.206 Y169.955 E0.61302
G1 X197.794 Y209.367 E15.81214
M73 P17 R6
G1 X197.794 Y212.814 E0.97769
G1 X237.206 Y173.401 E15.81214
G1 X237.206 Y176.847 E0.97768
G1 X197.794 Y216.260 E15.81214
G1 X197.794 Y219.706 E0.97768
G1 X237.206 Y180.294 E15.81214
G1 X237.206 Y183.740 E0.97768
G1 X197.794 Y223.153 E15.81214
G1 X197.794 Y226.599 E0.97768
G1 X237.206 Y187.186 E15.81214
M73 P18 R6
G1 X237.206 Y190.633 E0.97769
G1 X197.794 Y230.045 E15.81214
G1 X197.794 Y232.206 E0.61302
G1 X199.079 Y232.206 E0.36466
G1 X237.206 Y194.079 E15.29643
G1 X237.206 Y197.525 E0.97769
