; Postprocessed by [ArcWelder](https://github.com/FormerLurker/ArcWelderLib)
; Copyright(C) 2020 - Brad Hochgesang
; arc_welder_resolution_mm = 0.05
; arc_welder_g90_influences_extruder = False

; generated by PrusaSlicer 2.3.1+win64 on 2021-06-23 at 13:00:59 UTC







; 

; external perimeters extrusion width = 1.12mm
; perimeters extrusion width = 1.12mm
; infill extrusion width = 1.12mm
; solid infill extrusion width = 1.12mm
; top infill extrusion width = 1.00mm
; first layer extrusion width = 1.00mm

M73 P0 R29
M201 X1250 Y1250 Z1250 E5000 ; sets maximum accelerations, mm/sec^2
M203 X200 Y200 Z200 E200 ; sets maximum feedrates, mm/sec
M204 P1250 R1250 T1250 ; sets acceleration (P, T) and retract acceleration (R), mm/sec^2
M205 X8.00 Y8.00 Z2.00 E10.00 ; sets the jerk limits, mm/sec
M205 S0 T0 ; sets the minimum extruding and travel feed rate, mm/sec
M107
M190 S85 ; set bed temperature and wait for it to be reached
;TYPE:Custom
G90 ; use absolute coordinates
M83 ; extruder relative mode
G28 ; home all without mesh bed level
G29 ; mesh bed leveling 
M104 S230 ; set extruder temp
G92 E0.0
G1 Y-2.0 X179 F2400
G1 Z3 F720
M109 S230 ; wait for extruder temp

; intro line
G1 X170 F1000
G1 Z0.2 F720
G1 X110.0 E8.0 F900
G1 X40.0 E10.0 F700
G92 E0.0

M221 S95 ; set flow
G21 ; set units to millimeters
G90 ; use absolute coordinates
M83 ; use relative distances for extrusion
M900 K0.2 ; Filament gcode
;LAYER_CHANGE
;Z:0.5
;HEIGHT:0.5
;BEFORE_LAYER_CHANGE
G92 E0.0
;0.5


G1 E-3.20000 F2400.000
G1 Z0.200 F15600.000
G1 Z0.500
;AFTER_LAYER_CHANGE
;0.5
G1 Z0.700
G1 X191.514 Y161.740
G1 Z0.500
G1 E3.20000 F1500.000
;TYPE:Skirt
;WIDTH:1
G1 F940.967
G3 X195.998 Y159.626 I4.985 J4.762 E0.94063
G1 X238.506 Y159.607 E7.88808
M73 P1 R29
G1 X239.783 Y159.728 E0.23797
G1 X241.016 Y160.083 E0.23797
G1 X242.166 Y160.663 E0.23917
G1 X243.184 Y161.443 E0.23797
G1 X244.040 Y162.399 E0.23797
G1 X244.704 Y163.496 E0.23797
G1 X245.154 Y164.703 E0.23917
G1 X245.372 Y165.967 E0.23797
G1 X245.392 Y233.584 E12.54779
M73 P1 R28
G3 X238.844 Y240.383 I-6.89 J-0.082 E1.92815
G1 X196.364 Y240.391 E7.88332
G3 X189.61 Y233.735 I0.135 J-6.89 E1.93896
G1 X189.608 Y166.416 E12.49251
G3 X191.418 Y161.854 I6.826 J0.069 E0.93083
G1 E-2.24000 F2400.000
;WIPE_START
G1 F12480.000
G3 X195.775 Y159.656 I5.016 J4.523 E-0.912
;WIPE_END
G1 E-0.04800 F2400.000
G1 Z0.700 F15600.000
G1 X214.338 Y171.114
G1 Z0.500
G1 E3.20000 F1500.000
;TYPE:External perimeter
G1 F940.967
G3 X220.662 Y171.114 I3.161 J1.386 E1.48158
M73 P2 R28
G3 X214.288 Y171.256 I-3.157 J1.388 E2.51121
G1 E-2.24000 F2400.000
;WIPE_START
G1 F12480.000
G3 X218.341 Y169.163 I3.189 J1.206 E-0.912
;WIPE_END
G1 E-0.04800 F2400.000
G1 Z0.700 F15600.000
G1 X197.200 Y167.200
G1 Z0.500
G1 E3.20000 F1500.000
G1 F940.967
G1 X237.800 Y167.200 E7.53417
G1 X237.800 Y232.800 E12.17343
G1 X197.200 Y232.800 E7.53417
G1 X197.200 Y167.350 E12.14559
G1 E-2.24000 F2400.000
;WIPE_START
G1 F12480.000
G1 X202.192 Y167.332 E-0.91200
;WIPE_END
G1 E-0.04800 F2400.000
G1 Z0.700 F15600.000
G1 X216.184 Y168.226
G1 Z0.500
G1 E3.20000 F1500.000
;TYPE:Gap fill
;WIDTH:1.13817
G1 F814.849
G1 X216.730 Y168.158 E0.11782
;WIDTH:1.13008
G1 F821.291
G1 X216.814 Y168.151 E0.01788
;WIDTH:1.11612
G1 F832.654
G1 X217.137 Y168.137 E0.06785
;WIDTH:1.0892
G1 F855.487
G1 X217.460 Y168.124 E0.06604
;WIDTH:1.06227
G1 F879.605
G1 X217.540 Y168.124 E0.01576
;WIDTH:1.0892
G1 F855.488
G1 X217.863 Y168.137 E0.06604
;WIDTH:1.11612
G1 F832.657
G1 X218.186 Y168.151 E0.06785
;WIDTH:1.13008
G1 F821.294
G1 X218.270 Y168.158 E0.01788
;WIDTH:1.13817
G1 F814.850
G1 X218.816 Y168.226 E0.11782
G1 E-2.24000 F2400.000
;WIPE_START
G1 F12480.000
G1 X218.270 Y168.158 E-0.10045
;WIPE_END
G1 E-0.85955 F2400.000
G1 Z0.700 F15600.000
G1 X235.718 Y167.468
G1 Z0.500
G1 E3.20000 F1500.000
;TYPE:Solid infill
;WIDTH:1.00445
G1 F936.297
G1 X237.130 Y168.880 E0.37247
G1 X237.130 Y170.149 E0.23662
G1 X234.851 Y167.870 E0.60115
G1 X233.582 Y167.870 E0.23662
G1 X237.130 Y171.418 E0.93578
G1 X237.130 Y172.686 E0.23662
G1 X232.314 Y167.870 E1.27041
M73 P3 R28
G1 X231.045 Y167.870 E0.23662
G1 X237.130 Y173.955 E1.60504
G1 X237.130 Y175.224 E0.23662
G1 X229.776 Y167.870 E1.93967
G1 X228.507 Y167.870 E0.23662
G1 X237.130 Y176.493 E2.27430
G1 X237.130 Y177.761 E0.23662
G1 X227.239 Y167.870 E2.60893
G1 X225.970 Y167.870 E0.23662
G1 X237.130 Y179.030 E2.94356
G1 X237.130 Y180.299 E0.23662
G1 X224.701 Y167.870 E3.27819
G1 X223.432 Y167.870 E0.23662
G1 X237.130 Y181.568 E3.61282
G1 X237.130 Y182.836 E0.23662
G1 X222.164 Y167.870 E3.94745
G1 X220.895 Y167.870 E0.23662
G1 X237.130 Y184.105 E4.28208
G1 X237.130 Y185.374 E0.23662
G1 X219.626 Y167.870 E4.61671
G1 X219.535 Y167.870 E0.01700
G1 X219.412 Y168.851 E0.18440
G3 X221.211 Y170.724 I-1.822 J3.551 E0.49312
G1 X237.130 Y186.643 E4.19829
G1 X237.130 Y187.911 E0.23662
G1 X221.610 Y172.391 E4.09345
G3 X221.489 Y173.538 I-3.371 J0.225 E0.21595
G1 X237.130 Y189.180 E4.12542
G1 X237.130 Y190.449 E0.23662
G1 X221.123 Y174.441 E4.22197
M73 P4 R28
G3 X220.609 Y175.197 I-2.545 J-1.177 E0.17089
G1 X237.130 Y191.718 E4.35739
G1 X237.130 Y192.987 E0.23662
G1 X219.952 Y175.808 E4.53085
G3 X219.143 Y176.266 I-1.777 J-2.19 E0.1741
G1 X237.130 Y194.255 E4.74420
G1 X237.130 Y195.524 E0.23662
G1 X217.802 Y176.196 E5.09770
G1 E-2.24000 F2400.000
;WIPE_START
G1 F12480.000
G1 X221.332 Y179.726 E-0.91200
;WIPE_END
G1 E-0.04800 F2400.000
G1 Z0.700 F15600.000
G1 X215.854 Y169.173
G1 Z0.500
G1 E3.20000 F1500.000
G1 F936.297
G1 X214.551 Y167.870 E0.34367
G1 X213.282 Y167.870 E0.23662
G1 X214.806 Y169.393 E0.40194
G2 X214.197 Y170.052 I1.686 J2.166 E0.168
G1 X212.013 Y167.870 E0.57579
G1 X210.745 Y167.870 E0.23662
G1 X213.722 Y170.847 E0.78524
G2 X213.443 Y171.836 I2.799 J1.32 E0.19246
G1 X209.476 Y167.870 E1.04649
G1 X208.207 Y167.870 E0.23662
G1 X213.432 Y173.095 E1.37812
G2 X216.913 Y176.574 I4.036 J-0.556 E0.98534
G1 X237.130 Y196.793 E5.33227
G1 X237.130 Y198.062 E0.23662
G1 X206.938 Y167.870 E7.96301
G1 X205.670 Y167.870 E0.23662
G1 X237.130 Y199.330 E8.29764
M73 P5 R27
G1 X237.130 Y200.599 E0.23662
G1 X204.401 Y167.870 E8.63227
G1 X203.132 Y167.870 E0.23662
G1 X237.130 Y201.868 E8.96690
G1 X237.130 Y203.137 E0.23662
G1 X201.863 Y167.870 E9.30153
G1 X200.595 Y167.870 E0.23662
G1 X237.130 Y204.405 E9.63616
G1 X237.130 Y205.674 E0.23662
G1 X199.326 Y167.870 E9.97079
G1 X198.057 Y167.870 E0.23662
G1 X237.130 Y206.943 E10.30542
M73 P6 R27
G1 X237.130 Y208.212 E0.23662
G1 X197.870 Y168.951 E10.35489
G1 X197.870 Y170.219 E0.23662
G1 X237.130 Y209.480 E10.35489
G1 X237.130 Y210.749 E0.23662
G1 X197.870 Y171.488 E10.35489
G1 X197.870 Y172.757 E0.23662
G1 X237.130 Y212.018 E10.35489
M73 P7 R27
G1 X237.130 Y213.287 E0.23662
G1 X197.870 Y174.026 E10.35489
G1 X197.870 Y175.295 E0.23662
G1 X237.130 Y214.555 E10.35489
G1 X237.130 Y215.824 E0.23662
G1 X197.870 Y176.563 E10.35489
G1 X197.870 Y177.832 E0.23662
G1 X237.130 Y217.093 E10.35489
G1 X237.130 Y218.362 E0.23662
G1 X197.870 Y179.101 E10.35489
M73 P8 R27
G1 X197.870 Y180.370 E0.23662
G1 X237.130 Y219.631 E10.35489
G1 X237.130 Y220.899 E0.23662
G1 X197.870 Y181.638 E10.35489
M73 P8 R26
G1 X197.870 Y182.907 E0.23662
G1 X237.130 Y222.168 E10.35489
G1 X237.130 Y223.437 E0.23662
G1 X197.870 Y184.176 E10.35489
G1 X197.870 Y185.445 E0.23662
G1 X237.130 Y224.706 E10.35489
M73 P9 R26
G1 X237.130 Y225.974 E0.23662
G1 X197.870 Y186.713 E10.35489
G1 X197.870 Y187.982 E0.23662
G1 X237.130 Y227.243 E10.35489
G1 X237.130 Y228.512 E0.23662
G1 X197.870 Y189.251 E10.35489
G1 X197.870 Y190.520 E0.23662
G1 X237.130 Y229.781 E10.35489
G1 X237.130 Y231.049 E0.23662
G1 X197.870 Y191.788 E10.35489
M73 P10 R26
G1 X197.870 Y193.057 E0.23662
G1 X236.943 Y232.130 E10.30539
G1 X235.674 Y232.130 E0.23662
G1 X197.870 Y194.326 E9.97076
G1 X197.870 Y195.595 E0.23662
G1 X234.405 Y232.130 E9.63613
G1 X233.136 Y232.130 E0.23662
G1 X197.870 Y196.864 E9.30150
G1 X197.870 Y198.132 E0.23662
G1 X231.868 Y232.130 E8.96687
M73 P11 R26
G1 X230.599 Y232.130 E0.23662
G1 X197.870 Y199.401 E8.63224
G1 X197.870 Y200.670 E0.23662
G1 X229.330 Y232.130 E8.29761
G1 X228.061 Y232.130 E0.23662
G1 X197.870 Y201.939 E7.96298
G1 X197.870 Y203.207 E0.23662
G1 X226.793 Y232.130 E7.62835
M73 P11 R25
G1 X225.524 Y232.130 E0.23662
G1 X197.870 Y204.476 E7.29372
G1 X197.870 Y205.745 E0.23662
G1 X224.255 Y232.130 E6.95909
M73 P12 R25
G1 X222.986 Y232.130 E0.23662
G1 X197.870 Y207.014 E6.62446
G1 X197.870 Y208.282 E0.23662
G1 X221.718 Y232.130 E6.28983
G1 X220.449 Y232.130 E0.23662
G1 X197.870 Y209.551 E5.95520
G1 X197.870 Y210.820 E0.23662
G1 X219.180 Y232.130 E5.62056
G1 X217.911 Y232.130 E0.23662
G1 X197.870 Y212.089 E5.28593
G1 X197.870 Y213.357 E0.23662
G1 X216.643 Y232.130 E4.95130
G1 X215.374 Y232.130 E0.23662
G1 X197.870 Y214.626 E4.61667
G1 X197.870 Y215.895 E0.23662
G1 X214.105 Y232.130 E4.28204
M73 P13 R25
G1 X212.836 Y232.130 E0.23662
G1 X197.870 Y217.164 E3.94741
G1 X197.870 Y218.432 E0.23662
G1 X211.568 Y232.130 E3.61278
G1 X210.299 Y232.130 E0.23662
G1 X197.870 Y219.701 E3.27815
G1 X197.870 Y220.970 E0.23662
G1 X209.030 Y232.130 E2.94352
G1 X207.761 Y232.130 E0.23662
G1 X197.870 Y222.239 E2.60889
G1 X197.870 Y223.508 E0.23662
G1 X206.492 Y232.130 E2.27426
G1 X205.224 Y232.130 E0.23662
G1 X197.870 Y224.776 E1.93963
G1 X197.870 Y226.045 E0.23662
G1 X203.955 Y232.130 E1.60500
G1 X202.686 Y232.130 E0.23662
G1 X197.870 Y227.314 E1.27037
G1 X197.870 Y228.583 E0.23662
G1 X201.417 Y232.130 E0.93574
G1 X200.149 Y232.130 E0.23662
G1 X197.870 Y229.851 E0.60111
G1 X197.870 Y231.120 E0.23662
G1 X199.282 Y232.532 E0.37243
;LAYER_CHANGE
;Z:1.2
;HEIGHT:0.7
;BEFORE_LAYER_CHANGE
G92 E0.0
;1.2


G1 E-2.24000 F2400.000
;WIPE_START
G1 F12480.000
G1 X197.870 Y231.120 E-0.36484
G1 X197.870 Y229.851 E-0.23179
G1 X199.090 Y231.072 E-0.31537
;WIPE_END
G1 E-0.04800 F2400.000
G1 Z0.700 F15600.000
G1 Z1.200
;AFTER_LAYER_CHANGE
;1.2
M104 S240 ; set temperature
M140 S90 ; set bed temperature
G1 X214.465 Y171.169
G1 E3.20000 F1500.000
;TYPE:External perimeter
;WIDTH:1.125
G1 F615.524
G3 X214.287 Y171.686 I3.033 J1.333 E5.74589
G1 X214.416 Y171.311 E0.11248
G1 X197.062 Y167.200 F15600.000
G1 F615.524
G1 X197.062 Y167.062 E0.03901
G1 X237.938 Y167.062 E11.59567
G1 X237.938 Y232.938 E18.68782
M73 P14 R25
G1 X197.062 Y232.938 E11.59567
G1 X197.062 Y167.350 E18.60626
G1 X197.355 Y169.345 F15600.000
;TYPE:Solid infill
;WIDTH:1.13436
G1 F609.672
G1 X198.906 Y167.794 E0.62845
G1 X200.298 Y167.794 E0.39862
G1 X197.794 Y170.298 E1.01451
M73 P15 R25
G1 X197.794 Y171.690 E0.39862
G1 X201.690 Y167.794 E1.57824
G1 X203.082 Y167.794 E0.39862
G1 X197.794 Y173.082 E2.14197
G1 X197.794 Y174.474 E0.39862
G1 X204.474 Y167.794 E2.70571
G1 X205.865 Y167.794 E0.39862
G1 X197.794 Y175.865 E3.26944
G1 X197.794 Y177.257 E0.39862
G1 X207.257 Y167.794 E3.83317
M73 P15 R24
G1 X208.649 Y167.794 E0.39862
G1 X197.794 Y178.649 E4.39690
G1 X197.794 Y180.041 E0.39862
G1 X210.041 Y167.794 E4.96063
G1 X211.433 Y167.794 E0.39862
G1 X197.794 Y181.432 E5.52436
G1 X197.794 Y182.824 E0.39862
G1 X212.824 Y167.794 E6.08810
G1 X214.216 Y167.794 E0.39862
G1 X197.794 Y184.216 E6.65183
G1 X197.794 Y185.608 E0.39862
G1 X215.608 Y167.794 E7.21556
M73 P16 R24
G1 X217.000 Y167.794 E0.39862
G1 X197.355 Y187.438 E7.95696
G1 X197.355 Y197.181 F15600.000
G1 F609.672
G1 X218.032 Y176.504 E8.37510
G3 X216.83 Y176.491 I-0.564 J-3.589 E0.34506
G1 X216.688 Y176.456 E0.04235
G1 X197.794 Y195.350 E7.65305
G1 X197.794 Y193.959 E0.39862
G1 X215.656 Y176.096 E7.23498
G3 X214.832 Y175.527 I1.095 J-2.468 E0.28774
G1 X197.794 Y192.567 E6.90157
G1 X197.794 Y191.175 E0.39862
G1 X214.174 Y174.795 E6.63474
G3 X213.705 Y173.871 I2.206 J-1.698 E0.2979
G1 X197.794 Y189.783 E6.44505
M73 P17 R24
G1 X197.794 Y188.391 E0.39862
G1 X213.905 Y172.280 E6.52566
G1 E-2.24000 F2400.000
;WIPE_START
G1 F12480.000
G1 X210.375 Y175.810 E-0.91200
;WIPE_END
G1 E-0.04800 F2400.000
G1 Z1.400 F15600.000
G1 X217.274 Y168.911
G1 Z1.200
G1 E3.20000 F1500.000
G1 F609.672
G1 X218.391 Y167.794 E0.45259
G1 X219.783 Y167.794 E0.39862
G1 X218.877 Y168.699 E0.36684
G3 X219.79 Y169.177 I-0.988 J2.998 E0.29628
G1 X221.175 Y167.794 E0.56070
G1 X222.567 Y167.794 E0.39862
G1 X220.532 Y169.828 E0.82407
G3 X221.091 Y170.661 I-2.195 J2.077 E0.28822
G1 X223.959 Y167.794 E1.16128
G1 X225.350 Y167.794 E0.39862
G1 X221.454 Y171.689 E1.57797
G3 X221.501 Y173.034 I-2.809 J0.771 E0.3881
G1 X226.742 Y167.794 E2.12301
G1 X228.134 Y167.794 E0.39862
G1 X197.794 Y198.134 E12.28914
G1 X197.794 Y199.526 E0.39862
G1 X229.526 Y167.794 E12.85287
G1 X230.917 Y167.794 E0.39862
G1 X197.794 Y200.917 E13.41660
M73 P18 R24
G1 X197.794 Y202.309 E0.39862
G1 X232.309 Y167.794 E13.98034
G1 X233.701 Y167.794 E0.39862
G1 X197.794 Y203.701 E14.54407
M73 P18 R23
G1 X197.794 Y205.093 E0.39862
G1 X235.093 Y167.794 E15.10780
M73 P19 R23
G1 X236.485 Y167.794 E0.39862
G1 X197.794 Y206.485 E15.67153
G1 X197.794 Y207.876 E0.39862
G1 X237.206 Y168.463 E15.96393
G1 X237.206 Y169.855 E0.39862
G1 X197.794 Y209.268 E15.96394
M73 P20 R23
G1 X197.794 Y210.660 E0.39862
G1 X237.206 Y171.247 E15.96393
G1 X237.206 Y172.639 E0.39862
G1 X197.794 Y212.052 E15.96393
G1 X197.794 Y213.443 E0.39862
G1 X237.206 Y174.031 E15.96393
M73 P21 R23
G1 X237.206 Y175.422 E0.39862
G1 X197.794 Y214.835 E15.96393
G1 X197.794 Y216.227 E0.39862
G1 X237.206 Y176.814 E15.96393
G1 X237.206 Y178.206 E0.39862
G1 X197.794 Y217.619 E15.96393
M73 P22 R23
G1 X197.794 Y219.011 E0.39862
G1 X237.206 Y179.598 E15.96393
M73 P22 R22
G1 X237.206 Y180.989 E0.39862
G1 X197.794 Y220.402 E15.96393
G1 X197.794 Y221.794 E0.39862
G1 X237.206 Y182.381 E15.96393
M73 P23 R22
G1 X237.206 Y183.773 E0.39862
G1 X197.794 Y223.186 E15.96393
G1 X197.794 Y224.578 E0.39862
G1 X237.206 Y185.165 E15.96393
G1 X237.206 Y186.557 E0.39862
G1 X197.794 Y225.969 E15.96393
M73 P24 R22
G1 X197.794 Y227.361 E0.39862
G1 X237.206 Y187.948 E15.96393
G1 X237.206 Y189.340 E0.39862
G1 X197.794 Y228.753 E15.96393
G1 X197.794 Y230.145 E0.39862
G1 X237.206 Y190.732 E15.96393
G1 X237.206 Y192.124 E0.39862
G1 X197.794 Y231.537 E15.96393
M73 P25 R22
G1 X197.794 Y232.206 E0.19187
G1 X198.515 Y232.206 E0.20675
G1 X237.206 Y193.515 E15.67155
G1 X237.206 Y194.907 E0.39862
G1 X199.907 Y232.206 E15.10782
M73 P25 R21
G1 X201.299 Y232.206 E0.39862
G1 X237.206 Y196.299 E14.54408
M73 P26 R21
G1 X237.206 Y197.691 E0.39862
G1 X202.691 Y232.206 E13.98035
G1 X204.083 Y232.206 E0.39862
G1 X237.206 Y199.083 E13.41662
G1 X237.206 Y200.474 E0.39862
G1 X205.474 Y232.206 E12.85289
M73 P27 R21
G1 X206.866 Y232.206 E0.39862
G1 X237.206 Y201.866 E12.28916
G1 X237.206 Y203.258 E0.39862
G1 X208.258 Y232.206 E11.72543
G1 X209.650 Y232.206 E0.39862
G1 X237.206 Y204.650 E11.16170
G1 X237.206 Y206.041 E0.39862
G1 X211.041 Y232.206 E10.59796
G1 X212.433 Y232.206 E0.39862
G1 X237.206 Y207.433 E10.03423
M73 P28 R21
G1 X237.206 Y208.825 E0.39862
G1 X213.825 Y232.206 E9.47050
G1 X215.217 Y232.206 E0.39862
G1 X237.206 Y210.217 E8.90677
G1 X237.206 Y211.609 E0.39862
G1 X216.609 Y232.206 E8.34304
G1 X218.000 Y232.206 E0.39862
G1 X237.206 Y213.000 E7.77931
G1 X237.206 Y214.392 E0.39862
G1 X219.392 Y232.206 E7.21558
M73 P29 R21
G1 X220.784 Y232.206 E0.39862
G1 X237.206 Y215.784 E6.65184
M73 P29 R20
G1 X237.206 Y217.176 E0.39862
G1 X222.176 Y232.206 E6.08811
G1 X223.567 Y232.206 E0.39862
G1 X237.206 Y218.567 E5.52438
G1 X237.206 Y219.959 E0.39862
G1 X224.959 Y232.206 E4.96065
G1 X226.351 Y232.206 E0.39862
G1 X237.206 Y221.351 E4.39692
G1 X237.206 Y222.743 E0.39862
G1 X227.743 Y232.206 E3.83319
G1 X229.135 Y232.206 E0.39862
G1 X237.206 Y224.135 E3.26946
G1 X237.206 Y225.526 E0.39862
G1 X230.526 Y232.206 E2.70572
G1 X231.918 Y232.206 E0.39862
G1 X237.206 Y226.918 E2.14199
G1 X237.206 Y228.310 E0.39862
G1 X233.310 Y232.206 E1.57826
G1 X234.702 Y232.206 E0.39862
G1 X237.206 Y229.702 E1.01453
G1 X237.206 Y231.093 E0.39862
G1 X235.655 Y232.645 E0.62847
;LAYER_CHANGE
;Z:1.9
;HEIGHT:0.7
;BEFORE_LAYER_CHANGE
G92 E0.0
;1.9


G1 E-2.24000 F2400.000
;WIPE_START
G1 F12480.000
G1 X237.206 Y231.093 E-0.40088
M73 P30 R20
G1 X237.206 Y229.702 E-0.25427
