; generated by PrusaSlicer 2.3.1+win64 on 2021-06-09 at 08:23:34 UTC


;
;

;
;
; 

; external perimeters extrusion width = 1.12mm
; perimeters extrusion width = 1.12mm
; infill extrusion width = 1.12mm
; solid infill extrusion width = 1.12mm
; top infill extrusion width = 1.00mm
; first layer extrusion width = 0.50mm

M73 P0 R25
M201 X1250 Y1250 Z1250 E5000 ; sets maximum accelerations, mm/sec^2
M203 X180 Y180 Z180 E180 ; sets maximum feedrates, mm/sec
M204 P1250 R1250 T1250 ; sets acceleration (P, T) and retract acceleration (R), mm/sec^2
M205 X8.00 Y8.00 Z2.00 E10.00 ; sets the jerk limits, mm/sec
M205 S0 T0 ; sets the minimum extruding and travel feed rate, mm/sec
M107
;TYPE:Custom
G90 ; use absolute coordinates
M83 ; extruder relative mode
G28 ; home all without mesh bed level
G29 ; mesh bed leveling 
M104 S215 ; set extruder temp
G92 E0.0
G1 Y-2.0 X179 F2400
G1 Z3 F720
M109 S215 ; wait for extruder temp

; intro line
G1 X170 F1000
G1 Z0.2 F720
G1 X110.0 E8.0 F900
G1 X40.0 E10.0 F700
G92 E0.0

M221 S95 ; set flow
G21 ; set units to millimeters
G90 ; use absolute coordinates
M83 ; use relative distances for extrusion
M900 K0.2 ; Filament gcode LA 1.5
; ; Filament gcode LA 1.0
;LAYER_CHANGE
;Z:0.5
;HEIGHT:0.5
;BEFORE_LAYER_CHANGE
G92 E0.0
;0.5


M73 P1 R25
G1 E-3.20000 F4200.000
G1 Z0.200 F7800.000
G1 Z0.500
;AFTER_LAYER_CHANGE
;0.5
G1 Z0.700
G1 X170.668 Y154.589
G1 Z0.500
G1 E3.20000 F2400.000
;TYPE:Skirt
;WIDTH:0.5
G1 F1800.000
G1 X171.615 Y153.721 E0.10486
G1 X172.716 Y153.059 E0.10486
G1 X173.927 Y152.631 E0.10486
G1 X175.200 Y152.454 E0.10486
G1 X227.587 Y152.450 E4.27654
G1 X228.773 Y152.562 E0.09725
G1 X229.918 Y152.892 E0.09725
G1 X230.982 Y153.429 E0.09725
G1 X231.927 Y154.154 E0.09725
G1 X232.721 Y155.042 E0.09725
G1 X233.337 Y156.062 E0.09725
G1 X233.753 Y157.178 E0.09725
G1 X233.956 Y158.358 E0.09776
G1 X233.971 Y211.164 E4.31067
G1 X233.842 Y212.273 E0.09116
G1 X233.522 Y213.343 E0.09116
G1 X233.021 Y214.341 E0.09116
G1 X232.354 Y215.236 E0.09116
G1 X231.367 Y216.134 E0.10892
G1 X230.221 Y216.805 E0.10842
G1 X228.954 Y217.226 E0.10892
G1 X227.635 Y217.375 E0.10842
G1 X175.260 Y217.373 E4.27552
G1 X174.150 Y217.244 E0.09116
G1 X173.081 Y216.924 E0.09116
G1 X172.083 Y216.423 E0.09116
G1 X171.187 Y215.755 E0.09116
G1 X170.289 Y214.768 E0.10892
G1 X169.618 Y213.622 E0.10842
G1 X169.197 Y212.356 E0.10892
G1 X169.048 Y211.037 E0.10842
G1 X169.051 Y158.661 E4.27552
G1 X169.180 Y157.552 E0.09116
G1 X169.500 Y156.482 E0.09116
G1 X170.001 Y155.485 E0.09116
G1 X170.579 Y154.709 E0.07891
G1 E-2.24000 F4200.000
;WIPE_START
G1 F6240.000
G1 X171.611 Y153.725 E-0.91200
;WIPE_END
G1 E-0.04800 F4200.000
G1 Z0.700 F7800.000
G1 X176.676 Y160.078
G1 Z0.500
G1 E3.20000 F2400.000
;TYPE:Perimeter
G1 F1800.000
G1 X226.346 Y160.078 E4.05467
G1 X226.346 Y209.748 E4.05467
G1 X176.676 Y209.748 E4.05467
M73 P2 R25
G1 X176.676 Y160.228 E4.04242
G1 X176.283 Y159.685 F7800.000
G1 F1800.000
G1 X226.738 Y159.685 E4.11878
G1 X226.738 Y210.140 E4.11878
G1 X176.283 Y210.140 E4.11878
G1 X176.283 Y159.835 E4.10654
G1 X175.891 Y159.293 F7800.000
;TYPE:External perimeter
G1 F1800.000
G1 X227.131 Y159.293 E4.18289
G1 X227.131 Y210.533 E4.18289
G1 X175.891 Y210.533 E4.18289
G1 X175.891 Y159.443 E4.17065
M73 P3 R24
G1 X176.857 Y159.551 F7800.000
G1 E-2.24000 F4200.000
;WIPE_START
G1 F6240.000
G1 X177.317 Y159.438 E-0.91200
;WIPE_END
G1 E-0.04800 F4200.000
G1 Z0.700 F7800.000
G1 X225.433 Y160.196
G1 Z0.500
G1 E3.20000 F2400.000
;TYPE:Solid infill
;WIDTH:0.500367
G1 F1800.000
G1 X226.051 Y160.814 E0.07140
G1 X226.051 Y161.369 E0.04542
G1 X225.054 Y160.372 E0.11522
G1 X224.498 Y160.372 E0.04542
G1 X226.051 Y161.925 E0.17945
G1 X226.051 Y162.481 E0.04542
G1 X223.942 Y160.372 E0.24368
G1 X223.387 Y160.372 E0.04542
G1 X226.051 Y163.037 E0.30792
G1 X226.051 Y163.593 E0.04542
G1 X222.831 Y160.372 E0.37215
G1 X222.275 Y160.372 E0.04542
G1 X226.051 Y164.149 E0.43639
G1 X226.051 Y164.705 E0.04542
G1 X221.719 Y160.372 E0.50062
G1 X221.163 Y160.372 E0.04542
G1 X226.051 Y165.261 E0.56485
G1 X226.051 Y165.817 E0.04542
G1 X220.607 Y160.372 E0.62909
G1 X220.051 Y160.372 E0.04542
G1 X226.051 Y166.372 E0.69332
G1 X226.051 Y166.928 E0.04542
G1 X219.495 Y160.372 E0.75756
G1 X218.940 Y160.372 E0.04542
G1 X226.051 Y167.484 E0.82179
G1 X226.051 Y168.040 E0.04542
G1 X218.384 Y160.372 E0.88602
G1 X217.828 Y160.372 E0.04542
G1 X226.051 Y168.596 E0.95026
G1 X226.051 Y169.152 E0.04542
G1 X217.272 Y160.372 E1.01449
G1 X216.716 Y160.372 E0.04542
G1 X226.051 Y169.708 E1.07873
G1 X226.051 Y170.264 E0.04542
G1 X216.160 Y160.372 E1.14296
G1 X215.604 Y160.372 E0.04542
G1 X226.051 Y170.819 E1.20719
G1 X226.051 Y171.375 E0.04542
G1 X215.048 Y160.372 E1.27143
G1 X214.492 Y160.372 E0.04542
G1 X226.051 Y171.931 E1.33566
G1 X226.051 Y172.487 E0.04542
G1 X213.937 Y160.372 E1.39990
G1 X213.381 Y160.372 E0.04542
G1 X226.051 Y173.043 E1.46413
G1 X226.051 Y173.599 E0.04542
G1 X212.825 Y160.372 E1.52836
G1 X212.269 Y160.372 E0.04542
G1 X226.051 Y174.155 E1.59260
G1 X226.051 Y174.711 E0.04542
G1 X211.713 Y160.372 E1.65683
G1 X211.157 Y160.372 E0.04542
G1 X226.051 Y175.266 E1.72107
G1 X226.051 Y175.822 E0.04542
G1 X210.601 Y160.372 E1.78530
G1 X210.045 Y160.372 E0.04542
G1 X226.051 Y176.378 E1.84953
G1 X226.051 Y176.934 E0.04542
G1 X209.490 Y160.372 E1.91377
G1 X208.934 Y160.372 E0.04542
G1 X226.051 Y177.490 E1.97800
M73 P4 R24
G1 X226.051 Y178.046 E0.04542
G1 X208.378 Y160.372 E2.04224
G1 X207.822 Y160.372 E0.04542
G1 X226.051 Y178.602 E2.10647
G1 X226.051 Y179.158 E0.04542
G1 X207.266 Y160.372 E2.17070
G1 X206.710 Y160.372 E0.04542
G1 X226.051 Y179.714 E2.23494
G1 X226.051 Y180.269 E0.04542
G1 X206.154 Y160.372 E2.29917
G1 X205.598 Y160.372 E0.04542
G1 X226.051 Y180.825 E2.36341
G1 X226.051 Y181.381 E0.04542
G1 X205.043 Y160.372 E2.42764
G1 X204.487 Y160.372 E0.04542
G1 X226.051 Y181.937 E2.49187
G1 X226.051 Y182.493 E0.04542
G1 X203.931 Y160.372 E2.55611
G1 X203.375 Y160.372 E0.04542
G1 X226.051 Y183.049 E2.62034
G1 X226.051 Y183.605 E0.04542
G1 X202.819 Y160.372 E2.68458
G1 X202.263 Y160.372 E0.04542
G1 X226.051 Y184.161 E2.74881
G1 X226.051 Y184.716 E0.04542
G1 X201.707 Y160.372 E2.81304
G1 X201.151 Y160.372 E0.04542
G1 X226.051 Y185.272 E2.87728
M73 P5 R24
G1 X226.051 Y185.828 E0.04542
G1 X200.595 Y160.372 E2.94151
G1 X200.040 Y160.372 E0.04542
G1 X226.051 Y186.384 E3.00575
G1 X226.051 Y186.940 E0.04542
G1 X199.484 Y160.372 E3.06998
G1 X198.928 Y160.372 E0.04542
G1 X226.051 Y187.496 E3.13421
G1 X226.051 Y188.052 E0.04542
G1 X198.372 Y160.372 E3.19845
G1 X197.816 Y160.372 E0.04542
G1 X226.051 Y188.608 E3.26268
G1 X226.051 Y189.163 E0.04542
G1 X197.260 Y160.372 E3.32692
G1 X196.704 Y160.372 E0.04542
G1 X226.051 Y189.719 E3.39115
G1 X226.051 Y190.275 E0.04542
G1 X196.148 Y160.372 E3.45538
G1 X195.593 Y160.372 E0.04542
G1 X226.051 Y190.831 E3.51962
G1 X226.051 Y191.387 E0.04542
G1 X195.037 Y160.372 E3.58385
M73 P6 R24
G1 X194.481 Y160.372 E0.04542
G1 X226.051 Y191.943 E3.64809
G1 X226.051 Y192.499 E0.04542
G1 X193.925 Y160.372 E3.71232
G1 X193.369 Y160.372 E0.04542
G1 X226.051 Y193.055 E3.77655
G1 X226.051 Y193.610 E0.04542
G1 X192.813 Y160.372 E3.84079
G1 X192.257 Y160.372 E0.04542
G1 X226.051 Y194.166 E3.90502
G1 X226.051 Y194.722 E0.04542
G1 X191.701 Y160.372 E3.96926
G1 X191.146 Y160.372 E0.04542
G1 X226.051 Y195.278 E4.03349
G1 X226.051 Y195.834 E0.04542
G1 X190.590 Y160.372 E4.09772
G1 X190.034 Y160.372 E0.04542
G1 X226.051 Y196.390 E4.16196
G1 X226.051 Y196.946 E0.04542
G1 X189.478 Y160.372 E4.22619
M73 P7 R23
G1 X188.922 Y160.372 E0.04542
G1 X226.051 Y197.502 E4.29043
G1 X226.051 Y198.058 E0.04542
G1 X188.366 Y160.372 E4.35466
G1 X187.810 Y160.372 E0.04542
G1 X226.051 Y198.613 E4.41889
G1 X226.051 Y199.169 E0.04542
G1 X187.254 Y160.372 E4.48313
G1 X186.699 Y160.372 E0.04542
G1 X226.051 Y199.725 E4.54736
G1 X226.051 Y200.281 E0.04542
G1 X186.143 Y160.372 E4.61160
G1 X185.587 Y160.372 E0.04542
G1 X226.051 Y200.837 E4.67583
G1 X226.051 Y201.393 E0.04542
G1 X185.031 Y160.372 E4.74006
M73 P8 R23
G1 X184.475 Y160.372 E0.04542
G1 X226.051 Y201.949 E4.80430
G1 X226.051 Y202.505 E0.04542
G1 X183.919 Y160.372 E4.86853
G1 X183.363 Y160.372 E0.04542
G1 X226.051 Y203.060 E4.93277
G1 X226.051 Y203.616 E0.04542
G1 X182.807 Y160.372 E4.99700
G1 X182.251 Y160.372 E0.04542
G1 X226.051 Y204.172 E5.06123
G1 X226.051 Y204.728 E0.04542
G1 X181.696 Y160.372 E5.12547
G1 X181.140 Y160.372 E0.04542
G1 X226.051 Y205.284 E5.18970
M73 P9 R23
G1 X226.051 Y205.840 E0.04542
G1 X180.584 Y160.372 E5.25394
G1 X180.028 Y160.372 E0.04542
G1 X226.051 Y206.396 E5.31817
G1 X226.051 Y206.952 E0.04542
G1 X179.472 Y160.372 E5.38240
G1 X178.916 Y160.372 E0.04542
G1 X226.051 Y207.507 E5.44664
G1 X226.051 Y208.063 E0.04542
G1 X178.360 Y160.372 E5.51087
G1 X177.804 Y160.372 E0.04542
G1 X226.051 Y208.619 E5.57511
G1 X226.051 Y209.175 E0.04542
G1 X177.249 Y160.372 E5.63934
M73 P10 R23
G1 X176.971 Y160.372 E0.02271
G1 X176.971 Y160.650 E0.02271
G1 X225.773 Y209.453 E5.63934
G1 X225.217 Y209.453 E0.04542
G1 X176.971 Y161.206 E5.57511
G1 X176.971 Y161.762 E0.04542
G1 X224.662 Y209.453 E5.51087
G1 X224.106 Y209.453 E0.04542
G1 X176.971 Y162.318 E5.44664
G1 X176.971 Y162.874 E0.04542
G1 X223.550 Y209.453 E5.38240
G1 X222.994 Y209.453 E0.04542
G1 X176.971 Y163.430 E5.31817
M73 P10 R22
G1 X176.971 Y163.986 E0.04542
G1 X222.438 Y209.453 E5.25394
M73 P11 R22
G1 X221.882 Y209.453 E0.04542
G1 X176.971 Y164.542 E5.18970
G1 X176.971 Y165.097 E0.04542
G1 X221.326 Y209.453 E5.12547
G1 X220.770 Y209.453 E0.04542
G1 X176.971 Y165.653 E5.06123
G1 X176.971 Y166.209 E0.04542
G1 X220.215 Y209.453 E4.99700
G1 X219.659 Y209.453 E0.04542
G1 X176.971 Y166.765 E4.93277
G1 X176.971 Y167.321 E0.04542
G1 X219.103 Y209.453 E4.86853
G1 X218.547 Y209.453 E0.04542
G1 X176.971 Y167.877 E4.80430
M73 P12 R22
G1 X176.971 Y168.433 E0.04542
G1 X217.991 Y209.453 E4.74006
G1 X217.435 Y209.453 E0.04542
G1 X176.971 Y168.989 E4.67583
G1 X176.971 Y169.544 E0.04542
G1 X216.879 Y209.453 E4.61160
G1 X216.323 Y209.453 E0.04542
G1 X176.971 Y170.100 E4.54736
G1 X176.971 Y170.656 E0.04542
G1 X215.767 Y209.453 E4.48313
G1 X215.212 Y209.453 E0.04542
G1 X176.971 Y171.212 E4.41889
G1 X176.971 Y171.768 E0.04542
G1 X214.656 Y209.453 E4.35466
G1 X214.100 Y209.453 E0.04542
G1 X176.971 Y172.324 E4.29043
M73 P13 R22
G1 X176.971 Y172.880 E0.04542
G1 X213.544 Y209.453 E4.22619
G1 X212.988 Y209.453 E0.04542
G1 X176.971 Y173.436 E4.16196
G1 X176.971 Y173.991 E0.04542
G1 X212.432 Y209.453 E4.09772
G1 X211.876 Y209.453 E0.04542
G1 X176.971 Y174.547 E4.03349
G1 X176.971 Y175.103 E0.04542
G1 X211.320 Y209.453 E3.96926
G1 X210.765 Y209.453 E0.04542
G1 X176.971 Y175.659 E3.90502
G1 X176.971 Y176.215 E0.04542
G1 X210.209 Y209.453 E3.84079
G1 X209.653 Y209.453 E0.04542
G1 X176.971 Y176.771 E3.77655
G1 X176.971 Y177.327 E0.04542
G1 X209.097 Y209.453 E3.71232
M73 P14 R22
G1 X208.541 Y209.453 E0.04542
G1 X176.971 Y177.883 E3.64809
G1 X176.971 Y178.438 E0.04542
G1 X207.985 Y209.453 E3.58385
G1 X207.429 Y209.453 E0.04542
G1 X176.971 Y178.994 E3.51962
G1 X176.971 Y179.550 E0.04542
G1 X206.873 Y209.453 E3.45538
G1 X206.318 Y209.453 E0.04542
G1 X176.971 Y180.106 E3.39115
G1 X176.971 Y180.662 E0.04542
G1 X205.762 Y209.453 E3.32692
G1 X205.206 Y209.453 E0.04542
G1 X176.971 Y181.218 E3.26268
G1 X176.971 Y181.774 E0.04542
G1 X204.650 Y209.453 E3.19845
G1 X204.094 Y209.453 E0.04542
G1 X176.971 Y182.330 E3.13421
M73 P14 R21
G1 X176.971 Y182.886 E0.04542
G1 X203.538 Y209.453 E3.06998
M73 P15 R21
G1 X202.982 Y209.453 E0.04542
G1 X176.971 Y183.441 E3.00575
G1 X176.971 Y183.997 E0.04542
G1 X202.426 Y209.453 E2.94151
G1 X201.871 Y209.453 E0.04542
G1 X176.971 Y184.553 E2.87728
G1 X176.971 Y185.109 E0.04542
G1 X201.315 Y209.453 E2.81304
G1 X200.759 Y209.453 E0.04542
G1 X176.971 Y185.665 E2.74881
G1 X176.971 Y186.221 E0.04542
G1 X200.203 Y209.453 E2.68458
G1 X199.647 Y209.453 E0.04542
G1 X176.971 Y186.777 E2.62034
G1 X176.971 Y187.333 E0.04542
G1 X199.091 Y209.453 E2.55611
G1 X198.535 Y209.453 E0.04542
G1 X176.971 Y187.888 E2.49187
G1 X176.971 Y188.444 E0.04542
G1 X197.979 Y209.453 E2.42764
G1 X197.423 Y209.453 E0.04542
G1 X176.971 Y189.000 E2.36341
G1 X176.971 Y189.556 E0.04542
G1 X196.868 Y209.453 E2.29917
G1 X196.312 Y209.453 E0.04542
G1 X176.971 Y190.112 E2.23494
G1 X176.971 Y190.668 E0.04542
G1 X195.756 Y209.453 E2.17070
M73 P16 R21
G1 X195.200 Y209.453 E0.04542
G1 X176.971 Y191.224 E2.10647
G1 X176.971 Y191.780 E0.04542
G1 X194.644 Y209.453 E2.04224
G1 X194.088 Y209.453 E0.04542
G1 X176.971 Y192.335 E1.97800
G1 X176.971 Y192.891 E0.04542
G1 X193.532 Y209.453 E1.91377
G1 X192.976 Y209.453 E0.04542
G1 X176.971 Y193.447 E1.84953
G1 X176.971 Y194.003 E0.04542
G1 X192.421 Y209.453 E1.78530
G1 X191.865 Y209.453 E0.04542
G1 X176.971 Y194.559 E1.72107
G1 X176.971 Y195.115 E0.04542
G1 X191.309 Y209.453 E1.65683
G1 X190.753 Y209.453 E0.04542
G1 X176.971 Y195.671 E1.59260
G1 X176.971 Y196.227 E0.04542
G1 X190.197 Y209.453 E1.52836
G1 X189.641 Y209.453 E0.04542
G1 X176.971 Y196.783 E1.46413
G1 X176.971 Y197.338 E0.04542
G1 X189.085 Y209.453 E1.39990
G1 X188.529 Y209.453 E0.04542
G1 X176.971 Y197.894 E1.33566
G1 X176.971 Y198.450 E0.04542
G1 X187.974 Y209.453 E1.27143
G1 X187.418 Y209.453 E0.04542
G1 X176.971 Y199.006 E1.20719
G1 X176.971 Y199.562 E0.04542
G1 X186.862 Y209.453 E1.14296
G1 X186.306 Y209.453 E0.04542
G1 X176.971 Y200.118 E1.07873
G1 X176.971 Y200.674 E0.04542
G1 X185.750 Y209.453 E1.01449
G1 X185.194 Y209.453 E0.04542
G1 X176.971 Y201.230 E0.95026
G1 X176.971 Y201.785 E0.04542
G1 X184.638 Y209.453 E0.88602
G1 X184.082 Y209.453 E0.04542
G1 X176.971 Y202.341 E0.82179
G1 X176.971 Y202.897 E0.04542
G1 X183.526 Y209.453 E0.75756
G1 X182.971 Y209.453 E0.04542
G1 X176.971 Y203.453 E0.69332
G1 X176.971 Y204.009 E0.04542
G1 X182.415 Y209.453 E0.62909
G1 X181.859 Y209.453 E0.04542
G1 X176.971 Y204.565 E0.56485
G1 X176.971 Y205.121 E0.04542
G1 X181.303 Y209.453 E0.50062
M73 P17 R21
G1 X180.747 Y209.453 E0.04542
G1 X176.971 Y205.677 E0.43639
G1 X176.971 Y206.232 E0.04542
G1 X180.191 Y209.453 E0.37215
G1 X179.635 Y209.453 E0.04542
G1 X176.971 Y206.788 E0.30792
G1 X176.971 Y207.344 E0.04542
G1 X179.079 Y209.453 E0.24368
G1 X178.524 Y209.453 E0.04542
G1 X176.971 Y207.900 E0.17945
G1 X176.971 Y208.456 E0.04542
G1 X177.968 Y209.453 E0.11522
G1 X177.412 Y209.453 E0.04542
G1 X176.794 Y208.835 E0.07140
M106 S84.15
;LAYER_CHANGE
;Z:1
;HEIGHT:0.5
;BEFORE_LAYER_CHANGE
G92 E0.0
;1


G1 E-2.24000 F4200.000
;WIPE_START
G1 F6240.000
G1 X177.412 Y209.453 E-0.55877
G1 X177.964 Y209.453 E-0.35323
;WIPE_END
G1 E-0.04800 F4200.000
G1 Z0.700 F7800.000
G1 Z1.000
;AFTER_LAYER_CHANGE
;1
G1 X178.039 Y161.440
G1 E3.20000 F2400.000
;TYPE:Perimeter
;WIDTH:1.125
G1 F1768.696
G1 X224.983 Y161.440 E9.93138
G1 X224.983 Y208.385 E9.93138
G1 X178.039 Y208.385 E9.93138
G1 X178.039 Y161.590 E9.89965
G1 X177.021 Y160.423 F7800.000
G1 F1768.696
G1 X226.001 Y160.423 E10.36198
G1 X226.001 Y209.403 E10.36198
G1 X177.021 Y209.403 E10.36198
G1 X177.021 Y160.573 E10.33025
G1 X176.003 Y159.405 F7800.000
;TYPE:External perimeter
G1 F1768.696
G1 X227.019 Y159.405 E10.79258
M73 P18 R21
G1 X227.019 Y210.420 E10.79258
G1 X176.003 Y210.420 E10.79258
G1 X176.003 Y159.555 E10.76084
G1 X176.969 Y159.664 F7800.000
G1 X222.603 Y208.080
;TYPE:Solid infill
;WIDTH:1.1334
G1 F1200.000
G1 X224.220 Y206.463 E0.48778
G1 X224.220 Y205.012 E0.30952
G1 X221.610 Y207.622 E0.78736
G1 X220.159 Y207.622 E0.30952
G1 X224.220 Y203.561 E1.22510
G1 X224.220 Y202.109 E0.30952
G1 X218.708 Y207.622 E1.66283
G1 X217.256 Y207.622 E0.30952
G1 X224.220 Y200.658 E2.10057
G1 X224.220 Y199.207 E0.30952
G1 X215.805 Y207.622 E2.53830
G1 X214.354 Y207.622 E0.30952
G1 X224.220 Y197.756 E2.97603
G1 X224.220 Y196.305 E0.30952
G1 X212.903 Y207.622 E3.41377
G1 X211.452 Y207.622 E0.30952
G1 X224.220 Y194.854 E3.85150
G1 X224.220 Y193.403 E0.30952
G1 X210.001 Y207.622 E4.28923
M73 P18 R20
G1 X208.550 Y207.622 E0.30952
G1 X224.220 Y191.952 E4.72697
G1 X224.220 Y190.500 E0.30952
G1 X207.099 Y207.622 E5.16470
M73 P19 R20
G1 X205.648 Y207.622 E0.30952
G1 X224.220 Y189.049 E5.60244
