; Postprocessed by [ArcWelder](https://github.com/FormerLurker/ArcWelderLib)
; Copyright(C) 2020 - Brad Hochgesang
; arc_welder_resolution_mm = 0.05
; arc_welder_g90_influences_extruder = False

; generated by PrusaSlicer 2.3.1+win64 on 2021-06-17 at 09:41:28 UTC







; 

; external perimeters extrusion width = 1.12mm
; perimeters extrusion width = 1.12mm
; infill extrusion width = 1.12mm
; solid infill extrusion width = 1.12mm
; top infill extrusion width = 1.00mm
; first layer extrusion width = 1.00mm

M73 P0 R4
M201 X1250 Y1250 Z1250 E5000 ; sets maximum accelerations, mm/sec^2
M203 X200 Y200 Z200 E200 ; sets maximum feedrates, mm/sec
M204 P1250 R1250 T1250 ; sets acceleration (P, T) and retract acceleration (R), mm/sec^2
M205 X8.00 Y8.00 Z2.00 E10.00 ; sets the jerk limits, mm/sec
M205 S0 T0 ; sets the minimum extruding and travel feed rate, mm/sec
M107
M190 S60 ; set bed temperature and wait for it to be reached
;TYPE:Custom
G90 ; use absolute coordinates
M83 ; extruder relative mode
G28 ; home all without mesh bed level
G29 ; mesh bed leveling 
M104 S230 ; set extruder temp
G92 E0.0
G1 Y-2.0 X179 F2400
M73 P2 R3
G1 Z3 F720
M109 S230 ; wait for extruder temp

; intro line
G1 X170 F1000
G1 Z0.2 F720
G1 X110.0 E8.0 F900
M73 P4 R3
G1 X40.0 E10.0 F700
G92 E0.0

M221 S95 ; set flow
G21 ; set units to millimeters
G90 ; use absolute coordinates
M83 ; use relative distances for extrusion
M900 K0.2 ; Filament gcode LA 1.5
; ; Filament gcode LA 1.0
;LAYER_CHANGE
;Z:0.5
;HEIGHT:0.5
;BEFORE_LAYER_CHANGE
G92 E0.0
;0.5


M73 P7 R3
G1 E-3.20000 F4200.000
G1 Z0.200 F15600.000
G1 Z0.500
;AFTER_LAYER_CHANGE
;0.5
G1 Z0.700
G1 X200.693 Y182.383
G1 Z0.500
G1 E3.20000 F2400.000
;TYPE:Skirt
;WIDTH:1
M73 P8 R3
G1 F2016.357
G1 X201.858 Y181.587 E0.26193
G1 X203.161 Y181.044 E0.26193
G1 X204.541 Y180.779 E0.26073
G1 X229.861 Y180.752 E4.69875
G1 X231.074 Y180.861 E0.22599
G1 X232.255 Y181.184 E0.22719
G1 X233.361 Y181.710 E0.22719
G1 X234.350 Y182.420 E0.22599
G1 X235.204 Y183.298 E0.22719
G1 X235.889 Y184.313 E0.22719
G1 X236.383 Y185.433 E0.22719
G1 X236.670 Y186.616 E0.22599
G1 X236.748 Y187.624 E0.18760
G1 X236.740 Y212.673 E4.64832
G3 X235.286 Y216.599 I-6.897 J-0.321 E0.78879
M73 P9 R3
G1 X234.237 Y217.675 E0.27869
G1 X232.981 Y218.498 E0.27869
G1 X231.577 Y219.029 E0.27869
G1 X230.090 Y219.244 E0.27869
G1 X204.801 Y219.239 E4.69284
G3 X200.9 Y217.786 I0.345 J-6.89 E0.78399
G1 X199.825 Y216.737 E0.27869
G1 X199.002 Y215.481 E0.27869
G1 X198.471 Y214.077 E0.27869
G1 X198.256 Y212.590 E0.27869
G1 X198.261 Y187.301 E4.69284
G3 X199.713 Y183.4 I6.89 J0.345 E0.78399
M73 P10 R3
G1 X200.589 Y182.491 E0.23410
G1 E-2.24000 F4200.000
;WIPE_START
G1 F12480.000
G1 X201.858 Y181.587 E-0.49832
G1 X203.053 Y181.089 E-0.41368
;WIPE_END
G1 E-0.04800 F4200.000
G1 Z0.700 F15600.000
G1 X205.845 Y188.345
G1 Z0.500
G1 E3.20000 F2400.000
;TYPE:External perimeter
G1 F2016.357
G1 X229.155 Y188.345 E4.32564
G1 X229.155 Y211.655 E4.32564
G1 X205.845 Y211.655 E4.32564
M73 P11 R3
G1 X205.845 Y188.495 E4.29780
G1 E-2.24000 F4200.000
;WIPE_START
G1 F12480.000
G1 X208.698 Y188.477 E-0.91200
;WIPE_END
G1 E-0.04800 F4200.000
G1 Z0.700 F15600.000
G1 X227.071 Y188.613
G1 Z0.500
G1 E3.20000 F2400.000
;TYPE:Solid infill
;WIDTH:1.00547
G1 F2004.084
G1 X228.485 Y190.027 E0.37346
G1 X228.485 Y191.297 E0.23716
G1 X226.203 Y189.015 E0.60278
G1 X224.932 Y189.015 E0.23715
G1 X228.485 Y192.568 E0.93816
M73 P12 R3
G1 X228.485 Y193.838 E0.23716
G1 X223.662 Y189.015 E1.27355
G1 X222.392 Y189.015 E0.23715
G1 X228.485 Y195.108 E1.60894
G1 X228.485 Y196.378 E0.23716
G1 X221.122 Y189.015 E1.94433
G1 X219.852 Y189.015 E0.23716
G1 X228.485 Y197.648 E2.27972
G1 X228.485 Y198.919 E0.23716
G1 X218.581 Y189.015 E2.61510
G1 X217.311 Y189.015 E0.23716
G1 X228.485 Y200.189 E2.95049
M73 P13 R3
G1 X228.485 Y201.459 E0.23716
G1 X216.041 Y189.015 E3.28588
G1 X214.771 Y189.015 E0.23716
G1 X228.485 Y202.729 E3.62127
G1 X228.485 Y203.999 E0.23715
G1 X213.501 Y189.015 E3.95665
M73 P14 R3
G1 X212.230 Y189.015 E0.23716
G1 X228.485 Y205.270 E4.29204
G1 X228.485 Y206.540 E0.23715
G1 X210.960 Y189.015 E4.62743
G1 X209.690 Y189.015 E0.23716
G1 X228.485 Y207.810 E4.96282
M73 P15 R3
G1 X228.485 Y209.080 E0.23715
G1 X208.420 Y189.015 E5.29821
G1 X207.150 Y189.015 E0.23716
G1 X228.485 Y210.350 E5.63359
M73 P16 R3
G1 X228.485 Y210.985 E0.11857
G1 X227.850 Y210.985 E0.11859
G1 X206.515 Y189.650 E5.63357
G1 X206.515 Y190.920 E0.23716
G1 X226.580 Y210.985 E5.29818
M73 P17 R3
G1 X225.310 Y210.985 E0.23716
G1 X206.515 Y192.190 E4.96279
G1 X206.515 Y193.460 E0.23716
G1 X224.040 Y210.985 E4.62740
G1 X222.770 Y210.985 E0.23716
G1 X206.515 Y194.730 E4.29202
M73 P18 R3
G1 X206.515 Y196.001 E0.23716
G1 X221.499 Y210.985 E3.95663
G1 X220.229 Y210.985 E0.23716
G1 X206.515 Y197.271 E3.62124
G1 X206.515 Y198.541 E0.23716
G1 X218.959 Y210.985 E3.28585
M73 P19 R3
G1 X217.689 Y210.985 E0.23716
G1 X206.515 Y199.811 E2.95047
G1 X206.515 Y201.081 E0.23716
G1 X216.419 Y210.985 E2.61508
G1 X215.148 Y210.985 E0.23716
G1 X206.515 Y202.352 E2.27969
G1 X206.515 Y203.622 E0.23715
G1 X213.878 Y210.985 E1.94430
G1 X212.608 Y210.985 E0.23716
M73 P20 R3
G1 X206.515 Y204.892 E1.60891
G1 X206.515 Y206.162 E0.23715
G1 X211.338 Y210.985 E1.27353
G1 X210.068 Y210.985 E0.23715
G1 X206.515 Y207.432 E0.93814
G1 X206.515 Y208.703 E0.23715
G1 X208.797 Y210.985 E0.60275
G1 X207.527 Y210.985 E0.23715
G1 X206.113 Y209.571 E0.37343
M106 S84.15
;LAYER_CHANGE
;Z:1.2
;HEIGHT:0.7
;BEFORE_LAYER_CHANGE
G92 E0.0
;1.2


G1 E-2.24000 F4200.000
;WIPE_START
G1 F12480.000
G1 X207.527 Y210.985 E-0.63946
G1 X208.380 Y210.985 E-0.27254
;WIPE_END
G1 E-0.04800 F4200.000
G1 Z0.700 F15600.000
G1 Z1.200
;AFTER_LAYER_CHANGE
;1.2
G1 X205.708 Y188.345
G1 E3.20000 F2400.000
;TYPE:External perimeter
;WIDTH:1.125
G1 F1318.981
G1 X205.708 Y188.208 E0.03901
G1 X229.292 Y188.208 E6.69072
M73 P21 R3
G1 X229.292 Y211.792 E6.69072
G1 X205.708 Y211.792 E6.69072
M73 P22 R3
G1 X205.708 Y188.495 E6.60916
G1 X226.998 Y211.500 F15600.000
;TYPE:Solid infill
;WIDTH:1.14007
G1 F1298.906
G1 X228.561 Y209.936 E0.63705
M73 P23 R3
G1 X228.561 Y208.536 E0.40326
G1 X226.036 Y211.061 E1.02864
G1 X224.637 Y211.061 E0.40326
G1 X228.561 Y207.137 E1.59893
G1 X228.561 Y205.737 E0.40326
G1 X223.237 Y211.061 E2.16921
G1 X221.837 Y211.061 E0.40326
G1 X228.561 Y204.337 E2.73950
G1 X228.561 Y202.937 E0.40326
G1 X220.437 Y211.061 E3.30979
M73 P24 R3
G1 X219.037 Y211.061 E0.40326
G1 X228.561 Y201.537 E3.88008
G1 X228.561 Y200.137 E0.40326
G1 X217.637 Y211.061 E4.45037
G1 X216.238 Y211.061 E0.40326
G1 X228.561 Y198.738 E5.02066
M73 P25 R3
G1 X228.561 Y197.338 E0.40326
G1 X214.838 Y211.061 E5.59095
G1 X213.438 Y211.061 E0.40326
G1 X228.561 Y195.938 E6.16124
M73 P26 R3
G1 X228.561 Y194.538 E0.40326
G1 X212.038 Y211.061 E6.73153
G1 X210.638 Y211.061 E0.40326
G1 X228.561 Y193.138 E7.30182
M73 P27 R3
G1 X228.561 Y191.738 E0.40326
G1 X209.238 Y211.061 E7.87211
G1 X207.838 Y211.061 E0.40326
G1 X228.561 Y190.338 E8.44240
M73 P28 R3
G1 X228.561 Y188.939 E0.40324
G1 X206.439 Y211.061 E9.01266
M73 P29 R2
G1 X206.439 Y209.661 E0.40326
G1 X227.161 Y188.939 E8.44236
G1 X225.762 Y188.939 E0.40326
G1 X206.439 Y208.262 E7.87207
M73 P30 R2
G1 X206.439 Y206.862 E0.40326
G1 X224.362 Y188.939 E7.30178
M73 P31 R2
G1 X222.962 Y188.939 E0.40326
G1 X206.439 Y205.462 E6.73149
G1 X206.439 Y204.062 E0.40326
G1 X221.562 Y188.939 E6.16120
M73 P32 R2
G1 X220.162 Y188.939 E0.40326
G1 X206.439 Y202.662 E5.59091
G1 X206.439 Y201.262 E0.40326
G1 X218.762 Y188.939 E5.02062
M73 P33 R2
G1 X217.363 Y188.939 E0.40326
G1 X206.439 Y199.863 E4.45033
G1 X206.439 Y198.463 E0.40326
G1 X215.963 Y188.939 E3.88004
G1 X214.563 Y188.939 E0.40326
G1 X206.439 Y197.063 E3.30975
M73 P34 R2
G1 X206.439 Y195.663 E0.40326
G1 X213.163 Y188.939 E2.73946
G1 X211.763 Y188.939 E0.40326
G1 X206.439 Y194.263 E2.16917
G1 X206.439 Y192.863 E0.40326
G1 X210.363 Y188.939 E1.59888
G1 X208.963 Y188.939 E0.40326
G1 X206.439 Y191.463 E1.02859
G1 X206.439 Y190.064 E0.40326
G1 X208.002 Y188.500 E0.63701
M106 S170.85
;LAYER_CHANGE
;Z:1.9
;HEIGHT:0.7
;BEFORE_LAYER_CHANGE
G92 E0.0
;1.9


G1 E-2.24000 F4200.000
;WIPE_START
G1 F12480.000
G1 X206.439 Y190.064 E-0.70697
G1 X206.439 Y190.705 E-0.20503
;WIPE_END
G1 E-0.04800 F4200.000
G1 Z1.400 F15600.000
M73 P35 R2
G1 Z1.900
;AFTER_LAYER_CHANGE
;1.9
G1 X205.708 Y188.345
G1 E3.20000 F2400.000
;TYPE:External perimeter
;WIDTH:1.125
G1 F1318.981
G1 X205.708 Y188.208 E0.03901
G1 X229.292 Y188.208 E6.69072
G1 X229.292 Y211.792 E6.69072
M73 P36 R2
G1 X205.708 Y211.792 E6.69072
G1 X205.708 Y188.495 E6.60916
M73 P37 R2
G1 X210.199 Y188.500 F15600.000
;TYPE:Solid infill
;WIDTH:1.14007
G1 F1298.906
G1 X218.939 Y197.239 E3.56028
G1 X217.539 Y197.239 E0.40326
G1 X209.238 Y188.939 E3.38157
G1 X207.838 Y188.939 E0.40326
G1 X216.139 Y197.239 E3.38157
M73 P38 R2
G1 X214.739 Y197.239 E0.40324
G1 X206.439 Y188.939 E3.38157
G1 X206.439 Y190.339 E0.40326
G1 X214.739 Y198.639 E3.38157
G1 X214.739 Y200.039 E0.40326
G1 X206.439 Y191.738 E3.38157
G1 X206.439 Y193.138 E0.40326
G1 X214.739 Y201.439 E3.38157
M73 P39 R2
G1 X214.739 Y202.761 E0.38087
G1 X216.061 Y202.761 E0.38087
G1 X224.362 Y211.061 E3.38157
G1 X225.762 Y211.061 E0.40326
G1 X217.461 Y202.761 E3.38157
G1 X218.861 Y202.761 E0.40326
G1 X227.161 Y211.061 E3.38157
M73 P40 R2
G1 X228.561 Y211.061 E0.40326
G1 X220.261 Y202.761 E3.38157
G1 X220.261 Y201.361 E0.40324
G1 X228.561 Y209.662 E3.38157
G1 X228.561 Y208.262 E0.40326
G1 X220.261 Y199.961 E3.38157
M73 P41 R2
G1 X220.261 Y198.561 E0.40326
G1 X228.561 Y206.862 E3.38157
G1 X228.561 Y205.462 E0.40326
G1 X212.038 Y188.939 E6.73153
G1 X213.438 Y188.939 E0.40326
G1 X228.561 Y204.062 E6.16124
M73 P42 R2
G1 X228.561 Y202.662 E0.40326
G1 X214.838 Y188.939 E5.59095
G1 X216.238 Y188.939 E0.40326
G1 X228.561 Y201.262 E5.02066
M73 P43 R2
G1 X228.561 Y199.863 E0.40326
G1 X217.637 Y188.939 E4.45037
G1 X219.037 Y188.939 E0.40326
G1 X228.561 Y198.463 E3.88008
G1 X228.561 Y197.063 E0.40326
G1 X220.437 Y188.939 E3.30979
M73 P44 R2
G1 X221.837 Y188.939 E0.40326
G1 X228.561 Y195.663 E2.73950
G1 X228.561 Y194.263 E0.40326
G1 X223.237 Y188.939 E2.16922
G1 X224.637 Y188.939 E0.40326
G1 X228.561 Y192.863 E1.59893
G1 X228.561 Y191.464 E0.40326
G1 X226.036 Y188.939 E1.02864
G1 X227.436 Y188.939 E0.40326
G1 X229.000 Y190.502 E0.63705
M73 P45 R2
G1 X215.275 Y197.775 F15600.000
;TYPE:Internal infill
;WIDTH:1.125
G1 F1318.981
G1 X219.725 Y202.225 E1.78510
G1 X223.401 Y211.500 F15600.000
;TYPE:Solid infill
;WIDTH:1.14007
G1 F1298.906
G1 X206.439 Y194.538 E6.91019
G1 X206.439 Y195.938 E0.40326
G1 X221.562 Y211.061 E6.16120
M73 P46 R2
G1 X220.162 Y211.061 E0.40326
G1 X206.439 Y197.338 E5.59091
G1 X206.439 Y198.738 E0.40326
G1 X218.762 Y211.061 E5.02062
M73 P47 R2
G1 X217.363 Y211.061 E0.40326
G1 X206.439 Y200.137 E4.45033
G1 X206.439 Y201.537 E0.40326
G1 X215.963 Y211.061 E3.88004
G1 X214.563 Y211.061 E0.40326
G1 X206.439 Y202.937 E3.30975
M73 P48 R2
G1 X206.439 Y204.337 E0.40326
G1 X213.163 Y211.061 E2.73946
G1 X211.763 Y211.061 E0.40326
G1 X206.439 Y205.737 E2.16917
G1 X206.439 Y207.137 E0.40326
G1 X210.363 Y211.061 E1.59888
G1 X208.963 Y211.061 E0.40326
G1 X206.439 Y208.537 E1.02859
G1 X206.439 Y209.936 E0.40326
G1 X208.002 Y211.500 E0.63701
M106 S255
;LAYER_CHANGE
;Z:2.6
;HEIGHT:0.7
;BEFORE_LAYER_CHANGE
G92 E0.0
;2.6


M73 P49 R2
G1 E-2.24000 F4200.000
;WIPE_START
G1 F12480.000
G1 X206.439 Y209.936 E-0.70697
G1 X206.439 Y209.295 E-0.20503
;WIPE_END
G1 E-0.04800 F4200.000
G1 Z2.100 F15600.000
G1 Z2.600
;AFTER_LAYER_CHANGE
;2.6
G1 Z2.800
G1 X205.708 Y188.345
G1 Z2.600
G1 E3.20000 F2400.000
;TYPE:External perimeter
;WIDTH:1.125
G1 F1318.981
G1 X205.708 Y188.208 E0.03901
G1 X229.292 Y188.208 E6.69072
G1 X229.292 Y211.792 E6.69072
M73 P50 R2
G1 X205.708 Y211.792 E6.69072
G1 X205.708 Y188.495 E6.60916
M73 P51 R2
G1 E-2.24000 F4200.000
;WIPE_START
G1 F12480.000
G1 X205.708 Y188.208 E-0.09192
G1 X208.273 Y188.208 E-0.82008
;WIPE_END
G1 E-0.04800 F4200.000
G1 Z2.800 F15600.000
G1 X216.207 Y194.400
G1 Z2.600
G1 E3.20000 F2400.000
;TYPE:Internal infill
G1 F1318.981
G1 X212.339 Y198.268 E1.55186
G1 X212.339 Y205.161 E1.95537
G1 X222.661 Y194.839 E4.14119
M73 P52 R2
G1 X222.661 Y201.732 E1.95537
G1 X218.793 Y205.600 E1.55186
G1 E-2.24000 F4200.000
;WIPE_START
G1 F12480.000
G1 X220.810 Y203.583 E-0.91200
;WIPE_END
G1 E-0.04800 F4200.000
G1 Z2.800 F15600.000
G1 X229.006 Y209.768
G1 Z2.600
G1 E3.20000 F2400.000
;TYPE:Top solid infill
;WIDTH:1.00982
G1 F1495.711
G1 X227.650 Y211.124 E0.47980
G1 X226.434 Y211.124 E0.30412
G1 X228.624 Y208.934 E0.77460
G1 X228.624 Y207.719 E0.30412
G1 X225.219 Y211.124 E1.20469
G1 X224.003 Y211.124 E0.30412
G1 X228.624 Y206.503 E1.63477
M73 P53 R2
G1 X228.624 Y205.287 E0.30412
G1 X222.787 Y211.124 E2.06486
G1 X221.572 Y211.124 E0.30412
G1 X228.624 Y204.072 E2.49495
G1 X228.624 Y202.856 E0.30412
G1 X220.356 Y211.124 E2.92503
G1 X219.140 Y211.124 E0.30412
G1 X228.624 Y201.640 E3.35512
M73 P54 R2
G1 X228.624 Y200.425 E0.30412
G1 X217.925 Y211.124 E3.78521
G1 X216.709 Y211.124 E0.30412
G1 X221.760 Y206.073 E1.78681
G1 X220.544 Y206.073 E0.30412
G1 X215.494 Y211.124 E1.78681
G1 X214.278 Y211.124 E0.30412
G1 X219.328 Y206.073 E1.78681
G1 X218.113 Y206.073 E0.30412
G1 X213.062 Y211.124 E1.78681
M73 P55 R2
G1 X211.847 Y211.124 E0.30412
G1 X216.897 Y206.073 E1.78681
G1 X215.681 Y206.073 E0.30412
G1 X210.631 Y211.124 E1.78681
G1 X209.415 Y211.124 E0.30412
G1 X214.466 Y206.073 E1.78681
G1 X213.250 Y206.073 E0.30412
G1 X208.200 Y211.124 E1.78681
G1 X206.984 Y211.124 E0.30412
G1 X212.034 Y206.073 E1.78681
G1 X211.427 Y206.073 E0.15205
G1 X211.427 Y205.466 E0.15207
G1 X206.376 Y210.516 E1.78681
M73 P56 R2
G1 X206.376 Y209.300 E0.30412
G1 X211.427 Y204.250 E1.78681
G1 X211.427 Y203.034 E0.30412
G1 X206.376 Y208.085 E1.78681
G1 X206.376 Y206.869 E0.30412
G1 X211.427 Y201.819 E1.78681
G1 X211.427 Y200.603 E0.30412
G1 X206.376 Y205.653 E1.78681
G1 X206.376 Y204.438 E0.30412
G1 X211.427 Y199.387 E1.78681
G1 X211.427 Y198.172 E0.30412
G1 X206.376 Y203.222 E1.78681
M73 P57 R2
G1 X206.376 Y202.006 E0.30412
G1 X211.427 Y196.956 E1.78681
G1 X211.427 Y195.740 E0.30412
G1 X205.994 Y201.173 E1.92210
G1 E-2.24000 F4200.000
;WIPE_START
M73 P57 R1
G1 F12480.000
G1 X208.011 Y199.156 E-0.91200
;WIPE_END
G1 E-0.04800 F4200.000
G1 Z2.800 F15600.000
G1 X229.006 Y198.827
G1 Z2.600
G1 E3.20000 F2400.000
G1 F1495.711
G1 X223.573 Y204.260 E1.92210
G1 X223.573 Y203.044 E0.30412
G1 X228.624 Y197.994 E1.78681
G1 X228.624 Y196.778 E0.30412
G1 X223.573 Y201.828 E1.78681
M73 P58 R1
G1 X223.573 Y200.613 E0.30412
G1 X228.624 Y195.562 E1.78681
G1 X228.624 Y194.347 E0.30412
G1 X223.573 Y199.397 E1.78681
G1 X223.573 Y198.181 E0.30412
G1 X228.624 Y193.131 E1.78681
G1 X228.624 Y191.915 E0.30412
G1 X223.573 Y196.966 E1.78681
G1 X223.573 Y195.750 E0.30412
G1 X228.624 Y190.700 E1.78681
G1 X228.624 Y189.484 E0.30412
G1 X223.573 Y194.534 E1.78681
M73 P59 R1
G1 X223.573 Y193.927 E0.15205
G1 X222.966 Y193.927 E0.15207
G1 X228.016 Y188.876 E1.78681
G1 X226.800 Y188.876 E0.30412
G1 X221.750 Y193.927 E1.78681
G1 X220.534 Y193.927 E0.30412
G1 X225.585 Y188.876 E1.78681
G1 X224.369 Y188.876 E0.30412
G1 X219.319 Y193.927 E1.78681
G1 X218.103 Y193.927 E0.30412
G1 X223.153 Y188.876 E1.78681
G1 X221.938 Y188.876 E0.30412
G1 X216.887 Y193.927 E1.78681
M73 P60 R1
G1 X215.672 Y193.927 E0.30412
G1 X220.722 Y188.876 E1.78681
G1 X219.506 Y188.876 E0.30412
G1 X214.456 Y193.927 E1.78681
G1 X213.240 Y193.927 E0.30412
G1 X218.291 Y188.876 E1.78681
G1 X217.075 Y188.876 E0.30412
G1 X206.376 Y199.575 E3.78517
G1 X206.376 Y198.359 E0.30412
G1 X215.859 Y188.876 E3.35509
M73 P61 R1
G1 X214.644 Y188.876 E0.30412
G1 X206.376 Y197.144 E2.92500
G1 X206.376 Y195.928 E0.30412
G1 X213.428 Y188.876 E2.49491
G1 X212.212 Y188.876 E0.30412
G1 X206.376 Y194.712 E2.06483
G1 X206.376 Y193.497 E0.30412
G1 X210.997 Y188.876 E1.63474
M73 P62 R1
G1 X209.781 Y188.876 E0.30412
G1 X206.376 Y192.281 E1.20466
G1 X206.376 Y191.065 E0.30412
G1 X208.565 Y188.876 E0.77457
G1 X207.350 Y188.876 E0.30412
G1 X205.994 Y190.232 E0.47977
;LAYER_CHANGE
;Z:3.3
