; generated by PrusaSlicer 2.3.1+win64 on 2021-06-14 at 08:04:40 UTC


;
;

;
;
; 

; external perimeters extrusion width = 1.00mm
; perimeters extrusion width = 1.00mm
; infill extrusion width = 1.00mm
; solid infill extrusion width = 1.00mm
; top infill extrusion width = 1.00mm
; first layer extrusion width = 1.00mm

M73 P0 R27
M201 X1250 Y1250 Z1250 E5000 ; sets maximum accelerations, mm/sec^2
M203 X180 Y180 Z180 E180 ; sets maximum feedrates, mm/sec
M204 P1250 R1250 T1250 ; sets acceleration (P, T) and retract acceleration (R), mm/sec^2
M205 X8.00 Y8.00 Z2.00 E10.00 ; sets the jerk limits, mm/sec
M205 S0 T0 ; sets the minimum extruding and travel feed rate, mm/sec
M107
M190 S60 ; set bed temperature and wait for it to be reached
;TYPE:Custom
G90 ; use absolute coordinates
M83 ; extruder relative mode
G28 ; home all without mesh bed level
G29 ; mesh bed leveling 
M104 S215 ; set extruder temp
G92 E0.0
G1 Y-2.0 X179 F2400
G1 Z3 F720
M109 S215 ; wait for extruder temp

; intro line
G1 X170 F1000
G1 Z0.2 F720
G1 X110.0 E8.0 F900
G1 X40.0 E10.0 F700
G92 E0.0

M221 S95 ; set flow
G21 ; set units to millimeters
G90 ; use absolute coordinates
M83 ; use relative distances for extrusion
M900 K0.2 ; Filament gcode LA 1.5
; ; Filament gcode LA 1.0
;LAYER_CHANGE
;Z:0.7
;HEIGHT:0.7
;BEFORE_LAYER_CHANGE
G92 E0.0
;0.7


M73 P0 R26
G1 E-3.20000 F4200.000
G1 Z0.200 F7800.000
G1 Z0.700
;AFTER_LAYER_CHANGE
;0.7
G1 Z0.900
G1 X184.442 Y167.500
M73 P1 R26
G1 Z0.700
G1 E3.20000 F2400.000
;TYPE:Skirt
;WIDTH:1
G1 F1512.999
G1 X185.455 Y166.570 E0.34003
G1 X186.633 Y165.861 E0.34003
G1 X187.935 Y165.401 E0.34162
G1 X189.297 Y165.211 E0.34003
G1 X245.450 Y165.206 E13.88708
G1 X246.723 Y165.327 E0.31615
G1 X247.951 Y165.682 E0.31615
G1 X249.086 Y166.255 E0.31456
G1 X250.101 Y167.033 E0.31615
G1 X250.953 Y167.986 E0.31615
G1 X251.614 Y169.081 E0.31615
G1 X252.059 Y170.279 E0.31615
G1 X252.274 Y171.539 E0.31615
G1 X252.291 Y228.138 E13.99730
G1 X252.152 Y229.331 E0.29704
G1 X251.809 Y230.475 E0.29545
G1 X251.272 Y231.543 E0.29545
G1 X250.558 Y232.500 E0.29545
G1 X249.504 Y233.461 E0.35275
G1 X248.273 Y234.182 E0.35275
G1 X246.920 Y234.633 E0.35275
G1 X245.502 Y234.793 E0.35275
G1 X189.362 Y234.791 E13.88389
G1 X188.169 Y234.652 E0.29704
G1 X187.025 Y234.309 E0.29545
G1 X185.957 Y233.772 E0.29545
G1 X185.000 Y233.058 E0.29545
G1 X184.039 Y232.004 E0.35275
G1 X183.318 Y230.773 E0.35275
G1 X182.867 Y229.420 E0.35275
G1 X182.707 Y228.002 E0.35275
G1 X182.709 Y171.862 E13.88389
G1 X182.848 Y170.669 E0.29704
G1 X183.191 Y169.525 E0.29545
G1 X183.728 Y168.457 E0.29545
G1 X184.352 Y167.620 E0.25836
G1 E-2.24000 F4200.000
;WIPE_START
G1 F6240.000
G1 X185.385 Y166.636 E-0.91200
;WIPE_END
G1 E-0.04800 F4200.000
G1 Z0.900 F7800.000
G1 X191.956 Y174.456
G1 Z0.700
G1 E3.20000 F2400.000
;TYPE:Perimeter
G1 F1512.999
G1 X243.044 Y174.456 E12.63458
G1 X243.044 Y225.544 E12.63458
M73 P2 R26
G1 X191.956 Y225.544 E12.63458
G1 X191.956 Y174.606 E12.59748
G1 X191.106 Y173.606 F7800.000
G1 F1512.999
G1 X243.894 Y173.606 E13.05489
G1 X243.894 Y226.394 E13.05489
G1 X191.106 Y226.394 E13.05489
G1 X191.106 Y173.756 E13.01780
G1 X190.256 Y172.756 F7800.000
;TYPE:External perimeter
G1 F1512.999
G1 X244.744 Y172.756 E13.47521
G1 X244.744 Y227.244 E13.47521
M73 P3 R26
G1 X190.256 Y227.244 E13.47521
G1 X190.256 Y172.906 E13.43811
G1 X191.222 Y173.015 F7800.000
G1 E-2.24000 F4200.000
;WIPE_START
G1 F6240.000
G1 X191.682 Y172.902 E-0.91200
;WIPE_END
G1 E-0.04800 F4200.000
G1 Z0.900 F7800.000
G1 X240.885 Y174.881
G1 Z0.700
G1 E3.20000 F2400.000
;TYPE:Solid infill
;WIDTH:1.00767
G1 F1499.461
G1 X242.237 Y176.232 E0.47699
G1 X242.237 Y177.445 E0.30260
G1 X240.055 Y175.263 E0.76998
G1 X238.842 Y175.263 E0.30260
G1 X242.237 Y178.658 E1.19792
G1 X242.237 Y179.870 E0.30260
G1 X237.630 Y175.263 E1.62586
G1 X236.417 Y175.263 E0.30260
G1 X242.237 Y181.083 E2.05379
G1 X242.237 Y182.295 E0.30260
G1 X235.205 Y175.263 E2.48173
G1 X233.992 Y175.263 E0.30260
G1 X242.237 Y183.508 E2.90967
G1 X242.237 Y184.721 E0.30260
G1 X232.779 Y175.263 E3.33761
G1 X231.567 Y175.263 E0.30260
G1 X242.237 Y185.933 E3.76554
G1 X242.237 Y187.146 E0.30260
G1 X230.354 Y175.263 E4.19348
G1 X229.142 Y175.263 E0.30260
G1 X242.237 Y188.358 E4.62142
G1 X242.237 Y189.571 E0.30260
G1 X227.929 Y175.263 E5.04936
G1 X226.716 Y175.263 E0.30260
G1 X242.237 Y190.784 E5.47730
G1 X242.237 Y191.996 E0.30260
G1 X225.504 Y175.263 E5.90523
G1 X224.291 Y175.263 E0.30260
G1 X242.237 Y193.209 E6.33317
G1 X242.237 Y194.422 E0.30260
G1 X223.078 Y175.263 E6.76111
M73 P4 R26
G1 X221.866 Y175.263 E0.30260
G1 X242.237 Y195.634 E7.18905
G1 X242.237 Y196.847 E0.30260
G1 X220.653 Y175.263 E7.61699
G1 X219.441 Y175.263 E0.30260
G1 X242.237 Y198.059 E8.04492
G1 X242.237 Y199.272 E0.30260
G1 X218.228 Y175.263 E8.47286
G1 X217.015 Y175.263 E0.30260
G1 X242.237 Y200.485 E8.90080
G1 X242.237 Y201.697 E0.30260
G1 X215.803 Y175.263 E9.32874
M73 P4 R25
G1 X214.590 Y175.263 E0.30260
G1 X242.237 Y202.910 E9.75667
G1 X242.237 Y204.122 E0.30260
G1 X213.378 Y175.263 E10.18461
G1 X212.165 Y175.263 E0.30260
G1 X242.237 Y205.335 E10.61255
G1 X242.237 Y206.548 E0.30260
G1 X210.952 Y175.263 E11.04049
G1 X209.740 Y175.263 E0.30260
G1 X242.237 Y207.760 E11.46843
M73 P5 R25
G1 X242.237 Y208.973 E0.30260
G1 X208.527 Y175.263 E11.89636
G1 X207.314 Y175.263 E0.30260
G1 X242.237 Y210.186 E12.32430
G1 X242.237 Y211.398 E0.30260
G1 X206.102 Y175.263 E12.75224
G1 X204.889 Y175.263 E0.30260
G1 X242.237 Y212.611 E13.18018
G1 X242.237 Y213.823 E0.30260
G1 X203.677 Y175.263 E13.60811
G1 X202.464 Y175.263 E0.30260
G1 X242.237 Y215.036 E14.03605
G1 X242.237 Y216.249 E0.30260
G1 X201.251 Y175.263 E14.46399
M73 P6 R25
G1 X200.039 Y175.263 E0.30260
G1 X242.237 Y217.461 E14.89193
G1 X242.237 Y218.674 E0.30260
G1 X198.826 Y175.263 E15.31987
G1 X197.613 Y175.263 E0.30260
G1 X242.237 Y219.887 E15.74780
G1 X242.237 Y221.099 E0.30260
G1 X196.401 Y175.263 E16.17574
G1 X195.188 Y175.263 E0.30260
G1 X242.237 Y222.312 E16.60368
G1 X242.237 Y223.524 E0.30260
G1 X193.976 Y175.263 E17.03162
M73 P7 R25
G1 X192.763 Y175.263 E0.30258
G1 X242.237 Y224.737 E17.45951
G1 X241.024 Y224.737 E0.30260
G1 X192.763 Y176.476 E17.03157
G1 X192.763 Y177.688 E0.30260
G1 X239.812 Y224.737 E16.60364
G1 X238.599 Y224.737 E0.30260
G1 X192.763 Y178.901 E16.17570
G1 X192.763 Y180.114 E0.30260
G1 X237.386 Y224.737 E15.74776
G1 X236.174 Y224.737 E0.30260
G1 X192.763 Y181.326 E15.31982
M73 P8 R25
G1 X192.763 Y182.539 E0.30260
G1 X234.961 Y224.737 E14.89188
G1 X233.749 Y224.737 E0.30260
G1 X192.763 Y183.751 E14.46395
M73 P8 R24
G1 X192.763 Y184.964 E0.30260
G1 X232.536 Y224.737 E14.03601
G1 X231.323 Y224.737 E0.30260
G1 X192.763 Y186.177 E13.60807
G1 X192.763 Y187.389 E0.30260
G1 X230.111 Y224.737 E13.18013
G1 X228.898 Y224.737 E0.30260
G1 X192.763 Y188.602 E12.75220
G1 X192.763 Y189.815 E0.30260
G1 X227.685 Y224.737 E12.32426
M73 P9 R24
G1 X226.473 Y224.737 E0.30260
G1 X192.763 Y191.027 E11.89632
G1 X192.763 Y192.240 E0.30260
G1 X225.260 Y224.737 E11.46838
G1 X224.048 Y224.737 E0.30260
G1 X192.763 Y193.452 E11.04044
G1 X192.763 Y194.665 E0.30260
G1 X222.835 Y224.737 E10.61251
G1 X221.622 Y224.737 E0.30260
G1 X192.763 Y195.878 E10.18457
G1 X192.763 Y197.090 E0.30260
G1 X220.410 Y224.737 E9.75663
G1 X219.197 Y224.737 E0.30260
G1 X192.763 Y198.303 E9.32869
G1 X192.763 Y199.515 E0.30260
G1 X217.985 Y224.737 E8.90075
G1 X216.772 Y224.737 E0.30260
G1 X192.763 Y200.728 E8.47282
G1 X192.763 Y201.941 E0.30260
G1 X215.559 Y224.737 E8.04488
M73 P10 R24
G1 X214.347 Y224.737 E0.30260
G1 X192.763 Y203.153 E7.61694
G1 X192.763 Y204.366 E0.30260
G1 X213.134 Y224.737 E7.18900
G1 X211.921 Y224.737 E0.30260
G1 X192.763 Y205.579 E6.76107
G1 X192.763 Y206.791 E0.30260
G1 X210.709 Y224.737 E6.33313
G1 X209.496 Y224.737 E0.30260
G1 X192.763 Y208.004 E5.90519
G1 X192.763 Y209.216 E0.30260
G1 X208.284 Y224.737 E5.47725
G1 X207.071 Y224.737 E0.30260
G1 X192.763 Y210.429 E5.04931
G1 X192.763 Y211.642 E0.30260
G1 X205.858 Y224.737 E4.62138
G1 X204.646 Y224.737 E0.30260
G1 X192.763 Y212.854 E4.19344
G1 X192.763 Y214.067 E0.30260
G1 X203.433 Y224.737 E3.76550
G1 X202.220 Y224.737 E0.30260
G1 X192.763 Y215.280 E3.33756
G1 X192.763 Y216.492 E0.30260
G1 X201.008 Y224.737 E2.90962
G1 X199.795 Y224.737 E0.30260
G1 X192.763 Y217.705 E2.48169
G1 X192.763 Y218.917 E0.30260
G1 X198.583 Y224.737 E2.05375
G1 X197.370 Y224.737 E0.30260
G1 X192.763 Y220.130 E1.62581
G1 X192.763 Y221.343 E0.30260
G1 X196.157 Y224.737 E1.19787
G1 X194.945 Y224.737 E0.30260
G1 X192.763 Y222.555 E0.76994
G1 X192.763 Y223.768 E0.30260
G1 X194.115 Y225.119 E0.47695
M106 S84.15
;LAYER_CHANGE
;Z:1.4
;HEIGHT:0.7
;BEFORE_LAYER_CHANGE
G92 E0.0
;1.4


G1 E-2.24000 F4200.000
;WIPE_START
G1 F6240.000
G1 X193.106 Y224.111 E-0.91200
;WIPE_END
G1 E-0.04800 F4200.000
G1 Z0.900 F7800.000
G1 Z1.400
;AFTER_LAYER_CHANGE
;1.4
G1 X191.756 Y174.256
G1 E3.20000 F2400.000
;TYPE:Perimeter
;WIDTH:1
G1 F1512.999
G1 X243.244 Y174.256 E12.73350
M73 P11 R24
G1 X243.244 Y225.744 E12.73350
G1 X191.756 Y225.744 E12.73350
G1 X191.756 Y174.406 E12.69641
G1 X190.906 Y173.406 F7800.000
G1 F1512.999
G1 X244.094 Y173.406 E13.15382
G1 X244.094 Y226.594 E13.15382
G1 X190.906 Y226.594 E13.15382
G1 X190.906 Y173.556 E13.11672
G1 X190.056 Y172.756 F7800.000
;TYPE:External perimeter
G1 F1512.999
G1 X190.056 Y172.556 E0.04946
G1 X244.944 Y172.556 E13.57413
M73 P12 R23
G1 X244.944 Y227.444 E13.57413
G1 X190.056 Y227.444 E13.57413
G1 X190.056 Y172.906 E13.48757
G1 X190.198 Y172.615 F7800.000
G1 X241.093 Y225.319
;TYPE:Solid infill
;WIDTH:1.0042
G1 F1200.000
G1 X242.437 Y223.975 E0.47247
G1 X242.437 Y222.767 E0.30015
G1 X240.267 Y224.937 E0.76254
G1 X239.060 Y224.937 E0.30015
G1 X242.437 Y221.560 E1.18702
G1 X242.437 Y220.352 E0.30015
G1 X237.852 Y224.937 E1.61150
G1 X236.644 Y224.937 E0.30015
G1 X242.437 Y219.144 E2.03597
G1 X242.437 Y217.937 E0.30015
G1 X235.437 Y224.937 E2.46045
G1 X234.229 Y224.937 E0.30015
G1 X242.437 Y216.729 E2.88493
G1 X242.437 Y215.521 E0.30015
G1 X233.021 Y224.937 E3.30941
G1 X231.813 Y224.937 E0.30015
G1 X242.437 Y214.313 E3.73388
G1 X242.437 Y213.106 E0.30015
G1 X230.606 Y224.937 E4.15836
G1 X229.398 Y224.937 E0.30015
G1 X242.437 Y211.898 E4.58284
G1 X242.437 Y210.690 E0.30015
G1 X228.190 Y224.937 E5.00732
G1 X226.983 Y224.937 E0.30015
M73 P13 R23
G1 X242.437 Y209.483 E5.43179
G1 X242.437 Y208.275 E0.30015
G1 X225.775 Y224.937 E5.85627
G1 X224.567 Y224.937 E0.30015
G1 X242.437 Y207.067 E6.28075
G1 X242.437 Y205.860 E0.30015
G1 X223.360 Y224.937 E6.70522
G1 X222.152 Y224.937 E0.30015
G1 X242.437 Y204.652 E7.12970
G1 X242.437 Y203.444 E0.30015
G1 X220.944 Y224.937 E7.55418
G1 X219.736 Y224.937 E0.30015
G1 X242.437 Y202.236 E7.97866
G1 X242.437 Y201.029 E0.30015
G1 X218.529 Y224.937 E8.40313
G1 X217.321 Y224.937 E0.30015
G1 X242.437 Y199.821 E8.82761
G1 X242.437 Y198.613 E0.30015
G1 X216.113 Y224.937 E9.25209
G1 X214.906 Y224.937 E0.30015
G1 X242.437 Y197.406 E9.67656
M73 P14 R23
G1 X242.437 Y196.198 E0.30015
G1 X213.698 Y224.937 E10.10104
G1 X212.490 Y224.937 E0.30015
G1 X242.437 Y194.990 E10.52552
G1 X242.437 Y193.782 E0.30015
G1 X211.282 Y224.937 E10.95000
G1 X210.075 Y224.937 E0.30015
G1 X242.437 Y192.575 E11.37447
G1 X242.437 Y191.367 E0.30015
G1 X208.867 Y224.937 E11.79895
G1 X207.659 Y224.937 E0.30015
G1 X242.437 Y190.159 E12.22343
G1 X242.437 Y188.952 E0.30015
G1 X206.452 Y224.937 E12.64791
M73 P15 R23
G1 X205.244 Y224.937 E0.30015
G1 X242.437 Y187.744 E13.07238
G1 X242.437 Y186.536 E0.30015
G1 X204.036 Y224.937 E13.49686
G1 X202.829 Y224.937 E0.30015
G1 X242.437 Y185.329 E13.92134
G1 X242.437 Y184.121 E0.30015
G1 X201.621 Y224.937 E14.34581
M73 P15 R22
G1 X200.413 Y224.937 E0.30015
G1 X242.437 Y182.913 E14.77029
M73 P16 R22
G1 X242.437 Y181.705 E0.30015
G1 X199.205 Y224.937 E15.19477
G1 X197.998 Y224.937 E0.30015
G1 X242.437 Y180.498 E15.61925
G1 X242.437 Y179.290 E0.30015
G1 X196.790 Y224.937 E16.04372
G1 X195.582 Y224.937 E0.30015
G1 X242.437 Y178.082 E16.46820
G1 X242.437 Y176.875 E0.30015
G1 X194.375 Y224.937 E16.89268
M73 P17 R22
G1 X193.167 Y224.937 E0.30015
G1 X242.437 Y175.667 E17.31716
G1 X242.437 Y175.063 E0.15007
G1 X241.833 Y175.063 E0.15008
G1 X192.563 Y224.333 E17.31714
G1 X192.563 Y223.125 E0.30015
G1 X240.625 Y175.063 E16.89266
G1 X239.418 Y175.063 E0.30015
G1 X192.563 Y221.918 E16.46818
G1 X192.563 Y220.710 E0.30015
G1 X238.210 Y175.063 E16.04371
M73 P18 R22
G1 X237.002 Y175.063 E0.30015
G1 X192.563 Y219.502 E15.61923
G1 X192.563 Y218.295 E0.30015
G1 X235.795 Y175.063 E15.19475
G1 X234.587 Y175.063 E0.30015
G1 X192.563 Y217.087 E14.77027
G1 X192.563 Y215.879 E0.30015
G1 X233.379 Y175.063 E14.34580
G1 X232.171 Y175.063 E0.30015
G1 X192.563 Y214.671 E13.92132
M73 P19 R22
G1 X192.563 Y213.464 E0.30015
G1 X230.964 Y175.063 E13.49684
G1 X229.756 Y175.063 E0.30015
G1 X192.563 Y212.256 E13.07236
G1 X192.563 Y211.048 E0.30015
G1 X228.548 Y175.063 E12.64789
M73 P19 R21
G1 X227.341 Y175.063 E0.30015
G1 X192.563 Y209.841 E12.22341
G1 X192.563 Y208.633 E0.30015
G1 X226.133 Y175.063 E11.79893
G1 X224.925 Y175.063 E0.30015
G1 X192.563 Y207.425 E11.37446
M73 P20 R21
G1 X192.563 Y206.217 E0.30015
G1 X223.717 Y175.063 E10.94998
G1 X222.510 Y175.063 E0.30015
G1 X192.563 Y205.010 E10.52550
G1 X192.563 Y203.802 E0.30015
G1 X221.302 Y175.063 E10.10102
G1 X220.094 Y175.063 E0.30015
G1 X192.563 Y202.594 E9.67655
G1 X192.563 Y201.387 E0.30015
G1 X218.887 Y175.063 E9.25207
G1 X217.679 Y175.063 E0.30015
G1 X192.563 Y200.179 E8.82759
G1 X192.563 Y198.971 E0.30015
G1 X216.471 Y175.063 E8.40311
G1 X215.264 Y175.063 E0.30015
G1 X192.563 Y197.764 E7.97864
M73 P21 R21
G1 X192.563 Y196.556 E0.30015
G1 X214.056 Y175.063 E7.55416
G1 X212.848 Y175.063 E0.30015
G1 X192.563 Y195.348 E7.12968
G1 X192.563 Y194.140 E0.30015
G1 X211.640 Y175.063 E6.70521
G1 X210.433 Y175.063 E0.30015
G1 X192.563 Y192.933 E6.28073
G1 X192.563 Y191.725 E0.30015
G1 X209.225 Y175.063 E5.85625
G1 X208.017 Y175.063 E0.30015
G1 X192.563 Y190.517 E5.43177
G1 X192.563 Y189.310 E0.30015
G1 X206.810 Y175.063 E5.00730
G1 X205.602 Y175.063 E0.30015
G1 X192.563 Y188.102 E4.58282
G1 X192.563 Y186.894 E0.30015
G1 X204.394 Y175.063 E4.15834
G1 X203.186 Y175.063 E0.30015
G1 X192.563 Y185.686 E3.73386
G1 X192.563 Y184.479 E0.30015
G1 X201.979 Y175.063 E3.30939
G1 X200.771 Y175.063 E0.30015
G1 X192.563 Y183.271 E2.88491
G1 X192.563 Y182.063 E0.30015
G1 X199.563 Y175.063 E2.46043
G1 X198.356 Y175.063 E0.30015
G1 X192.563 Y180.856 E2.03596
G1 X192.563 Y179.648 E0.30015
G1 X197.148 Y175.063 E1.61148
G1 X195.940 Y175.063 E0.30015
G1 X192.563 Y178.440 E1.18700
G1 X192.563 Y177.233 E0.30015
G1 X194.733 Y175.063 E0.76252
G1 X193.525 Y175.063 E0.30015
G1 X192.181 Y176.407 E0.47245
M106 S170.85
;LAYER_CHANGE
;Z:2.1
;HEIGHT:0.7
;BEFORE_LAYER_CHANGE
G92 E0.0
;2.1


G1 E-2.24000 F4200.000
;WIPE_START
G1 F6240.000
G1 X193.189 Y175.399 E-0.91200
;WIPE_END
G1 E-0.04800 F4200.000
G1 Z1.600 F7800.000
M73 P22 R21
G1 Z2.100
;AFTER_LAYER_CHANGE
;2.1
G1 X191.756 Y174.256
G1 E3.20000 F2400.000
;TYPE:Perimeter
;WIDTH:1
G1 F1512.999
G1 X243.244 Y174.256 E12.73350
G1 X243.244 Y225.744 E12.73350
G1 X191.756 Y225.744 E12.73350
G1 X191.756 Y174.406 E12.69641
G1 X190.906 Y173.406 F7800.000
G1 F1512.999
G1 X244.094 Y173.406 E13.15382
G1 X244.094 Y226.594 E13.15382
G1 X190.906 Y226.594 E13.15382
G1 X190.906 Y173.556 E13.11672
M73 P23 R21
G1 X190.056 Y172.756 F7800.000
;TYPE:External perimeter
G1 F1512.999
G1 X190.056 Y172.556 E0.04946
G1 X244.944 Y172.556 E13.57413
G1 X244.944 Y227.444 E13.57413
M73 P23 R20
G1 X190.056 Y227.444 E13.57413
G1 X190.056 Y172.906 E13.48757
G1 X190.198 Y172.615 F7800.000
G1 X242.819 Y176.407
;TYPE:Solid infill
;WIDTH:1.0042
G1 F1200.000
G1 X241.475 Y175.063 E0.47247
G1 X240.267 Y175.063 E0.30015
G1 X242.437 Y177.233 E0.76254
G1 X242.437 Y178.440 E0.30015
G1 X239.060 Y175.063 E1.18702
G1 X237.852 Y175.063 E0.30015
G1 X242.437 Y179.648 E1.61150
G1 X242.437 Y180.856 E0.30015
G1 X236.644 Y175.063 E2.03597
G1 X235.437 Y175.063 E0.30015
G1 X242.437 Y182.063 E2.46045
G1 X242.437 Y183.271 E0.30015
G1 X234.229 Y175.063 E2.88493
