; generated by PrusaSlicer 2.3.1+win64 on 2021-06-09 at 10:01:00 UTC


;
;

;
;
; 

; external perimeters extrusion width = 1.00mm
; perimeters extrusion width = 1.00mm
; infill extrusion width = 1.00mm
; solid infill extrusion width = 1.00mm
; top infill extrusion width = 1.00mm
; first layer extrusion width = 1.00mm

M73 P0 R25
M201 X1250 Y1250 Z1250 E5000 ; sets maximum accelerations, mm/sec^2
M203 X180 Y180 Z180 E180 ; sets maximum feedrates, mm/sec
M204 P1250 R1250 T1250 ; sets acceleration (P, T) and retract acceleration (R), mm/sec^2
M205 X8.00 Y8.00 Z2.00 E10.00 ; sets the jerk limits, mm/sec
M205 S0 T0 ; sets the minimum extruding and travel feed rate, mm/sec
M107
M190 S60 ; set bed temperature and wait for it to be reached
;TYPE:Custom
G90 ; use absolute coordinates
M83 ; extruder relative mode
G28 ; home all without mesh bed level
G29 ; mesh bed leveling 
M104 S215 ; set extruder temp
G92 E0.0
G1 Y-2.0 X179 F2400
G1 Z3 F720
M109 S215 ; wait for extruder temp

; intro line
G1 X170 F1000
G1 Z0.2 F720
G1 X110.0 E8.0 F900
G1 X40.0 E10.0 F700
G92 E0.0

M221 S95 ; set flow
G21 ; set units to millimeters
G90 ; use absolute coordinates
M83 ; use relative distances for extrusion
M900 K0.2 ; Filament gcode LA 1.5
; ; Filament gcode LA 1.0
;LAYER_CHANGE
;Z:0.5
;HEIGHT:0.5
;BEFORE_LAYER_CHANGE
G92 E0.0
;0.5


M73 P1 R25
G1 E-3.20000 F4200.000
G1 Z0.200 F7800.000
G1 Z0.500
;AFTER_LAYER_CHANGE
;0.5
G1 Z0.700
G1 X185.621 Y168.714
G1 Z0.500
G1 E3.20000 F2400.000
;TYPE:Skirt
;WIDTH:1
G1 F1800.000
G1 X186.639 Y167.774 E0.25714
G1 X187.825 Y167.056 E0.25714
G1 X189.130 Y166.591 E0.25714
G1 X190.508 Y166.395 E0.25834
G1 X244.224 Y166.390 E9.96803
G1 X245.501 Y166.510 E0.23797
G1 X246.733 Y166.865 E0.23797
G1 X247.878 Y167.442 E0.23797
G1 X248.897 Y168.221 E0.23797
G1 X249.753 Y169.176 E0.23797
G1 X250.418 Y170.272 E0.23797
G1 X250.869 Y171.473 E0.23797
G1 X251.089 Y172.737 E0.23797
G1 X251.107 Y226.919 E10.05460
G1 X250.968 Y228.109 E0.22239
G1 X250.625 Y229.257 E0.22239
G1 X250.089 Y230.329 E0.22239
G1 X249.379 Y231.286 E0.22119
G1 X248.319 Y232.257 E0.26672
G1 X247.081 Y232.987 E0.26672
G1 X245.718 Y233.445 E0.26672
G1 X244.284 Y233.610 E0.26792
G1 X190.575 Y233.607 E9.96684
G1 X189.385 Y233.467 E0.22239
G1 X188.243 Y233.125 E0.22119
G1 X187.171 Y232.589 E0.22239
G1 X186.214 Y231.879 E0.22119
G1 X185.243 Y230.819 E0.26672
G1 X184.513 Y229.581 E0.26672
G1 X184.055 Y228.218 E0.26672
G1 X183.890 Y226.784 E0.26792
G1 X183.893 Y173.075 E9.96684
G1 X184.033 Y171.885 E0.22239
G1 X184.375 Y170.743 E0.22119
G1 X184.911 Y169.671 E0.22239
G1 X185.532 Y168.834 E0.19336
G1 E-2.24000 F4200.000
;WIPE_START
G1 F6240.000
G1 X186.562 Y167.848 E-0.91200
;WIPE_END
G1 E-0.04800 F4200.000
G1 Z0.700 F7800.000
G1 X193.268 Y175.768
G1 Z0.500
G1 E3.20000 F2400.000
;TYPE:Perimeter
G1 F1800.000
G1 X241.732 Y175.768 E8.99354
G1 X241.732 Y224.232 E8.99354
G1 X193.268 Y224.232 E8.99354
M73 P2 R25
G1 X193.268 Y175.918 E8.96571
G1 X192.375 Y174.875 F7800.000
G1 F1800.000
G1 X242.625 Y174.875 E9.32486
G1 X242.625 Y225.125 E9.32486
G1 X192.375 Y225.125 E9.32486
G1 X192.375 Y175.025 E9.29703
G1 X191.482 Y173.982 F7800.000
;TYPE:External perimeter
G1 F1800.000
G1 X243.518 Y173.982 E9.65618
G1 X243.518 Y226.018 E9.65618
G1 X191.482 Y226.018 E9.65618
G1 X191.482 Y174.132 E9.62834
M73 P3 R25
G1 X192.448 Y174.241 F7800.000
G1 E-2.24000 F4200.000
;WIPE_START
G1 F6240.000
G1 X192.909 Y174.128 E-0.91200
;WIPE_END
G1 E-0.04800 F4200.000
G1 Z0.700 F7800.000
G1 X239.469 Y176.214
G1 Z0.500
G1 E3.20000 F2400.000
;TYPE:Solid infill
;WIDTH:1.006
G1 F1800.000
G1 X240.884 Y177.630 E0.37398
G1 X240.884 Y178.901 E0.23744
G1 X238.599 Y176.616 E0.60364
G1 X237.328 Y176.616 E0.23744
G1 X240.884 Y180.172 E0.93942
G1 X240.884 Y181.443 E0.23744
G1 X236.057 Y176.616 E1.27521
G1 X234.786 Y176.616 E0.23744
G1 X240.884 Y182.714 E1.61100
M73 P3 R24
G1 X240.884 Y183.984 E0.23744
G1 X233.516 Y176.616 E1.94679
G1 X232.245 Y176.616 E0.23744
G1 X240.884 Y185.255 E2.28257
G1 X240.884 Y186.526 E0.23744
G1 X230.974 Y176.616 E2.61836
G1 X229.703 Y176.616 E0.23744
G1 X240.884 Y187.797 E2.95415
G1 X240.884 Y189.068 E0.23744
G1 X228.432 Y176.616 E3.28994
G1 X227.161 Y176.616 E0.23744
G1 X240.884 Y190.339 E3.62572
G1 X240.884 Y191.610 E0.23744
G1 X225.890 Y176.616 E3.96151
G1 X224.619 Y176.616 E0.23744
G1 X240.884 Y192.881 E4.29730
G1 X240.884 Y194.152 E0.23744
G1 X223.348 Y176.616 E4.63308
G1 X222.077 Y176.616 E0.23744
G1 X240.884 Y195.423 E4.96887
G1 X240.884 Y196.694 E0.23744
G1 X220.806 Y176.616 E5.30466
G1 X219.535 Y176.616 E0.23744
G1 X240.884 Y197.965 E5.64045
G1 X240.884 Y199.236 E0.23744
G1 X218.264 Y176.616 E5.97623
G1 X216.993 Y176.616 E0.23744
G1 X240.884 Y200.507 E6.31202
G1 X240.884 Y201.778 E0.23744
G1 X215.722 Y176.616 E6.64781
M73 P4 R24
G1 X214.451 Y176.616 E0.23744
G1 X240.884 Y203.049 E6.98360
G1 X240.884 Y204.320 E0.23744
G1 X213.180 Y176.616 E7.31938
G1 X211.909 Y176.616 E0.23744
G1 X240.884 Y205.591 E7.65517
G1 X240.884 Y206.862 E0.23744
G1 X210.638 Y176.616 E7.99096
G1 X209.367 Y176.616 E0.23744
G1 X240.884 Y208.133 E8.32675
G1 X240.884 Y209.404 E0.23744
G1 X208.096 Y176.616 E8.66253
G1 X206.825 Y176.616 E0.23744
G1 X240.884 Y210.675 E8.99832
G1 X240.884 Y211.946 E0.23744
G1 X205.554 Y176.616 E9.33411
G1 X204.284 Y176.616 E0.23744
G1 X240.884 Y213.216 E9.66990
G1 X240.884 Y214.487 E0.23744
G1 X203.013 Y176.616 E10.00568
M73 P5 R24
G1 X201.742 Y176.616 E0.23744
G1 X240.884 Y215.758 E10.34147
G1 X240.884 Y217.029 E0.23744
G1 X200.471 Y176.616 E10.67726
G1 X199.200 Y176.616 E0.23744
G1 X240.884 Y218.300 E11.01305
G1 X240.884 Y219.571 E0.23744
G1 X197.929 Y176.616 E11.34883
G1 X196.658 Y176.616 E0.23744
G1 X240.884 Y220.842 E11.68462
G1 X240.884 Y222.113 E0.23744
G1 X195.387 Y176.616 E12.02041
G1 X194.116 Y176.616 E0.23743
G1 X240.884 Y223.384 E12.35619
M73 P6 R24
G1 X239.613 Y223.384 E0.23744
G1 X194.116 Y177.887 E12.02040
G1 X194.116 Y179.158 E0.23744
G1 X238.342 Y223.384 E11.68461
G1 X237.071 Y223.384 E0.23744
G1 X194.116 Y180.429 E11.34882
G1 X194.116 Y181.700 E0.23744
G1 X235.800 Y223.384 E11.01304
G1 X234.529 Y223.384 E0.23744
G1 X194.116 Y182.971 E10.67725
G1 X194.116 Y184.242 E0.23744
G1 X233.258 Y223.384 E10.34146
G1 X231.987 Y223.384 E0.23744
G1 X194.116 Y185.513 E10.00567
G1 X194.116 Y186.784 E0.23744
G1 X230.716 Y223.384 E9.66989
M73 P7 R24
G1 X229.445 Y223.384 E0.23744
G1 X194.116 Y188.055 E9.33410
M73 P7 R23
G1 X194.116 Y189.325 E0.23744
G1 X228.175 Y223.384 E8.99831
G1 X226.904 Y223.384 E0.23744
G1 X194.116 Y190.596 E8.66252
G1 X194.116 Y191.867 E0.23744
G1 X225.633 Y223.384 E8.32674
G1 X224.362 Y223.384 E0.23744
G1 X194.116 Y193.138 E7.99095
G1 X194.116 Y194.409 E0.23744
G1 X223.091 Y223.384 E7.65516
G1 X221.820 Y223.384 E0.23744
G1 X194.116 Y195.680 E7.31937
G1 X194.116 Y196.951 E0.23744
G1 X220.549 Y223.384 E6.98359
G1 X219.278 Y223.384 E0.23744
G1 X194.116 Y198.222 E6.64780
G1 X194.116 Y199.493 E0.23744
G1 X218.007 Y223.384 E6.31201
M73 P8 R23
G1 X216.736 Y223.384 E0.23744
G1 X194.116 Y200.764 E5.97622
G1 X194.116 Y202.035 E0.23744
G1 X215.465 Y223.384 E5.64044
G1 X214.194 Y223.384 E0.23744
G1 X194.116 Y203.306 E5.30465
G1 X194.116 Y204.577 E0.23744
G1 X212.923 Y223.384 E4.96886
G1 X211.652 Y223.384 E0.23744
G1 X194.116 Y205.848 E4.63307
G1 X194.116 Y207.119 E0.23744
G1 X210.381 Y223.384 E4.29729
G1 X209.110 Y223.384 E0.23744
G1 X194.116 Y208.390 E3.96150
G1 X194.116 Y209.661 E0.23744
G1 X207.839 Y223.384 E3.62571
G1 X206.568 Y223.384 E0.23744
G1 X194.116 Y210.932 E3.28992
G1 X194.116 Y212.203 E0.23744
G1 X205.297 Y223.384 E2.95414
G1 X204.026 Y223.384 E0.23744
G1 X194.116 Y213.474 E2.61835
G1 X194.116 Y214.745 E0.23744
G1 X202.755 Y223.384 E2.28256
G1 X201.484 Y223.384 E0.23744
G1 X194.116 Y216.016 E1.94677
G1 X194.116 Y217.286 E0.23744
G1 X200.213 Y223.384 E1.61099
G1 X198.943 Y223.384 E0.23744
G1 X194.116 Y218.557 E1.27520
G1 X194.116 Y219.828 E0.23744
G1 X197.672 Y223.384 E0.93941
G1 X196.401 Y223.384 E0.23744
G1 X194.116 Y221.099 E0.60362
G1 X194.116 Y222.370 E0.23744
G1 X195.531 Y223.786 E0.37397
M106 S84.15
;LAYER_CHANGE
;Z:1
;HEIGHT:0.5
;BEFORE_LAYER_CHANGE
G92 E0.0
;1


G1 E-2.24000 F4200.000
;WIPE_START
G1 F6240.000
G1 X194.523 Y222.777 E-0.91200
;WIPE_END
G1 E-0.04800 F4200.000
G1 Z0.700 F7800.000
G1 Z1.000
;AFTER_LAYER_CHANGE
;1
G1 X193.068 Y175.568
G1 E3.20000 F2400.000
;TYPE:Perimeter
;WIDTH:1
G1 F2016.357
G1 X241.932 Y175.568 E9.06777
G1 X241.932 Y224.432 E9.06777
M73 P9 R23
G1 X193.068 Y224.432 E9.06777
G1 X193.068 Y175.718 E9.03994
G1 X192.175 Y174.675 F7800.000
G1 F2016.357
G1 X242.825 Y174.675 E9.39909
G1 X242.825 Y225.325 E9.39909
G1 X192.175 Y225.325 E9.39909
G1 X192.175 Y174.825 E9.37125
G1 X191.282 Y173.982 F7800.000
;TYPE:External perimeter
G1 F1800.000
G1 X191.282 Y173.782 E0.03711
G1 X243.718 Y173.782 E9.73041
G1 X243.718 Y226.218 E9.73041
G1 X191.282 Y226.218 E9.73041
G1 X191.282 Y174.132 E9.66546
M73 P10 R23
G1 X191.424 Y173.841 F7800.000
G1 X239.678 Y223.986
;TYPE:Solid infill
;WIDTH:1.00162
G1 F1200.000
G1 X241.084 Y222.580 E0.36972
G1 X241.084 Y221.315 E0.23513
G1 X238.815 Y223.584 E0.59662
G1 X237.550 Y223.584 E0.23513
G1 X241.084 Y220.050 E0.92914
G1 X241.084 Y218.785 E0.23513
G1 X236.285 Y223.584 E1.26166
G1 X235.021 Y223.584 E0.23513
G1 X241.084 Y217.521 E1.59419
G1 X241.084 Y216.256 E0.23513
G1 X233.756 Y223.584 E1.92671
G1 X232.491 Y223.584 E0.23513
G1 X241.084 Y214.991 E2.25923
G1 X241.084 Y213.726 E0.23513
G1 X231.226 Y223.584 E2.59175
G1 X229.961 Y223.584 E0.23513
G1 X241.084 Y212.461 E2.92427
G1 X241.084 Y211.197 E0.23513
G1 X228.697 Y223.584 E3.25679
G1 X227.432 Y223.584 E0.23513
G1 X241.084 Y209.932 E3.58932
G1 X241.084 Y208.667 E0.23513
G1 X226.167 Y223.584 E3.92184
G1 X224.902 Y223.584 E0.23513
G1 X241.084 Y207.402 E4.25436
G1 X241.084 Y206.138 E0.23513
G1 X223.638 Y223.584 E4.58688
G1 X222.373 Y223.584 E0.23513
G1 X241.084 Y204.873 E4.91940
G1 X241.084 Y203.608 E0.23513
G1 X221.108 Y223.584 E5.25192
G1 X219.843 Y223.584 E0.23513
M73 P11 R23
G1 X241.084 Y202.343 E5.58444
G1 X241.084 Y201.079 E0.23513
M73 P11 R22
G1 X218.579 Y223.584 E5.91697
G1 X217.314 Y223.584 E0.23513
G1 X241.084 Y199.814 E6.24949
G1 X241.084 Y198.549 E0.23513
G1 X216.049 Y223.584 E6.58201
G1 X214.784 Y223.584 E0.23513
G1 X241.084 Y197.284 E6.91453
G1 X241.084 Y196.020 E0.23513
G1 X213.520 Y223.584 E7.24705
G1 X212.255 Y223.584 E0.23513
G1 X241.084 Y194.755 E7.57957
G1 X241.084 Y193.490 E0.23513
G1 X210.990 Y223.584 E7.91210
G1 X209.725 Y223.584 E0.23513
G1 X241.084 Y192.225 E8.24462
M73 P12 R22
G1 X241.084 Y190.961 E0.23513
G1 X208.461 Y223.584 E8.57714
G1 X207.196 Y223.584 E0.23513
G1 X241.084 Y189.696 E8.90966
G1 X241.084 Y188.431 E0.23513
G1 X205.931 Y223.584 E9.24218
G1 X204.666 Y223.584 E0.23513
G1 X241.084 Y187.166 E9.57470
G1 X241.084 Y185.902 E0.23513
G1 X203.402 Y223.584 E9.90723
G1 X202.137 Y223.584 E0.23513
G1 X241.084 Y184.637 E10.23975
M73 P13 R22
G1 X241.084 Y183.372 E0.23513
G1 X200.872 Y223.584 E10.57227
G1 X199.607 Y223.584 E0.23513
G1 X241.084 Y182.107 E10.90479
G1 X241.084 Y180.843 E0.23513
G1 X198.342 Y223.584 E11.23731
G1 X197.078 Y223.584 E0.23513
G1 X241.084 Y179.578 E11.56983
G1 X241.084 Y178.313 E0.23513
G1 X195.813 Y223.584 E11.90236
M73 P14 R22
G1 X194.548 Y223.584 E0.23513
G1 X241.084 Y177.048 E12.23488
G1 X241.084 Y176.416 E0.11755
G1 X240.452 Y176.416 E0.11757
G1 X193.916 Y222.952 E12.23484
G1 X193.916 Y221.687 E0.23513
G1 X239.187 Y176.416 E11.90232
G1 X237.922 Y176.416 E0.23513
G1 X193.916 Y220.422 E11.56980
M73 P15 R21
G1 X193.916 Y219.157 E0.23513
G1 X236.657 Y176.416 E11.23728
G1 X235.393 Y176.416 E0.23513
G1 X193.916 Y217.893 E10.90476
G1 X193.916 Y216.628 E0.23513
G1 X234.128 Y176.416 E10.57224
G1 X232.863 Y176.416 E0.23513
G1 X193.916 Y215.363 E10.23971
G1 X193.916 Y214.098 E0.23513
G1 X231.598 Y176.416 E9.90719
M73 P16 R21
G1 X230.334 Y176.416 E0.23513
G1 X193.916 Y212.834 E9.57467
G1 X193.916 Y211.569 E0.23513
G1 X229.069 Y176.416 E9.24215
G1 X227.804 Y176.416 E0.23513
G1 X193.916 Y210.304 E8.90963
G1 X193.916 Y209.039 E0.23513
G1 X226.539 Y176.416 E8.57711
G1 X225.275 Y176.416 E0.23513
G1 X193.916 Y207.775 E8.24458
G1 X193.916 Y206.510 E0.23513
G1 X224.010 Y176.416 E7.91206
G1 X222.745 Y176.416 E0.23513
G1 X193.916 Y205.245 E7.57954
M73 P17 R21
G1 X193.916 Y203.980 E0.23513
G1 X221.480 Y176.416 E7.24702
G1 X220.215 Y176.416 E0.23513
G1 X193.916 Y202.715 E6.91450
G1 X193.916 Y201.451 E0.23513
G1 X218.951 Y176.416 E6.58198
G1 X217.686 Y176.416 E0.23513
G1 X193.916 Y200.186 E6.24945
G1 X193.916 Y198.921 E0.23513
G1 X216.421 Y176.416 E5.91693
G1 X215.156 Y176.416 E0.23513
G1 X193.916 Y197.656 E5.58441
G1 X193.916 Y196.392 E0.23513
G1 X213.892 Y176.416 E5.25189
G1 X212.627 Y176.416 E0.23513
G1 X193.916 Y195.127 E4.91937
M73 P18 R21
G1 X193.916 Y193.862 E0.23513
G1 X211.362 Y176.416 E4.58685
G1 X210.097 Y176.416 E0.23513
G1 X193.916 Y192.597 E4.25432
G1 X193.916 Y191.333 E0.23513
G1 X208.833 Y176.416 E3.92180
G1 X207.568 Y176.416 E0.23513
G1 X193.916 Y190.068 E3.58928
G1 X193.916 Y188.803 E0.23513
G1 X206.303 Y176.416 E3.25676
G1 X205.038 Y176.416 E0.23513
G1 X193.916 Y187.538 E2.92424
G1 X193.916 Y186.274 E0.23513
G1 X203.774 Y176.416 E2.59172
G1 X202.509 Y176.416 E0.23513
G1 X193.916 Y185.009 E2.25920
G1 X193.916 Y183.744 E0.23513
G1 X201.244 Y176.416 E1.92667
G1 X199.979 Y176.416 E0.23513
G1 X193.916 Y182.479 E1.59415
G1 X193.916 Y181.215 E0.23513
G1 X198.715 Y176.416 E1.26163
G1 X197.450 Y176.416 E0.23513
G1 X193.916 Y179.950 E0.92911
G1 X193.916 Y178.685 E0.23513
G1 X196.185 Y176.416 E0.59659
G1 X194.920 Y176.416 E0.23513
G1 X193.514 Y177.822 E0.36968
M106 S170.85
;LAYER_CHANGE
;Z:1.5
;HEIGHT:0.5
;BEFORE_LAYER_CHANGE
G92 E0.0
;1.5


G1 E-2.24000 F4200.000
;WIPE_START
G1 F6240.000
G1 X194.523 Y176.813 E-0.91200
;WIPE_END
G1 E-0.04800 F4200.000
G1 Z1.200 F7800.000
G1 Z1.500
;AFTER_LAYER_CHANGE
;1.5
G1 X193.068 Y175.568
G1 E3.20000 F2400.000
;TYPE:Perimeter
;WIDTH:1
G1 F2016.357
G1 X241.932 Y175.568 E9.06777
G1 X241.932 Y224.432 E9.06777
G1 X193.068 Y224.432 E9.06777
G1 X193.068 Y175.718 E9.03994
M73 P19 R20
G1 X192.175 Y174.675 F7800.000
G1 F2016.357
G1 X242.825 Y174.675 E9.39909
G1 X242.825 Y225.325 E9.39909
G1 X192.175 Y225.325 E9.39909
G1 X192.175 Y174.825 E9.37125
G1 X191.282 Y173.982 F7800.000
;TYPE:External perimeter
G1 F1800.000
G1 X191.282 Y173.782 E0.03711
G1 X243.718 Y173.782 E9.73041
G1 X243.718 Y226.218 E9.73041
G1 X191.282 Y226.218 E9.73041
G1 X191.282 Y174.132 E9.66546
G1 X191.424 Y173.841 F7800.000
G1 X241.486 Y177.822
;TYPE:Solid infill
;WIDTH:1.00162
G1 F1200.000
G1 X240.080 Y176.416 E0.36972
M73 P20 R20
G1 X238.815 Y176.416 E0.23513
G1 X241.084 Y178.685 E0.59662
G1 X241.084 Y179.950 E0.23513
G1 X237.550 Y176.416 E0.92914
G1 X236.285 Y176.416 E0.23513
G1 X241.084 Y181.215 E1.26166
G1 X241.084 Y182.479 E0.23513
G1 X235.021 Y176.416 E1.59419
G1 X233.756 Y176.416 E0.23513
G1 X241.084 Y183.744 E1.92671
G1 X241.084 Y185.009 E0.23513
G1 X232.491 Y176.416 E2.25923
G1 X231.226 Y176.416 E0.23513
G1 X241.084 Y186.274 E2.59175
G1 X241.084 Y187.538 E0.23513
G1 X229.961 Y176.416 E2.92427
G1 X228.697 Y176.416 E0.23513
G1 X241.084 Y188.803 E3.25679
G1 X241.084 Y190.068 E0.23513
G1 X227.432 Y176.416 E3.58932
G1 X226.167 Y176.416 E0.23513
G1 X241.084 Y191.333 E3.92184
G1 X241.084 Y192.598 E0.23513
G1 X224.902 Y176.416 E4.25436
G1 X223.638 Y176.416 E0.23513
G1 X241.084 Y193.862 E4.58688
G1 X241.084 Y195.127 E0.23513
G1 X222.373 Y176.416 E4.91940
G1 X221.108 Y176.416 E0.23513
G1 X241.084 Y196.392 E5.25192
G1 X241.084 Y197.657 E0.23513
G1 X219.843 Y176.416 E5.58444
G1 X218.579 Y176.416 E0.23513
G1 X241.084 Y198.921 E5.91697
M73 P21 R20
G1 X241.084 Y200.186 E0.23513
G1 X217.314 Y176.416 E6.24949
G1 X216.049 Y176.416 E0.23513
G1 X241.084 Y201.451 E6.58201
G1 X241.084 Y202.716 E0.23513
G1 X214.784 Y176.416 E6.91453
G1 X213.520 Y176.416 E0.23513
G1 X241.084 Y203.980 E7.24705
G1 X241.084 Y205.245 E0.23513
G1 X212.255 Y176.416 E7.57957
G1 X210.990 Y176.416 E0.23513
G1 X241.084 Y206.510 E7.91210
G1 X241.084 Y207.775 E0.23513
G1 X209.725 Y176.416 E8.24462
G1 X208.461 Y176.416 E0.23513
