; generated by PrusaSlicer 2.3.1+win64 on 2021-07-20 at 07:16:17 UTC


;
;

;
;
; 

; external perimeters extrusion width = 1.12mm
; perimeters extrusion width = 1.12mm
; infill extrusion width = 1.12mm
; solid infill extrusion width = 1.12mm
; top infill extrusion width = 1.00mm
; first layer extrusion width = 1.00mm

M73 P0 R22
M201 X1250 Y1250 Z1250 E5000 ; sets maximum accelerations, mm/sec^2
M203 X400 Y400 Z400 E400 ; sets maximum feedrates, mm/sec
M204 P1250 R1250 T1250 ; sets acceleration (P, T) and retract acceleration (R), mm/sec^2
M205 X8.00 Y8.00 Z2.00 E10.00 ; sets the jerk limits, mm/sec
M205 S0 T0 ; sets the minimum extruding and travel feed rate, mm/sec
M107
M190 S85 ; set bed temperature and wait for it to be reached
;TYPE:Custom
G90 ; use absolute coordinates
M83 ; extruder relative mode
G28 ; home all without mesh bed level
G29 ; mesh bed leveling 
M104 S230 ; set extruder temp
G92 E0.0
G1 Y-2.0 X179 F2400
G1 Z3 F720
M109 S230 ; wait for extruder temp

; intro line
G1 X170 F1000
G1 Z0.2 F720
G1 X110.0 E8.0 F900
G1 X40.0 E10.0 F700
G92 E0.0

M221 S95 ; set flow
G21 ; set units to millimeters
G90 ; use absolute coordinates
M83 ; use relative distances for extrusion
M900 K0.2 ; Filament gcode
;LAYER_CHANGE
;Z:0.5
;HEIGHT:0.5
;BEFORE_LAYER_CHANGE
G92 E0.0
;0.5


M73 P1 R21
G1 E-3.20000 F2400.000
G1 Z0.200 F7800.000
G1 Z0.500
;AFTER_LAYER_CHANGE
;0.5
G1 Z0.700
G1 X182.369 Y165.397
G1 Z0.500
G1 E3.20000 F1500.000
;TYPE:Skirt
;WIDTH:1
G1 F1800.000
G1 X183.393 Y164.464 E0.25714
G1 X184.584 Y163.755 E0.25714
G1 X185.892 Y163.298 E0.25714
G1 X187.258 Y163.112 E0.25594
G1 X247.506 Y163.107 E11.18028
G1 X248.790 Y163.229 E0.23917
G1 X250.028 Y163.587 E0.23917
G1 X251.177 Y164.170 E0.23917
G1 X252.198 Y164.957 E0.23917
G1 X253.055 Y165.919 E0.23917
G1 X253.718 Y167.025 E0.23917
G1 X254.163 Y168.235 E0.23917
G1 X254.375 Y169.506 E0.23917
G1 X254.390 Y230.182 E11.25964
G1 X254.252 Y231.385 E0.22479
G1 X253.903 Y232.552 E0.22599
G1 X253.357 Y233.633 E0.22479
G1 X252.631 Y234.603 E0.22479
G1 X251.570 Y235.563 E0.26552
G1 X250.334 Y236.283 E0.26552
G1 X248.976 Y236.733 E0.26552
G1 X247.554 Y236.892 E0.26552
G1 X187.312 Y236.890 E11.17908
G1 X186.109 Y236.751 E0.22479
G1 X184.948 Y236.403 E0.22479
G1 X183.867 Y235.857 E0.22479
G1 X182.897 Y235.131 E0.22479
G1 X181.937 Y234.070 E0.26552
G1 X181.217 Y232.834 E0.26552
G1 X180.767 Y231.476 E0.26552
G1 X180.608 Y230.054 E0.26552
G1 X180.610 Y169.812 E11.17908
M73 P2 R21
G1 X180.749 Y168.609 E0.22479
G1 X181.097 Y167.448 E0.22479
G1 X181.643 Y166.367 E0.22479
G1 X182.279 Y165.518 E0.19695
G1 E-2.24000 F2400.000
;WIPE_START
G1 F6240.000
G1 X183.393 Y164.464 E-0.56024
G1 X184.220 Y163.971 E-0.35176
;WIPE_END
G1 E-0.04800 F2400.000
G1 Z0.700 F7800.000
G1 X188.200 Y170.700
G1 Z0.500
G1 E3.20000 F1500.000
;TYPE:External perimeter
G1 F1800.000
G1 X246.800 Y170.700 E10.87444
G1 X246.800 Y229.300 E10.87444
G1 X188.200 Y229.300 E10.87444
G1 X188.200 Y170.850 E10.84660
G1 E-2.24000 F2400.000
;WIPE_START
G1 F6240.000
G1 X190.696 Y170.844 E-0.91200
;WIPE_END
G1 E-0.04800 F2400.000
G1 Z0.700 F7800.000
G1 X244.725 Y170.968
G1 Z0.500
G1 E3.20000 F1500.000
;TYPE:Solid infill
;WIDTH:1.00123
G1 F1800.000
G1 X246.130 Y172.373 E0.36934
G1 X246.130 Y173.637 E0.23492
G1 X243.863 Y171.370 E0.59600
G1 X242.598 Y171.370 E0.23492
G1 X246.130 Y174.902 E0.92823
G1 X246.130 Y176.166 E0.23492
G1 X241.334 Y171.370 E1.26046
G1 X240.070 Y171.370 E0.23492
G1 X246.130 Y177.430 E1.59270
G1 X246.130 Y178.694 E0.23492
G1 X238.806 Y171.370 E1.92493
G1 X237.542 Y171.370 E0.23492
G1 X246.130 Y179.958 E2.25716
G1 X246.130 Y181.223 E0.23492
G1 X236.277 Y171.370 E2.58939
G1 X235.013 Y171.370 E0.23492
G1 X246.130 Y182.487 E2.92163
M73 P3 R21
G1 X246.130 Y183.751 E0.23492
G1 X233.749 Y171.370 E3.25386
G1 X232.485 Y171.370 E0.23492
G1 X246.130 Y185.015 E3.58609
G1 X246.130 Y186.280 E0.23492
G1 X231.220 Y171.370 E3.91832
G1 X229.956 Y171.370 E0.23492
G1 X246.130 Y187.544 E4.25056
G1 X246.130 Y188.808 E0.23492
G1 X228.692 Y171.370 E4.58279
G1 X227.428 Y171.370 E0.23492
G1 X246.130 Y190.072 E4.91502
G1 X246.130 Y191.336 E0.23492
G1 X226.164 Y171.370 E5.24725
G1 X224.899 Y171.370 E0.23492
G1 X246.130 Y192.601 E5.57949
G1 X246.130 Y193.865 E0.23492
G1 X223.635 Y171.370 E5.91172
G1 X222.371 Y171.370 E0.23492
G1 X246.130 Y195.129 E6.24395
G1 X246.130 Y196.393 E0.23492
G1 X221.107 Y171.370 E6.57618
G1 X219.843 Y171.370 E0.23492
G1 X246.130 Y197.657 E6.90842
G1 X246.130 Y198.922 E0.23492
G1 X218.578 Y171.370 E7.24065
M73 P4 R21
G1 X217.314 Y171.370 E0.23492
G1 X246.130 Y200.186 E7.57288
G1 X246.130 Y201.450 E0.23492
G1 X216.050 Y171.370 E7.90511
G1 X214.786 Y171.370 E0.23492
G1 X246.130 Y202.714 E8.23735
G1 X246.130 Y203.978 E0.23492
G1 X213.522 Y171.370 E8.56958
G1 X212.257 Y171.370 E0.23492
G1 X246.130 Y205.243 E8.90181
G1 X246.130 Y206.507 E0.23492
G1 X210.993 Y171.370 E9.23404
G1 X209.729 Y171.370 E0.23492
G1 X246.130 Y207.771 E9.56628
G1 X246.130 Y209.035 E0.23492
G1 X208.465 Y171.370 E9.89851
M73 P5 R21
G1 X207.201 Y171.370 E0.23492
G1 X246.130 Y210.299 E10.23074
G1 X246.130 Y211.564 E0.23492
G1 X205.936 Y171.370 E10.56297
G1 X204.672 Y171.370 E0.23492
G1 X246.130 Y212.828 E10.89520
G1 X246.130 Y214.092 E0.23492
G1 X203.408 Y171.370 E11.22744
M73 P5 R20
G1 X202.144 Y171.370 E0.23492
G1 X246.130 Y215.356 E11.55967
G1 X246.130 Y216.621 E0.23492
G1 X200.879 Y171.370 E11.89190
G1 X199.615 Y171.370 E0.23492
G1 X246.130 Y217.885 E12.22413
M73 P6 R20
G1 X246.130 Y219.149 E0.23492
G1 X198.351 Y171.370 E12.55637
G1 X197.087 Y171.370 E0.23492
G1 X246.130 Y220.413 E12.88860
G1 X246.130 Y221.677 E0.23492
G1 X195.823 Y171.370 E13.22083
G1 X194.558 Y171.370 E0.23492
G1 X246.130 Y222.942 E13.55306
G1 X246.130 Y224.206 E0.23492
G1 X193.294 Y171.370 E13.88530
M73 P7 R20
G1 X192.030 Y171.370 E0.23492
G1 X246.130 Y225.470 E14.21753
G1 X246.130 Y226.734 E0.23492
G1 X190.766 Y171.370 E14.54976
G1 X189.502 Y171.370 E0.23492
G1 X246.130 Y227.998 E14.88199
G1 X246.130 Y228.630 E0.11746
G1 X245.498 Y228.630 E0.11747
G1 X188.870 Y172.002 E14.88198
G1 X188.870 Y173.266 E0.23492
G1 X244.234 Y228.630 E14.54975
M73 P8 R20
G1 X242.970 Y228.630 E0.23492
G1 X188.870 Y174.530 E14.21751
G1 X188.870 Y175.794 E0.23492
G1 X241.706 Y228.630 E13.88528
G1 X240.442 Y228.630 E0.23492
G1 X188.870 Y177.058 E13.55305
G1 X188.870 Y178.323 E0.23492
G1 X239.177 Y228.630 E13.22082
G1 X237.913 Y228.630 E0.23492
G1 X188.870 Y179.587 E12.88858
M73 P9 R20
G1 X188.870 Y180.851 E0.23492
G1 X236.649 Y228.630 E12.55635
G1 X235.385 Y228.630 E0.23492
G1 X188.870 Y182.115 E12.22412
G1 X188.870 Y183.380 E0.23492
G1 X234.120 Y228.630 E11.89189
G1 X232.856 Y228.630 E0.23492
G1 X188.870 Y184.644 E11.55965
G1 X188.870 Y185.908 E0.23492
G1 X231.592 Y228.630 E11.22742
G1 X230.328 Y228.630 E0.23492
G1 X188.870 Y187.172 E10.89519
M73 P10 R20
G1 X188.870 Y188.436 E0.23492
G1 X229.064 Y228.630 E10.56296
M73 P10 R19
G1 X227.799 Y228.630 E0.23492
G1 X188.870 Y189.701 E10.23072
G1 X188.870 Y190.965 E0.23492
G1 X226.535 Y228.630 E9.89849
G1 X225.271 Y228.630 E0.23492
G1 X188.870 Y192.229 E9.56626
G1 X188.870 Y193.493 E0.23492
G1 X224.007 Y228.630 E9.23403
G1 X222.743 Y228.630 E0.23492
G1 X188.870 Y194.757 E8.90179
G1 X188.870 Y196.022 E0.23492
G1 X221.478 Y228.630 E8.56956
M73 P11 R19
G1 X220.214 Y228.630 E0.23492
G1 X188.870 Y197.286 E8.23733
G1 X188.870 Y198.550 E0.23492
G1 X218.950 Y228.630 E7.90510
G1 X217.686 Y228.630 E0.23492
G1 X188.870 Y199.814 E7.57286
G1 X188.870 Y201.078 E0.23492
G1 X216.422 Y228.630 E7.24063
G1 X215.157 Y228.630 E0.23492
G1 X188.870 Y202.343 E6.90840
G1 X188.870 Y203.607 E0.23492
G1 X213.893 Y228.630 E6.57617
G1 X212.629 Y228.630 E0.23492
G1 X188.870 Y204.871 E6.24393
G1 X188.870 Y206.135 E0.23492
G1 X211.365 Y228.630 E5.91170
G1 X210.100 Y228.630 E0.23492
G1 X188.870 Y207.400 E5.57947
G1 X188.870 Y208.664 E0.23492
G1 X208.836 Y228.630 E5.24724
M73 P12 R19
G1 X207.572 Y228.630 E0.23492
G1 X188.870 Y209.928 E4.91500
G1 X188.870 Y211.192 E0.23492
G1 X206.308 Y228.630 E4.58277
G1 X205.044 Y228.630 E0.23492
G1 X188.870 Y212.456 E4.25054
G1 X188.870 Y213.721 E0.23492
G1 X203.779 Y228.630 E3.91831
G1 X202.515 Y228.630 E0.23492
G1 X188.870 Y214.985 E3.58608
G1 X188.870 Y216.249 E0.23492
G1 X201.251 Y228.630 E3.25384
G1 X199.987 Y228.630 E0.23492
G1 X188.870 Y217.513 E2.92161
G1 X188.870 Y218.777 E0.23492
G1 X198.723 Y228.630 E2.58938
G1 X197.458 Y228.630 E0.23492
G1 X188.870 Y220.042 E2.25715
G1 X188.870 Y221.306 E0.23492
G1 X196.194 Y228.630 E1.92491
G1 X194.930 Y228.630 E0.23492
G1 X188.870 Y222.570 E1.59268
G1 X188.870 Y223.834 E0.23492
G1 X193.666 Y228.630 E1.26045
G1 X192.402 Y228.630 E0.23492
G1 X188.870 Y225.098 E0.92822
G1 X188.870 Y226.363 E0.23492
G1 X191.137 Y228.630 E0.59598
G1 X189.873 Y228.630 E0.23492
G1 X188.468 Y227.225 E0.36932
;LAYER_CHANGE
;Z:1.2
;HEIGHT:0.7
;BEFORE_LAYER_CHANGE
G92 E0.0
;1.2


G1 E-2.24000 F2400.000
;WIPE_START
G1 F6240.000
G1 X189.873 Y228.630 E-0.72618
G1 X190.382 Y228.630 E-0.18582
;WIPE_END
G1 E-0.04800 F2400.000
G1 Z0.700 F7800.000
G1 Z1.200
;AFTER_LAYER_CHANGE
;1.2
M104 S240 ; set temperature
M140 S90 ; set bed temperature
G1 X188.062 Y170.700
G1 E3.20000 F1500.000
;TYPE:External perimeter
;WIDTH:1.125
G1 F1800.000
G1 X188.062 Y170.562 E0.03901
G1 X246.938 Y170.562 E16.70202
G1 X246.938 Y229.438 E16.70202
G1 X188.062 Y229.438 E16.70202
M73 P13 R19
G1 X188.062 Y170.850 E16.62046
G1 X243.497 Y229.145 F7800.000
;TYPE:Internal infill
G1 F4800.000
G1 X246.206 Y226.435 E1.08711
G1 X246.206 Y222.989 E0.97769
G1 X240.489 Y228.706 E2.29378
G1 X237.043 Y228.706 E0.97769
G1 X246.206 Y219.543 E3.67644
G1 X246.206 Y216.096 E0.97768
G1 X233.596 Y228.706 E5.05909
G1 X230.150 Y228.706 E0.97769
G1 X246.206 Y212.650 E6.44175
G1 X246.206 Y209.204 E0.97769
G1 X226.704 Y228.706 E7.82440
G1 X223.257 Y228.706 E0.97769
G1 X246.206 Y205.757 E9.20706
G1 X246.206 Y202.311 E0.97769
G1 X219.811 Y228.706 E10.58971
G1 X216.364 Y228.706 E0.97769
G1 X246.206 Y198.864 E11.97237
G1 X246.206 Y195.418 E0.97768
G1 X212.918 Y228.706 E13.35502
G1 X209.472 Y228.706 E0.97769
G1 X246.206 Y191.972 E14.73768
G1 X246.206 Y188.525 E0.97769
G1 X206.025 Y228.706 E16.12034
G1 X202.579 Y228.706 E0.97769
G1 X246.206 Y185.079 E17.50299
G1 X246.206 Y181.633 E0.97769
G1 X199.133 Y228.706 E18.88565
G1 X195.686 Y228.706 E0.97769
G1 X246.206 Y178.186 E20.26830
M73 P14 R19
G1 X246.206 Y174.740 E0.97768
G1 X192.240 Y228.706 E21.65096
G1 X188.794 Y228.706 E0.97768
G1 X246.206 Y171.294 E23.03361
G1 X242.760 Y171.294 E0.97768
G1 X188.794 Y225.260 E21.65096
G1 X188.794 Y221.814 E0.97768
G1 X239.314 Y171.294 E20.26830
G1 X235.867 Y171.294 E0.97769
G1 X188.794 Y218.367 E18.88565
G1 X188.794 Y214.921 E0.97769
G1 X232.421 Y171.294 E17.50299
G1 X228.975 Y171.294 E0.97769
G1 X188.794 Y211.475 E16.12034
G1 X188.794 Y208.028 E0.97769
G1 X225.528 Y171.294 E14.73768
G1 X222.082 Y171.294 E0.97769
G1 X188.794 Y204.582 E13.35502
G1 X188.794 Y201.136 E0.97768
G1 X218.636 Y171.294 E11.97237
G1 X215.189 Y171.294 E0.97769
G1 X188.794 Y197.689 E10.58971
M73 P14 R18
G1 X188.794 Y194.243 E0.97769
G1 X211.743 Y171.294 E9.20706
G1 X208.296 Y171.294 E0.97769
G1 X188.794 Y190.796 E7.82440
G1 X188.794 Y187.350 E0.97769
G1 X204.850 Y171.294 E6.44175
G1 X201.404 Y171.294 E0.97769
G1 X188.794 Y183.904 E5.05909
G1 X188.794 Y180.457 E0.97768
G1 X197.957 Y171.294 E3.67644
G1 X194.511 Y171.294 E0.97769
G1 X188.794 Y177.011 E2.29378
G1 X188.794 Y173.565 E0.97769
G1 X191.503 Y170.855 E1.08711
;LAYER_CHANGE
;Z:1.9
;HEIGHT:0.7
;BEFORE_LAYER_CHANGE
G92 E0.0
;1.9


G1 E-2.24000 F2400.000
;WIPE_START
G1 F6240.000
G1 X189.738 Y172.620 E-0.91200
;WIPE_END
M73 P15 R18
G1 E-0.04800 F2400.000
G1 Z1.400 F7800.000
G1 Z1.900
;AFTER_LAYER_CHANGE
;1.9
G1 X188.062 Y170.700
G1 E3.20000 F1500.000
;TYPE:External perimeter
G1 F1800.000
G1 X188.062 Y170.562 E0.03901
G1 X246.938 Y170.562 E16.70202
G1 X246.938 Y229.438 E16.70202
G1 X188.062 Y229.438 E16.70202
G1 X188.062 Y170.850 E16.62046
G1 X246.645 Y174.003 F7800.000
;TYPE:Internal infill
G1 F4800.000
G1 X243.935 Y171.294 E1.08711
G1 X240.489 Y171.294 E0.97769
G1 X246.206 Y177.011 E2.29378
G1 X246.206 Y180.457 E0.97769
G1 X237.043 Y171.294 E3.67644
G1 X233.596 Y171.294 E0.97769
G1 X246.206 Y183.904 E5.05909
G1 X246.206 Y187.350 E0.97769
G1 X230.150 Y171.294 E6.44175
G1 X226.704 Y171.294 E0.97769
G1 X246.206 Y190.796 E7.82440
G1 X246.206 Y194.243 E0.97769
G1 X223.257 Y171.294 E9.20706
G1 X219.811 Y171.294 E0.97769
G1 X246.206 Y197.689 E10.58971
G1 X246.206 Y201.136 E0.97769
G1 X216.364 Y171.294 E11.97237
G1 X212.918 Y171.294 E0.97769
G1 X246.206 Y204.582 E13.35502
M73 P16 R18
G1 X246.206 Y208.028 E0.97769
G1 X209.472 Y171.294 E14.73768
G1 X206.025 Y171.294 E0.97769
G1 X246.206 Y211.475 E16.12034
G1 X246.206 Y214.921 E0.97769
G1 X202.579 Y171.294 E17.50299
G1 X199.133 Y171.294 E0.97769
G1 X246.206 Y218.367 E18.88565
G1 X246.206 Y221.814 E0.97769
G1 X195.686 Y171.294 E20.26830
G1 X192.240 Y171.294 E0.97769
G1 X246.206 Y225.260 E21.65096
G1 X246.206 Y228.706 E0.97769
G1 X188.794 Y171.294 E23.03361
G1 X188.794 Y174.740 E0.97769
G1 X242.760 Y228.706 E21.65096
G1 X239.314 Y228.706 E0.97769
G1 X188.794 Y178.186 E20.26830
G1 X188.794 Y181.633 E0.97769
G1 X235.867 Y228.706 E18.88565
G1 X232.421 Y228.706 E0.97769
G1 X188.794 Y185.079 E17.50299
G1 X188.794 Y188.525 E0.97769
G1 X228.975 Y228.706 E16.12034
G1 X225.528 Y228.706 E0.97769
G1 X188.794 Y191.972 E14.73768
G1 X188.794 Y195.418 E0.97769
G1 X222.082 Y228.706 E13.35502
M73 P17 R18
G1 X218.636 Y228.706 E0.97769
G1 X188.794 Y198.864 E11.97237
G1 X188.794 Y202.311 E0.97769
G1 X215.189 Y228.706 E10.58971
G1 X211.743 Y228.706 E0.97769
G1 X188.794 Y205.757 E9.20706
G1 X188.794 Y209.204 E0.97769
G1 X208.296 Y228.706 E7.82440
G1 X204.850 Y228.706 E0.97769
G1 X188.794 Y212.650 E6.44175
G1 X188.794 Y216.096 E0.97769
G1 X201.404 Y228.706 E5.05909
G1 X197.957 Y228.706 E0.97769
G1 X188.794 Y219.543 E3.67644
G1 X188.794 Y222.989 E0.97769
G1 X194.511 Y228.706 E2.29378
G1 X191.065 Y228.706 E0.97769
G1 X188.355 Y225.997 E1.08711
M106 S38.25
;LAYER_CHANGE
;Z:2.6
;HEIGHT:0.7
;BEFORE_LAYER_CHANGE
G92 E0.0
;2.6


G1 E-2.24000 F2400.000
;WIPE_START
G1 F6240.000
G1 X190.120 Y227.762 E-0.91200
;WIPE_END
G1 E-0.04800 F2400.000
G1 Z2.100 F7800.000
G1 Z2.600
;AFTER_LAYER_CHANGE
;2.6
G1 X188.062 Y170.700
G1 E3.20000 F1500.000
;TYPE:External perimeter
G1 F1800.000
G1 X188.062 Y170.562 E0.03901
G1 X246.938 Y170.562 E16.70202
G1 X246.938 Y229.438 E16.70202
G1 X188.062 Y229.438 E16.70202
G1 X188.062 Y170.850 E16.62046
G1 X243.497 Y229.145 F7800.000
;TYPE:Internal infill
M73 P18 R18
G1 F4800.000
G1 X246.206 Y226.435 E1.08711
G1 X246.206 Y222.989 E0.97769
G1 X240.489 Y228.706 E2.29378
G1 X237.043 Y228.706 E0.97769
G1 X246.206 Y219.543 E3.67644
G1 X246.206 Y216.096 E0.97768
G1 X233.596 Y228.706 E5.05909
G1 X230.150 Y228.706 E0.97769
G1 X246.206 Y212.650 E6.44175
G1 X246.206 Y209.204 E0.97769
G1 X226.704 Y228.706 E7.82440
G1 X223.257 Y228.706 E0.97769
G1 X246.206 Y205.757 E9.20706
G1 X246.206 Y202.311 E0.97769
G1 X219.811 Y228.706 E10.58971
G1 X216.364 Y228.706 E0.97769
G1 X246.206 Y198.864 E11.97237
G1 X246.206 Y195.418 E0.97768
G1 X212.918 Y228.706 E13.35502
G1 X209.472 Y228.706 E0.97769
G1 X246.206 Y191.972 E14.73768
G1 X246.206 Y188.525 E0.97769
G1 X206.025 Y228.706 E16.12034
G1 X202.579 Y228.706 E0.97769
G1 X246.206 Y185.079 E17.50299
G1 X246.206 Y181.633 E0.97769
G1 X199.133 Y228.706 E18.88565
G1 X195.686 Y228.706 E0.97769
G1 X246.206 Y178.186 E20.26830
G1 X246.206 Y174.740 E0.97768
G1 X192.240 Y228.706 E21.65096
G1 X188.794 Y228.706 E0.97768
G1 X246.206 Y171.294 E23.03361
G1 X242.760 Y171.294 E0.97768
G1 X188.794 Y225.260 E21.65096
G1 X188.794 Y221.814 E0.97768
M73 P19 R18
G1 X239.314 Y171.294 E20.26830
G1 X235.867 Y171.294 E0.97769
G1 X188.794 Y218.367 E18.88565
G1 X188.794 Y214.921 E0.97769
G1 X232.421 Y171.294 E17.50299
G1 X228.975 Y171.294 E0.97769
G1 X188.794 Y211.475 E16.12034
G1 X188.794 Y208.028 E0.97769
G1 X225.528 Y171.294 E14.73768
G1 X222.082 Y171.294 E0.97769
G1 X188.794 Y204.582 E13.35502
M73 P19 R17
G1 X188.794 Y201.136 E0.97768
