; generated by PrusaSlicer 2.3.1+win64 on 2021-06-17 at 06:24:00 UTC


;
;

;
;
; 

; external perimeters extrusion width = 1.00mm
; perimeters extrusion width = 1.00mm
; infill extrusion width = 1.00mm
; solid infill extrusion width = 1.00mm
; top infill extrusion width = 1.00mm
; first layer extrusion width = 1.00mm

M73 P0 R26
M201 X1250 Y1250 Z1250 E5000 ; sets maximum accelerations, mm/sec^2
M203 X180 Y180 Z180 E180 ; sets maximum feedrates, mm/sec
M204 P1250 R1250 T1250 ; sets acceleration (P, T) and retract acceleration (R), mm/sec^2
M205 X8.00 Y8.00 Z2.00 E10.00 ; sets the jerk limits, mm/sec
M205 S0 T0 ; sets the minimum extruding and travel feed rate, mm/sec
M107
M190 S60 ; set bed temperature and wait for it to be reached
;TYPE:Custom
G90 ; use absolute coordinates
M83 ; extruder relative mode
G28 ; home all without mesh bed level
G29 ; mesh bed leveling 
M104 S215 ; set extruder temp
G92 E0.0
G1 Y-2.0 X179 F2400
M73 P0 R25
G1 Z3 F720
M109 S215 ; wait for extruder temp

; intro line
G1 X170 F1000
G1 Z0.2 F720
G1 X110.0 E8.0 F900
G1 X40.0 E10.0 F700
G92 E0.0

M221 S95 ; set flow
G21 ; set units to millimeters
G90 ; use absolute coordinates
M83 ; use relative distances for extrusion
M900 K0.2 ; Filament gcode LA 1.5
; ; Filament gcode LA 1.0
;LAYER_CHANGE
;Z:0.35
;HEIGHT:0.35
;BEFORE_LAYER_CHANGE
G92 E0.0
;0.35


M73 P1 R25
G1 E-3.20000 F4200.000
G1 Z0.200 F7800.000
G1 Z0.350
;AFTER_LAYER_CHANGE
;0.35
G1 Z0.550
G1 X185.175 Y168.259
G1 Z0.350
G1 E3.20000 F2400.000
;TYPE:Skirt
;WIDTH:1
G1 F1800.000
G1 X186.196 Y167.318 E0.18693
G1 X187.390 Y166.596 E0.18780
G1 X188.699 Y166.131 E0.18693
G1 X190.081 Y165.935 E0.18780
G1 X244.652 Y165.930 E7.34438
G1 X245.938 Y166.051 E0.17386
G1 X247.173 Y166.408 E0.17299
G1 X248.327 Y166.989 E0.17386
G1 X249.352 Y167.775 E0.17386
G1 X250.210 Y168.732 E0.17299
G1 X250.878 Y169.838 E0.17386
G1 X251.329 Y171.042 E0.17299
G1 X251.549 Y172.315 E0.17386
G1 X251.567 Y227.347 E7.40643
G1 X251.427 Y228.546 E0.16254
G1 X251.083 Y229.697 E0.16166
G1 X250.545 Y230.771 E0.16166
G1 X249.825 Y231.741 E0.16254
G1 X248.757 Y232.717 E0.19476
G1 X247.515 Y233.448 E0.19389
G1 X246.149 Y233.905 E0.19389
G1 X244.711 Y234.070 E0.19476
G1 X190.147 Y234.067 E7.34351
G1 X188.954 Y233.927 E0.16166
G1 X187.803 Y233.583 E0.16166
G1 X186.729 Y233.045 E0.16166
G1 X185.759 Y232.325 E0.16254
G1 X184.783 Y231.257 E0.19476
G1 X184.052 Y230.015 E0.19389
G1 X183.595 Y228.649 E0.19389
G1 X183.430 Y227.211 E0.19476
G1 X183.433 Y172.647 E7.34351
G1 X183.573 Y171.454 E0.16166
G1 X183.917 Y170.303 E0.16166
G1 X184.455 Y169.229 E0.16166
G1 X185.085 Y168.379 E0.14235
G1 E-2.24000 F4200.000
;WIPE_START
G1 F6240.000
G1 X186.116 Y167.394 E-0.91200
;WIPE_END
G1 E-0.04800 F4200.000
G1 Z0.550 F7800.000
G1 X192.904 Y175.404
G1 Z0.350
G1 E3.20000 F2400.000
;TYPE:Perimeter
G1 F1800.000
G1 X242.096 Y175.404 E6.62031
G1 X242.096 Y224.596 E6.62031
G1 X192.904 Y224.596 E6.62031
M73 P2 R25
G1 X192.904 Y175.554 E6.60012
G1 X191.980 Y174.480 F7800.000
G1 F1800.000
G1 X243.020 Y174.480 E6.86926
G1 X243.020 Y225.520 E6.86926
G1 X191.980 Y225.520 E6.86926
G1 X191.980 Y174.630 E6.84907
G1 X191.055 Y173.555 F7800.000
;TYPE:External perimeter
G1 F1800.000
G1 X243.945 Y173.555 E7.11821
G1 X243.945 Y226.445 E7.11821
G1 X191.055 Y226.445 E7.11821
G1 X191.055 Y173.705 E7.09802
M73 P3 R25
G1 X192.021 Y173.813 F7800.000
G1 E-2.24000 F4200.000
;WIPE_START
G1 F6240.000
G1 X192.481 Y173.701 E-0.91200
;WIPE_END
G1 E-0.04800 F4200.000
G1 Z0.550 F7800.000
G1 X239.738 Y175.867
G1 Z0.350
G1 E3.20000 F2400.000
;TYPE:Solid infill
;WIDTH:1.01195
G1 F1800.000
G1 X241.217 Y177.346 E0.28508
G1 X241.217 Y178.671 E0.18061
G1 X238.829 Y176.283 E0.46027
G1 X237.505 Y176.283 E0.18061
G1 X241.217 Y179.995 E0.71570
G1 X241.217 Y181.320 E0.18061
G1 X236.180 Y176.283 E0.97112
G1 X234.855 Y176.283 E0.18061
G1 X241.217 Y182.645 E1.22655
G1 X241.217 Y183.970 E0.18061
G1 X233.530 Y176.283 E1.48198
G1 X232.205 Y176.283 E0.18061
G1 X241.217 Y185.295 E1.73740
G1 X241.217 Y186.620 E0.18061
G1 X230.880 Y176.283 E1.99283
G1 X229.555 Y176.283 E0.18061
G1 X241.217 Y187.945 E2.24825
G1 X241.217 Y189.270 E0.18061
G1 X228.230 Y176.283 E2.50368
G1 X226.905 Y176.283 E0.18061
G1 X241.217 Y190.595 E2.75911
G1 X241.217 Y191.919 E0.18061
G1 X225.581 Y176.283 E3.01453
G1 X224.256 Y176.283 E0.18061
G1 X241.217 Y193.244 E3.26996
G1 X241.217 Y194.569 E0.18061
G1 X222.931 Y176.283 E3.52539
G1 X221.606 Y176.283 E0.18061
G1 X241.217 Y195.894 E3.78081
G1 X241.217 Y197.219 E0.18061
G1 X220.281 Y176.283 E4.03624
G1 X218.956 Y176.283 E0.18061
G1 X241.217 Y198.544 E4.29167
G1 X241.217 Y199.869 E0.18061
G1 X217.631 Y176.283 E4.54709
G1 X216.306 Y176.283 E0.18061
G1 X241.217 Y201.194 E4.80252
G1 X241.217 Y202.519 E0.18061
G1 X214.981 Y176.283 E5.05794
M73 P4 R25
G1 X213.656 Y176.283 E0.18061
G1 X241.217 Y203.844 E5.31337
M73 P4 R24
G1 X241.217 Y205.168 E0.18061
G1 X212.332 Y176.283 E5.56880
G1 X211.007 Y176.283 E0.18061
G1 X241.217 Y206.493 E5.82422
G1 X241.217 Y207.818 E0.18061
G1 X209.682 Y176.283 E6.07965
G1 X208.357 Y176.283 E0.18061
G1 X241.217 Y209.143 E6.33508
G1 X241.217 Y210.468 E0.18061
G1 X207.032 Y176.283 E6.59050
G1 X205.707 Y176.283 E0.18061
G1 X241.217 Y211.793 E6.84593
G1 X241.217 Y213.118 E0.18061
G1 X204.382 Y176.283 E7.10135
G1 X203.057 Y176.283 E0.18061
G1 X241.217 Y214.443 E7.35678
M73 P5 R24
G1 X241.217 Y215.768 E0.18061
G1 X201.732 Y176.283 E7.61221
G1 X200.407 Y176.283 E0.18061
G1 X241.217 Y217.092 E7.86763
G1 X241.217 Y218.417 E0.18061
G1 X199.083 Y176.283 E8.12306
G1 X197.758 Y176.283 E0.18061
G1 X241.217 Y219.742 E8.37849
G1 X241.217 Y221.067 E0.18061
G1 X196.433 Y176.283 E8.63391
G1 X195.108 Y176.283 E0.18061
G1 X241.217 Y222.392 E8.88934
G1 X241.217 Y223.717 E0.18060
G1 X193.783 Y176.283 E9.14475
G1 X193.783 Y177.608 E0.18061
G1 X239.892 Y223.717 E8.88931
M73 P6 R24
G1 X238.567 Y223.717 E0.18061
G1 X193.783 Y178.933 E8.63389
G1 X193.783 Y180.258 E0.18061
G1 X237.242 Y223.717 E8.37846
G1 X235.917 Y223.717 E0.18061
G1 X193.783 Y181.583 E8.12304
G1 X193.783 Y182.908 E0.18061
G1 X234.592 Y223.717 E7.86761
G1 X233.267 Y223.717 E0.18061
G1 X193.783 Y184.233 E7.61218
G1 X193.783 Y185.557 E0.18061
G1 X231.943 Y223.717 E7.35676
G1 X230.618 Y223.717 E0.18061
G1 X193.783 Y186.882 E7.10133
M73 P7 R24
G1 X193.783 Y188.207 E0.18061
G1 X229.293 Y223.717 E6.84590
G1 X227.968 Y223.717 E0.18061
G1 X193.783 Y189.532 E6.59048
G1 X193.783 Y190.857 E0.18061
G1 X226.643 Y223.717 E6.33505
G1 X225.318 Y223.717 E0.18061
G1 X193.783 Y192.182 E6.07962
G1 X193.783 Y193.507 E0.18061
G1 X223.993 Y223.717 E5.82420
G1 X222.668 Y223.717 E0.18061
G1 X193.783 Y194.832 E5.56877
G1 X193.783 Y196.157 E0.18061
G1 X221.343 Y223.717 E5.31335
G1 X220.019 Y223.717 E0.18061
G1 X193.783 Y197.481 E5.05792
G1 X193.783 Y198.806 E0.18061
G1 X218.694 Y223.717 E4.80249
G1 X217.369 Y223.717 E0.18061
G1 X193.783 Y200.131 E4.54707
G1 X193.783 Y201.456 E0.18061
G1 X216.044 Y223.717 E4.29164
M73 P8 R24
G1 X214.719 Y223.717 E0.18061
M73 P8 R23
G1 X193.783 Y202.781 E4.03621
G1 X193.783 Y204.106 E0.18061
G1 X213.394 Y223.717 E3.78079
G1 X212.069 Y223.717 E0.18061
G1 X193.783 Y205.431 E3.52536
G1 X193.783 Y206.756 E0.18061
G1 X210.744 Y223.717 E3.26993
G1 X209.419 Y223.717 E0.18061
G1 X193.783 Y208.081 E3.01451
G1 X193.783 Y209.406 E0.18061
G1 X208.094 Y223.717 E2.75908
G1 X206.770 Y223.717 E0.18061
G1 X193.783 Y210.730 E2.50366
G1 X193.783 Y212.055 E0.18061
G1 X205.445 Y223.717 E2.24823
G1 X204.120 Y223.717 E0.18061
G1 X193.783 Y213.380 E1.99280
G1 X193.783 Y214.705 E0.18061
G1 X202.795 Y223.717 E1.73738
G1 X201.470 Y223.717 E0.18061
G1 X193.783 Y216.030 E1.48195
G1 X193.783 Y217.355 E0.18061
G1 X200.145 Y223.717 E1.22652
G1 X198.820 Y223.717 E0.18061
G1 X193.783 Y218.680 E0.97110
G1 X193.783 Y220.005 E0.18061
G1 X197.495 Y223.717 E0.71567
G1 X196.170 Y223.717 E0.18061
G1 X193.783 Y221.330 E0.46025
G1 X193.783 Y222.655 E0.18061
G1 X195.262 Y224.133 E0.28506
M106 S84.15
;LAYER_CHANGE
;Z:0.9
;HEIGHT:0.55
;BEFORE_LAYER_CHANGE
G92 E0.0
;0.9


G1 E-2.24000 F4200.000
;WIPE_START
G1 F6240.000
G1 X194.253 Y223.125 E-0.91200
;WIPE_END
G1 E-0.04800 F4200.000
G1 Z0.550 F7800.000
G1 Z0.900
;AFTER_LAYER_CHANGE
;0.9
G1 X192.619 Y175.119
G1 E3.20000 F2400.000
;TYPE:Perimeter
;WIDTH:1
G1 F1855.353
G1 X242.381 Y175.119 E10.03586
G1 X242.381 Y224.881 E10.03586
G1 X192.619 Y224.881 E10.03586
M73 P9 R23
G1 X192.619 Y175.269 E10.00561
G1 X191.737 Y174.237 F7800.000
G1 F1855.353
G1 X243.263 Y174.237 E10.39160
G1 X243.263 Y225.763 E10.39160
G1 X191.737 Y225.763 E10.39160
G1 X191.737 Y174.387 E10.36135
G1 X190.855 Y173.555 F7800.000
;TYPE:External perimeter
G1 F1800.000
G1 X190.855 Y173.355 E0.04033
G1 X244.145 Y173.355 E10.74734
G1 X244.145 Y226.645 E10.74734
G1 X190.855 Y226.645 E10.74734
G1 X190.855 Y173.705 E10.67676
M73 P10 R23
G1 X190.996 Y173.413 F7800.000
G1 X240.145 Y224.440
;TYPE:Solid infill
;WIDTH:1.00589
G1 F1200.000
G1 X241.544 Y223.042 E0.40150
G1 X241.544 Y221.786 E0.25491
G1 X239.286 Y224.044 E0.64805
G1 X238.031 Y224.044 E0.25491
G1 X241.544 Y220.531 E1.00856
G1 X241.544 Y219.275 E0.25491
G1 X236.775 Y224.044 E1.36906
G1 X235.520 Y224.044 E0.25491
G1 X241.544 Y218.020 E1.72957
G1 X241.544 Y216.764 E0.25491
G1 X234.264 Y224.044 E2.09007
G1 X233.008 Y224.044 E0.25491
G1 X241.544 Y215.508 E2.45057
G1 X241.544 Y214.253 E0.25491
G1 X231.753 Y224.044 E2.81108
G1 X230.497 Y224.044 E0.25491
G1 X241.544 Y212.997 E3.17158
G1 X241.544 Y211.741 E0.25491
G1 X229.241 Y224.044 E3.53209
G1 X227.986 Y224.044 E0.25491
G1 X241.544 Y210.486 E3.89259
G1 X241.544 Y209.230 E0.25491
G1 X226.730 Y224.044 E4.25309
G1 X225.475 Y224.044 E0.25491
G1 X241.544 Y207.975 E4.61360
G1 X241.544 Y206.719 E0.25491
G1 X224.219 Y224.044 E4.97410
G1 X222.963 Y224.044 E0.25491
G1 X241.544 Y205.463 E5.33460
G1 X241.544 Y204.208 E0.25491
G1 X221.708 Y224.044 E5.69511
G1 X220.452 Y224.044 E0.25491
G1 X241.544 Y202.952 E6.05561
M73 P11 R23
G1 X241.544 Y201.697 E0.25491
G1 X219.197 Y224.044 E6.41612
G1 X217.941 Y224.044 E0.25491
G1 X241.544 Y200.441 E6.77662
G1 X241.544 Y199.185 E0.25491
G1 X216.685 Y224.044 E7.13712
G1 X215.430 Y224.044 E0.25491
G1 X241.544 Y197.930 E7.49763
G1 X241.544 Y196.674 E0.25491
G1 X214.174 Y224.044 E7.85813
G1 X212.918 Y224.044 E0.25491
G1 X241.544 Y195.418 E8.21863
G1 X241.544 Y194.163 E0.25491
G1 X211.663 Y224.044 E8.57914
G1 X210.407 Y224.044 E0.25491
G1 X241.544 Y192.907 E8.93964
M73 P12 R22
G1 X241.544 Y191.652 E0.25491
G1 X209.152 Y224.044 E9.30015
G1 X207.896 Y224.044 E0.25491
G1 X241.544 Y190.396 E9.66065
G1 X241.544 Y189.140 E0.25491
G1 X206.640 Y224.044 E10.02115
G1 X205.385 Y224.044 E0.25491
G1 X241.544 Y187.885 E10.38166
G1 X241.544 Y186.629 E0.25491
G1 X204.129 Y224.044 E10.74216
G1 X202.874 Y224.044 E0.25491
G1 X241.544 Y185.374 E11.10266
M73 P13 R22
G1 X241.544 Y184.118 E0.25491
G1 X201.618 Y224.044 E11.46317
G1 X200.362 Y224.044 E0.25491
G1 X241.544 Y182.862 E11.82367
G1 X241.544 Y181.607 E0.25491
G1 X199.107 Y224.044 E12.18418
G1 X197.851 Y224.044 E0.25491
G1 X241.544 Y180.351 E12.54468
G1 X241.544 Y179.095 E0.25491
G1 X196.595 Y224.044 E12.90518
M73 P14 R22
G1 X195.340 Y224.044 E0.25491
G1 X241.544 Y177.840 E13.26569
G1 X241.544 Y176.584 E0.25491
G1 X194.084 Y224.044 E13.62619
G1 X193.456 Y224.044 E0.12745
G1 X193.456 Y223.416 E0.12747
G1 X240.916 Y175.956 E13.62617
G1 X239.660 Y175.956 E0.25491
G1 X193.456 Y222.160 E13.26566
G1 X193.456 Y220.904 E0.25491
G1 X238.404 Y175.956 E12.90516
M73 P15 R22
G1 X237.149 Y175.956 E0.25491
G1 X193.456 Y219.649 E12.54466
G1 X193.456 Y218.393 E0.25491
G1 X235.893 Y175.956 E12.18415
G1 X234.638 Y175.956 E0.25491
G1 X193.456 Y217.138 E11.82365
G1 X193.456 Y215.882 E0.25491
G1 X233.382 Y175.956 E11.46315
M73 P15 R21
G1 X232.126 Y175.956 E0.25491
G1 X193.456 Y214.626 E11.10264
M73 P16 R21
G1 X193.456 Y213.371 E0.25491
G1 X230.871 Y175.956 E10.74214
G1 X229.615 Y175.956 E0.25491
G1 X193.456 Y212.115 E10.38163
G1 X193.456 Y210.860 E0.25491
G1 X228.360 Y175.956 E10.02113
G1 X227.104 Y175.956 E0.25491
G1 X193.456 Y209.604 E9.66063
G1 X193.456 Y208.348 E0.25491
G1 X225.848 Y175.956 E9.30012
G1 X224.593 Y175.956 E0.25491
G1 X193.456 Y207.093 E8.93962
M73 P17 R21
G1 X193.456 Y205.837 E0.25491
G1 X223.337 Y175.956 E8.57912
G1 X222.081 Y175.956 E0.25491
G1 X193.456 Y204.581 E8.21861
G1 X193.456 Y203.326 E0.25491
G1 X220.826 Y175.956 E7.85811
G1 X219.570 Y175.956 E0.25491
G1 X193.456 Y202.070 E7.49760
G1 X193.456 Y200.815 E0.25491
G1 X218.315 Y175.956 E7.13710
G1 X217.059 Y175.956 E0.25491
G1 X193.456 Y199.559 E6.77660
G1 X193.456 Y198.303 E0.25491
G1 X215.803 Y175.956 E6.41609
G1 X214.548 Y175.956 E0.25491
G1 X193.456 Y197.048 E6.05559
M73 P18 R21
G1 X193.456 Y195.792 E0.25491
G1 X213.292 Y175.956 E5.69509
G1 X212.037 Y175.956 E0.25491
G1 X193.456 Y194.537 E5.33458
G1 X193.456 Y193.281 E0.25491
G1 X210.781 Y175.956 E4.97408
G1 X209.525 Y175.956 E0.25491
G1 X193.456 Y192.025 E4.61357
G1 X193.456 Y190.770 E0.25491
G1 X208.270 Y175.956 E4.25307
G1 X207.014 Y175.956 E0.25491
G1 X193.456 Y189.514 E3.89257
G1 X193.456 Y188.258 E0.25491
G1 X205.758 Y175.956 E3.53206
G1 X204.503 Y175.956 E0.25491
G1 X193.456 Y187.003 E3.17156
G1 X193.456 Y185.747 E0.25491
G1 X203.247 Y175.956 E2.81106
G1 X201.992 Y175.956 E0.25491
G1 X193.456 Y184.492 E2.45055
G1 X193.456 Y183.236 E0.25491
G1 X200.736 Y175.956 E2.09005
G1 X199.480 Y175.956 E0.25491
G1 X193.456 Y181.980 E1.72954
G1 X193.456 Y180.725 E0.25491
G1 X198.225 Y175.956 E1.36904
G1 X196.969 Y175.956 E0.25491
G1 X193.456 Y179.469 E1.00854
G1 X193.456 Y178.214 E0.25491
G1 X195.714 Y175.956 E0.64803
G1 X194.458 Y175.956 E0.25491
G1 X193.060 Y177.355 E0.40148
M106 S170.85
;LAYER_CHANGE
;Z:1.45
;HEIGHT:0.55
;BEFORE_LAYER_CHANGE
G92 E0.0
;1.45


G1 E-2.24000 F4200.000
;WIPE_START
G1 F6240.000
G1 X194.068 Y176.346 E-0.91200
;WIPE_END
G1 E-0.04800 F4200.000
G1 Z1.100 F7800.000
G1 Z1.450
;AFTER_LAYER_CHANGE
;1.45
G1 X192.619 Y175.119
G1 E3.20000 F2400.000
;TYPE:Perimeter
;WIDTH:1
G1 F1855.353
G1 X242.381 Y175.119 E10.03586
M73 P19 R21
G1 X242.381 Y224.881 E10.03586
G1 X192.619 Y224.881 E10.03586
G1 X192.619 Y175.269 E10.00561
G1 X191.737 Y174.237 F7800.000
G1 F1855.353
G1 X243.263 Y174.237 E10.39160
G1 X243.263 Y225.763 E10.39160
G1 X191.737 Y225.763 E10.39160
G1 X191.737 Y174.387 E10.36135
M73 P19 R20
G1 X190.855 Y173.555 F7800.000
;TYPE:External perimeter
G1 F1800.000
G1 X190.855 Y173.355 E0.04033
G1 X244.145 Y173.355 E10.74734
G1 X244.145 Y226.645 E10.74734
M73 P20 R20
G1 X190.855 Y226.645 E10.74734
G1 X190.855 Y173.705 E10.67676
G1 X190.996 Y173.413 F7800.000
G1 X241.940 Y177.355
;TYPE:Solid infill
;WIDTH:1.00589
G1 F1200.000
G1 X240.542 Y175.956 E0.40150
G1 X239.286 Y175.956 E0.25491
G1 X241.544 Y178.214 E0.64805
G1 X241.544 Y179.469 E0.25491
G1 X238.031 Y175.956 E1.00856
G1 X236.775 Y175.956 E0.25491
G1 X241.544 Y180.725 E1.36906
G1 X241.544 Y181.980 E0.25491
G1 X235.520 Y175.956 E1.72957
G1 X234.264 Y175.956 E0.25491
G1 X241.544 Y183.236 E2.09007
G1 X241.544 Y184.492 E0.25491
G1 X233.008 Y175.956 E2.45057
G1 X231.753 Y175.956 E0.25491
G1 X241.544 Y185.747 E2.81108
G1 X241.544 Y187.003 E0.25491
G1 X230.497 Y175.956 E3.17158
G1 X229.241 Y175.956 E0.25491
G1 X241.544 Y188.259 E3.53209
G1 X241.544 Y189.514 E0.25491
G1 X227.986 Y175.956 E3.89259
G1 X226.730 Y175.956 E0.25491
G1 X241.544 Y190.770 E4.25309
G1 X241.544 Y192.025 E0.25491
G1 X225.475 Y175.956 E4.61360
G1 X224.219 Y175.956 E0.25491
G1 X241.544 Y193.281 E4.97410
G1 X241.544 Y194.537 E0.25491
G1 X222.963 Y175.956 E5.33460
M73 P21 R20
G1 X221.708 Y175.956 E0.25491
G1 X241.544 Y195.792 E5.69511
G1 X241.544 Y197.048 E0.25491
G1 X220.452 Y175.956 E6.05561
G1 X219.197 Y175.956 E0.25491
G1 X241.544 Y198.303 E6.41612
G1 X241.544 Y199.559 E0.25491
G1 X217.941 Y175.956 E6.77662
G1 X216.685 Y175.956 E0.25491
G1 X241.544 Y200.815 E7.13712
G1 X241.544 Y202.070 E0.25491
G1 X215.430 Y175.956 E7.49763
G1 X214.174 Y175.956 E0.25491
G1 X241.544 Y203.326 E7.85813
G1 X241.544 Y204.582 E0.25491
G1 X212.918 Y175.956 E8.21863
M73 P22 R20
G1 X211.663 Y175.956 E0.25491
G1 X241.544 Y205.837 E8.57914
G1 X241.544 Y207.093 E0.25491
