; generated by PrusaSlicer 2.3.1+win64 on 2021-07-19 at 13:53:22 UTC


;
;

;
;
; 

; external perimeters extrusion width = 1.12mm
; perimeters extrusion width = 1.12mm
; infill extrusion width = 1.12mm
; solid infill extrusion width = 1.12mm
; top infill extrusion width = 1.00mm
; first layer extrusion width = 1.00mm

M73 P0 R32
M201 X1250 Y1250 Z1250 E5000 ; sets maximum accelerations, mm/sec^2
M203 X400 Y400 Z400 E400 ; sets maximum feedrates, mm/sec
M204 P1250 R1250 T1250 ; sets acceleration (P, T) and retract acceleration (R), mm/sec^2
M205 X8.00 Y8.00 Z2.00 E10.00 ; sets the jerk limits, mm/sec
M205 S0 T0 ; sets the minimum extruding and travel feed rate, mm/sec
M107
M190 S85 ; set bed temperature and wait for it to be reached
;TYPE:Custom
G90 ; use absolute coordinates
M83 ; extruder relative mode
G28 ; home all without mesh bed level
G29 ; mesh bed leveling 
M104 S230 ; set extruder temp
G92 E0.0
G1 Y-2.0 X179 F2400
G1 Z3 F720
M109 S230 ; wait for extruder temp

; intro line
G1 X170 F1000
G1 Z0.2 F720
G1 X110.0 E8.0 F900
G1 X40.0 E10.0 F700
G92 E0.0

M221 S95 ; set flow
G21 ; set units to millimeters
G90 ; use absolute coordinates
M83 ; use relative distances for extrusion
M900 K0.2 ; Filament gcode
;LAYER_CHANGE
;Z:0.5
;HEIGHT:0.5
;BEFORE_LAYER_CHANGE
G92 E0.0
;0.5


G1 E-3.20000 F2400.000
G1 Z0.200 F7800.000
G1 Z0.500
;AFTER_LAYER_CHANGE
;0.5
G1 Z0.700
G1 X167.413 Y150.271
G1 Z0.500
G1 E3.20000 F1500.000
;TYPE:Skirt
;WIDTH:1
G1 F1800.000
G1 X168.443 Y149.363 E0.25475
G1 X169.638 Y148.674 E0.25594
G1 X170.940 Y148.238 E0.25475
G1 X172.308 Y148.069 E0.25594
G1 X262.541 Y148.067 E16.74449
M73 P1 R32
G1 X263.843 Y148.193 E0.24277
G1 X265.098 Y148.562 E0.24277
G1 X266.261 Y149.161 E0.24277
G1 X267.289 Y149.970 E0.24277
G1 X268.146 Y150.958 E0.24277
G1 X268.801 Y152.091 E0.24277
G1 X269.231 Y153.326 E0.24277
G1 X269.419 Y154.621 E0.24277
G1 X269.426 Y245.170 E16.80321
G1 X269.288 Y246.419 E0.23318
G1 X268.928 Y247.616 E0.23198
G1 X268.354 Y248.734 E0.23318
G1 X267.587 Y249.729 E0.23318
G1 X266.525 Y250.660 E0.26193
G1 X265.303 Y251.352 E0.26073
G1 X263.959 Y251.784 E0.26193
G1 X262.562 Y251.933 E0.26073
G1 X172.329 Y251.932 E16.74449
G1 X171.081 Y251.792 E0.23318
G1 X169.884 Y251.431 E0.23198
G1 X168.767 Y250.856 E0.23318
G1 X167.777 Y250.092 E0.23198
G1 X166.846 Y249.031 E0.26193
G1 X166.154 Y247.809 E0.26073
G1 X165.722 Y246.465 E0.26193
G1 X165.573 Y245.068 E0.26073
G1 X165.574 Y154.824 E16.74666
G1 X165.714 Y153.575 E0.23318
G1 X166.075 Y152.378 E0.23198
G1 X166.650 Y151.261 E0.23318
G1 X167.322 Y150.390 E0.20415
G1 E-2.24000 F2400.000
;WIPE_START
G1 F6240.000
G1 X168.443 Y149.363 E-0.55550
G1 X169.288 Y148.876 E-0.35650
;WIPE_END
G1 E-0.04800 F2400.000
G1 Z0.700 F7800.000
G1 X173.166 Y155.660
G1 Z0.500
G1 E3.20000 F1500.000
;TYPE:External perimeter
G1 F1800.000
G1 X261.834 Y155.660 E16.45428
G1 X261.834 Y244.340 E16.45646
G1 X173.166 Y244.340 E16.45428
M73 P2 R32
G1 X173.166 Y155.810 E16.42863
G1 E-2.24000 F2400.000
;WIPE_START
G1 F6240.000
G1 X175.662 Y155.806 E-0.91200
;WIPE_END
G1 E-0.04800 F2400.000
G1 Z0.700 F7800.000
G1 X259.751 Y155.928
G1 Z0.500
G1 E3.20000 F1500.000
;TYPE:Solid infill
;WIDTH:1.00495
G1 F1800.000
G1 X261.165 Y157.341 E0.37296
G1 X261.165 Y158.610 E0.23688
G1 X258.884 Y156.329 E0.60195
G1 X257.614 Y156.329 E0.23688
G1 X261.165 Y159.880 E0.93695
G1 X261.165 Y161.149 E0.23688
G1 X256.345 Y156.329 E1.27195
G1 X255.075 Y156.329 E0.23688
G1 X261.165 Y162.419 E1.60696
G1 X261.165 Y163.688 E0.23688
G1 X253.806 Y156.329 E1.94196
G1 X252.536 Y156.329 E0.23688
G1 X261.165 Y164.958 E2.27696
G1 X261.165 Y166.227 E0.23688
G1 X251.267 Y156.329 E2.61196
G1 X249.997 Y156.329 E0.23688
G1 X261.165 Y167.497 E2.94697
G1 X261.165 Y168.766 E0.23688
G1 X248.728 Y156.329 E3.28197
G1 X247.459 Y156.329 E0.23688
G1 X261.165 Y170.036 E3.61697
G1 X261.165 Y171.305 E0.23688
G1 X246.189 Y156.329 E3.95197
G1 X244.920 Y156.329 E0.23688
G1 X261.165 Y172.575 E4.28698
G1 X261.165 Y173.844 E0.23688
G1 X243.650 Y156.329 E4.62198
G1 X242.381 Y156.329 E0.23688
G1 X261.165 Y175.113 E4.95698
G1 X261.165 Y176.383 E0.23688
G1 X241.111 Y156.329 E5.29198
G1 X239.842 Y156.329 E0.23688
G1 X261.165 Y177.652 E5.62699
G1 X261.165 Y178.922 E0.23688
G1 X238.572 Y156.329 E5.96199
M73 P2 R31
G1 X237.303 Y156.329 E0.23688
G1 X261.165 Y180.191 E6.29699
G1 X261.165 Y181.461 E0.23688
G1 X236.033 Y156.329 E6.63199
G1 X234.764 Y156.329 E0.23688
G1 X261.165 Y182.730 E6.96700
M73 P3 R31
G1 X261.165 Y184.000 E0.23688
G1 X233.494 Y156.329 E7.30200
G1 X232.225 Y156.329 E0.23688
G1 X261.165 Y185.269 E7.63700
G1 X261.165 Y186.539 E0.23688
G1 X230.955 Y156.329 E7.97200
G1 X229.686 Y156.329 E0.23688
G1 X261.165 Y187.808 E8.30701
G1 X261.165 Y189.078 E0.23688
G1 X228.416 Y156.329 E8.64201
G1 X227.147 Y156.329 E0.23688
G1 X261.165 Y190.347 E8.97701
G1 X261.165 Y191.617 E0.23688
G1 X225.878 Y156.329 E9.31201
G1 X224.608 Y156.329 E0.23688
G1 X261.165 Y192.886 E9.64702
G1 X261.165 Y194.156 E0.23688
G1 X223.339 Y156.329 E9.98202
G1 X222.069 Y156.329 E0.23688
G1 X261.165 Y195.425 E10.31702
G1 X261.165 Y196.694 E0.23688
G1 X220.800 Y156.329 E10.65202
G1 X219.530 Y156.329 E0.23688
G1 X261.165 Y197.964 E10.98703
M73 P4 R31
G1 X261.165 Y199.233 E0.23688
G1 X218.261 Y156.329 E11.32203
G1 X216.991 Y156.329 E0.23688
G1 X261.165 Y200.503 E11.65703
G1 X261.165 Y201.772 E0.23688
G1 X215.722 Y156.329 E11.99203
G1 X214.452 Y156.329 E0.23688
G1 X261.165 Y203.042 E12.32704
G1 X261.165 Y204.311 E0.23688
G1 X213.183 Y156.329 E12.66204
G1 X211.913 Y156.329 E0.23688
G1 X261.165 Y205.581 E12.99704
G1 X261.165 Y206.850 E0.23688
G1 X210.644 Y156.329 E13.33204
G1 X209.374 Y156.329 E0.23688
G1 X261.165 Y208.120 E13.66705
M73 P5 R31
G1 X261.165 Y209.389 E0.23688
G1 X208.105 Y156.329 E14.00205
G1 X206.836 Y156.329 E0.23688
G1 X261.165 Y210.659 E14.33705
G1 X261.165 Y211.928 E0.23688
G1 X205.566 Y156.329 E14.67205
G1 X204.297 Y156.329 E0.23688
G1 X261.165 Y213.198 E15.00706
G1 X261.165 Y214.467 E0.23688
G1 X203.027 Y156.329 E15.34206
G1 X201.758 Y156.329 E0.23688
G1 X261.165 Y215.736 E15.67706
G1 X261.165 Y217.006 E0.23688
G1 X200.488 Y156.329 E16.01206
M73 P6 R30
G1 X199.219 Y156.329 E0.23688
G1 X261.165 Y218.275 E16.34707
G1 X261.165 Y219.545 E0.23688
G1 X197.949 Y156.329 E16.68207
G1 X196.680 Y156.329 E0.23688
G1 X261.165 Y220.814 E17.01707
G1 X261.165 Y222.084 E0.23688
G1 X195.410 Y156.329 E17.35207
G1 X194.141 Y156.329 E0.23688
G1 X261.165 Y223.353 E17.68708
G1 X261.165 Y224.623 E0.23688
G1 X192.871 Y156.329 E18.02208
G1 X191.602 Y156.329 E0.23688
G1 X261.165 Y225.892 E18.35708
M73 P7 R30
G1 X261.165 Y227.162 E0.23688
G1 X190.332 Y156.329 E18.69208
G1 X189.063 Y156.329 E0.23688
G1 X261.165 Y228.431 E19.02709
G1 X261.165 Y229.701 E0.23688
G1 X187.793 Y156.329 E19.36209
G1 X186.524 Y156.329 E0.23688
G1 X261.165 Y230.970 E19.69709
G1 X261.165 Y232.240 E0.23688
G1 X185.255 Y156.329 E20.03209
M73 P8 R30
G1 X183.985 Y156.329 E0.23688
G1 X261.165 Y233.509 E20.36710
G1 X261.165 Y234.779 E0.23688
G1 X182.716 Y156.329 E20.70210
G1 X181.446 Y156.329 E0.23688
G1 X261.165 Y236.048 E21.03710
G1 X261.165 Y237.317 E0.23688
G1 X180.177 Y156.329 E21.37210
G1 X178.907 Y156.329 E0.23688
G1 X261.165 Y238.587 E21.70711
M73 P9 R29
G1 X261.165 Y239.856 E0.23688
G1 X177.638 Y156.329 E22.04211
G1 X176.368 Y156.329 E0.23688
G1 X261.165 Y241.126 E22.37711
G1 X261.165 Y242.395 E0.23688
G1 X175.099 Y156.329 E22.71211
G1 X173.835 Y156.335 E0.23579
G1 X261.165 Y243.671 E23.04634
G1 X259.901 Y243.671 E0.23579
G1 X173.835 Y157.605 E22.71211
M73 P10 R29
G1 X173.835 Y158.874 E0.23688
G1 X258.632 Y243.671 E22.37710
G1 X257.362 Y243.671 E0.23688
G1 X173.835 Y160.144 E22.04210
G1 X173.835 Y161.413 E0.23688
G1 X256.093 Y243.671 E21.70710
G1 X254.823 Y243.671 E0.23688
G1 X173.835 Y162.683 E21.37210
G1 X173.835 Y163.952 E0.23688
G1 X253.554 Y243.671 E21.03709
M73 P11 R29
G1 X252.284 Y243.671 E0.23688
G1 X173.835 Y165.222 E20.70209
G1 X173.835 Y166.491 E0.23688
G1 X251.015 Y243.671 E20.36709
G1 X249.745 Y243.671 E0.23688
G1 X173.835 Y167.760 E20.03209
G1 X173.835 Y169.030 E0.23688
G1 X248.476 Y243.671 E19.69708
G1 X247.206 Y243.671 E0.23688
G1 X173.835 Y170.299 E19.36208
M73 P12 R29
G1 X173.835 Y171.569 E0.23688
G1 X245.937 Y243.671 E19.02708
M73 P12 R28
G1 X244.668 Y243.671 E0.23688
G1 X173.835 Y172.838 E18.69208
G1 X173.835 Y174.108 E0.23688
G1 X243.398 Y243.671 E18.35707
G1 X242.129 Y243.671 E0.23688
G1 X173.835 Y175.377 E18.02207
G1 X173.835 Y176.647 E0.23688
G1 X240.859 Y243.671 E17.68707
G1 X239.590 Y243.671 E0.23688
G1 X173.835 Y177.916 E17.35207
M73 P13 R28
G1 X173.835 Y179.186 E0.23688
G1 X238.320 Y243.671 E17.01706
G1 X237.051 Y243.671 E0.23688
G1 X173.835 Y180.455 E16.68206
G1 X173.835 Y181.725 E0.23688
G1 X235.781 Y243.671 E16.34706
G1 X234.512 Y243.671 E0.23688
G1 X173.835 Y182.994 E16.01206
G1 X173.835 Y184.264 E0.23688
G1 X233.242 Y243.671 E15.67705
G1 X231.973 Y243.671 E0.23688
G1 X173.835 Y185.533 E15.34205
G1 X173.835 Y186.802 E0.23688
G1 X230.703 Y243.671 E15.00705
M73 P14 R28
G1 X229.434 Y243.671 E0.23688
G1 X173.835 Y188.072 E14.67205
G1 X173.835 Y189.341 E0.23688
G1 X228.164 Y243.671 E14.33704
G1 X226.895 Y243.671 E0.23688
G1 X173.835 Y190.611 E14.00204
G1 X173.835 Y191.880 E0.23688
G1 X225.626 Y243.671 E13.66704
G1 X224.356 Y243.671 E0.23688
G1 X173.835 Y193.150 E13.33204
G1 X173.835 Y194.419 E0.23688
G1 X223.087 Y243.671 E12.99703
G1 X221.817 Y243.671 E0.23688
G1 X173.835 Y195.689 E12.66203
M73 P15 R28
G1 X173.835 Y196.958 E0.23688
G1 X220.548 Y243.671 E12.32703
G1 X219.278 Y243.671 E0.23688
G1 X173.835 Y198.228 E11.99203
M73 P15 R27
G1 X173.835 Y199.497 E0.23688
G1 X218.009 Y243.671 E11.65702
G1 X216.739 Y243.671 E0.23688
G1 X173.835 Y200.767 E11.32202
G1 X173.835 Y202.036 E0.23688
G1 X215.470 Y243.671 E10.98702
G1 X214.200 Y243.671 E0.23688
G1 X173.835 Y203.306 E10.65202
G1 X173.835 Y204.575 E0.23688
G1 X212.931 Y243.671 E10.31701
G1 X211.661 Y243.671 E0.23688
G1 X173.835 Y205.845 E9.98201
G1 X173.835 Y207.114 E0.23688
G1 X210.392 Y243.671 E9.64701
G1 X209.122 Y243.671 E0.23688
G1 X173.835 Y208.383 E9.31201
M73 P16 R27
G1 X173.835 Y209.653 E0.23688
G1 X207.853 Y243.671 E8.97700
G1 X206.583 Y243.671 E0.23688
G1 X173.835 Y210.922 E8.64200
G1 X173.835 Y212.192 E0.23688
G1 X205.314 Y243.671 E8.30700
G1 X204.045 Y243.671 E0.23688
G1 X173.835 Y213.461 E7.97200
G1 X173.835 Y214.731 E0.23688
G1 X202.775 Y243.671 E7.63699
G1 X201.506 Y243.671 E0.23688
G1 X173.835 Y216.000 E7.30199
G1 X173.835 Y217.270 E0.23688
G1 X200.236 Y243.671 E6.96699
G1 X198.967 Y243.671 E0.23688
G1 X173.835 Y218.539 E6.63199
G1 X173.835 Y219.809 E0.23688
G1 X197.697 Y243.671 E6.29698
G1 X196.428 Y243.671 E0.23688
G1 X173.835 Y221.078 E5.96198
G1 X173.835 Y222.348 E0.23688
G1 X195.158 Y243.671 E5.62698
G1 X193.889 Y243.671 E0.23688
G1 X173.835 Y223.617 E5.29198
G1 X173.835 Y224.887 E0.23688
G1 X192.619 Y243.671 E4.95697
G1 X191.350 Y243.671 E0.23688
G1 X173.835 Y226.156 E4.62197
G1 X173.835 Y227.425 E0.23688
G1 X190.080 Y243.671 E4.28697
M73 P17 R27
G1 X188.811 Y243.671 E0.23688
G1 X173.835 Y228.695 E3.95197
G1 X173.835 Y229.964 E0.23688
G1 X187.541 Y243.671 E3.61696
G1 X186.272 Y243.671 E0.23688
G1 X173.835 Y231.234 E3.28196
G1 X173.835 Y232.503 E0.23688
G1 X185.003 Y243.671 E2.94696
G1 X183.733 Y243.671 E0.23688
G1 X173.835 Y233.773 E2.61196
G1 X173.835 Y235.042 E0.23688
G1 X182.464 Y243.671 E2.27695
G1 X181.194 Y243.671 E0.23688
G1 X173.835 Y236.312 E1.94195
G1 X173.835 Y237.581 E0.23688
G1 X179.925 Y243.671 E1.60695
G1 X178.655 Y243.671 E0.23688
G1 X173.835 Y238.851 E1.27195
G1 X173.835 Y240.120 E0.23688
G1 X177.386 Y243.671 E0.93694
G1 X176.116 Y243.671 E0.23688
G1 X173.835 Y241.390 E0.60194
G1 X173.835 Y242.659 E0.23688
G1 X175.248 Y244.072 E0.37295
;LAYER_CHANGE
;Z:1.2
;HEIGHT:0.7
;BEFORE_LAYER_CHANGE
G92 E0.0
;1.2


G1 E-2.24000 F2400.000
;WIPE_START
G1 F6240.000
G1 X173.835 Y242.659 E-0.73028
G1 X173.835 Y242.162 E-0.18172
;WIPE_END
G1 E-0.04800 F2400.000
G1 Z0.700 F7800.000
G1 Z1.200
;AFTER_LAYER_CHANGE
;1.2
M104 S240 ; set temperature
M140 S90 ; set bed temperature
G1 X173.028 Y155.660
G1 E3.20000 F1500.000
;TYPE:External perimeter
;WIDTH:1.125
G1 F1800.000
G1 X173.028 Y155.522 E0.03901
G1 X261.972 Y155.522 E25.23207
G1 X261.972 Y244.478 E25.23539
G1 X173.028 Y244.478 E25.23207
G1 X173.028 Y155.810 E25.15383
G1 X259.474 Y244.185 F7800.000
;TYPE:Internal infill
M73 P18 R27
G1 F4800.000
G1 X261.241 Y242.418 E0.70887
G1 X261.241 Y238.972 E0.97768
G1 X256.466 Y243.747 E1.91554
G1 X253.020 Y243.747 E0.97769
G1 X261.241 Y235.526 E3.29819
G1 X261.241 Y232.079 E0.97769
G1 X249.573 Y243.747 E4.68085
G1 X246.127 Y243.747 E0.97769
G1 X261.241 Y228.633 E6.06351
G1 X261.241 Y225.187 E0.97769
G1 X242.681 Y243.747 E7.44616
G1 X239.234 Y243.747 E0.97769
G1 X261.241 Y221.740 E8.82882
G1 X261.241 Y218.294 E0.97768
G1 X235.788 Y243.747 E10.21147
G1 X232.342 Y243.747 E0.97769
G1 X261.241 Y214.847 E11.59413
G1 X261.241 Y211.401 E0.97769
G1 X228.895 Y243.747 E12.97678
M73 P18 R26
G1 X225.449 Y243.747 E0.97769
G1 X261.241 Y207.955 E14.35944
G1 X261.241 Y204.508 E0.97769
G1 X222.002 Y243.747 E15.74209
G1 X218.556 Y243.747 E0.97769
G1 X261.241 Y201.062 E17.12475
G1 X261.241 Y197.616 E0.97768
G1 X215.110 Y243.747 E18.50741
G1 X211.663 Y243.747 E0.97769
G1 X261.241 Y194.169 E19.89006
G1 X261.241 Y190.723 E0.97769
G1 X208.217 Y243.747 E21.27272
G1 X204.771 Y243.747 E0.97769
G1 X261.241 Y187.277 E22.65537
G1 X261.241 Y183.830 E0.97769
G1 X201.324 Y243.747 E24.03803
G1 X197.878 Y243.747 E0.97769
G1 X261.241 Y180.384 E25.42068
G1 X261.241 Y176.937 E0.97768
G1 X194.432 Y243.747 E26.80334
G1 X190.985 Y243.747 E0.97769
G1 X261.241 Y173.491 E28.18599
G1 X261.241 Y170.045 E0.97769
G1 X187.539 Y243.747 E29.56865
G1 X184.092 Y243.747 E0.97769
G1 X261.241 Y166.598 E30.95130
M73 P19 R26
G1 X261.241 Y163.152 E0.97769
G1 X180.646 Y243.747 E32.33396
G1 X177.200 Y243.747 E0.97769
G1 X261.241 Y159.706 E33.71662
G1 X261.241 Y156.259 E0.97768
G1 X173.759 Y243.741 E35.09691
G1 X173.759 Y240.294 E0.97768
G1 X257.800 Y156.253 E33.71662
G1 X254.354 Y156.253 E0.97769
G1 X173.759 Y236.848 E32.33396
G1 X173.759 Y233.402 E0.97769
G1 X250.908 Y156.253 E30.95130
G1 X247.461 Y156.253 E0.97769
G1 X173.759 Y229.955 E29.56865
G1 X173.759 Y226.509 E0.97769
G1 X244.015 Y156.253 E28.18599
G1 X240.568 Y156.253 E0.97769
G1 X173.759 Y223.063 E26.80334
G1 X173.759 Y219.616 E0.97768
G1 X237.122 Y156.253 E25.42068
G1 X233.676 Y156.253 E0.97769
G1 X173.759 Y216.170 E24.03803
G1 X173.759 Y212.723 E0.97769
G1 X230.229 Y156.253 E22.65537
G1 X226.783 Y156.253 E0.97769
G1 X173.759 Y209.277 E21.27272
G1 X173.759 Y205.831 E0.97769
G1 X223.337 Y156.253 E19.89006
M73 P20 R26
G1 X219.890 Y156.253 E0.97769
G1 X173.759 Y202.384 E18.50741
G1 X173.759 Y198.938 E0.97768
G1 X216.444 Y156.253 E17.12475
G1 X212.998 Y156.253 E0.97769
G1 X173.759 Y195.492 E15.74209
G1 X173.759 Y192.045 E0.97769
G1 X209.551 Y156.253 E14.35944
G1 X206.105 Y156.253 E0.97769
G1 X173.759 Y188.599 E12.97678
G1 X173.759 Y185.153 E0.97769
G1 X202.658 Y156.253 E11.59413
G1 X199.212 Y156.253 E0.97769
G1 X173.759 Y181.706 E10.21147
G1 X173.759 Y178.260 E0.97768
G1 X195.766 Y156.253 E8.82882
G1 X192.319 Y156.253 E0.97769
G1 X173.759 Y174.813 E7.44616
G1 X173.759 Y171.367 E0.97769
G1 X188.873 Y156.253 E6.06351
G1 X185.427 Y156.253 E0.97769
G1 X173.759 Y167.921 E4.68085
G1 X173.759 Y164.474 E0.97769
G1 X181.980 Y156.253 E3.29819
G1 X178.534 Y156.253 E0.97769
G1 X173.759 Y161.028 E1.91554
G1 X173.759 Y157.582 E0.97768
G1 X175.526 Y155.815 E0.70887
;LAYER_CHANGE
;Z:1.9
;HEIGHT:0.7
;BEFORE_LAYER_CHANGE
G92 E0.0
;1.9


G1 E-2.24000 F2400.000
;WIPE_START
G1 F6240.000
G1 X173.761 Y157.580 E-0.91200
;WIPE_END
G1 E-0.04800 F2400.000
G1 Z1.400 F7800.000
G1 Z1.900
;AFTER_LAYER_CHANGE
;1.9
G1 X173.028 Y155.660
G1 E3.20000 F1500.000
;TYPE:External perimeter
G1 F1800.000
G1 X173.028 Y155.522 E0.03901
G1 X261.972 Y155.522 E25.23207
G1 X261.972 Y244.478 E25.23539
G1 X173.028 Y244.478 E25.23207
G1 X173.028 Y155.810 E25.15383
M73 P21 R26
G1 X261.679 Y158.020 F7800.000
;TYPE:Internal infill
G1 F4800.000
G1 X259.912 Y156.253 E0.70887
