; generated by PrusaSlicer 2.3.1+win64 on 2021-07-19 at 08:01:54 UTC


;
;

;
;
; 

; external perimeters extrusion width = 1.12mm
; perimeters extrusion width = 1.12mm
; infill extrusion width = 1.12mm
; solid infill extrusion width = 1.12mm
; top infill extrusion width = 1.00mm
; first layer extrusion width = 1.00mm

M73 P0 R33
M201 X1250 Y1250 Z1250 E5000 ; sets maximum accelerations, mm/sec^2
M203 X200 Y200 Z200 E200 ; sets maximum feedrates, mm/sec
M204 P1250 R1250 T1250 ; sets acceleration (P, T) and retract acceleration (R), mm/sec^2
M205 X8.00 Y8.00 Z2.00 E10.00 ; sets the jerk limits, mm/sec
M205 S0 T0 ; sets the minimum extruding and travel feed rate, mm/sec
M107
M190 S85 ; set bed temperature and wait for it to be reached
;TYPE:Custom
G90 ; use absolute coordinates
M83 ; extruder relative mode
G28 ; home all without mesh bed level
G29 ; mesh bed leveling 
M104 S230 ; set extruder temp
G92 E0.0
G1 Y-2.0 X179 F2400
G1 Z3 F720
M109 S230 ; wait for extruder temp

; intro line
G1 X170 F1000
G1 Z0.2 F720
G1 X110.0 E8.0 F900
G1 X40.0 E10.0 F700
G92 E0.0

M221 S95 ; set flow
G21 ; set units to millimeters
G90 ; use absolute coordinates
M83 ; use relative distances for extrusion
M900 K0.2 ; Filament gcode
;LAYER_CHANGE
;Z:0.5
;HEIGHT:0.5
;BEFORE_LAYER_CHANGE
G92 E0.0
;0.5


G1 E-3.20000 F2400.000
G1 Z0.200 F15600.000
G1 Z0.500
;AFTER_LAYER_CHANGE
;0.5
G1 Z0.700
G1 X201.912 Y184.632
G1 Z0.500
G1 E3.20000 F1500.000
;TYPE:Skirt
;WIDTH:1
G1 F940.967
G1 X203.853 Y182.884 E0.48470
G1 X205.277 Y181.837 E0.32797
G1 X207.680 Y180.437 E0.51616
G1 X209.289 Y179.706 E0.32797
G1 X210.942 Y179.116 E0.32556
G1 X213.649 Y178.449 E0.51736
G1 X215.400 Y178.211 E0.32797
G1 X218.031 Y178.116 E0.48849
G1 X219.787 Y178.227 E0.32662
G1 X221.529 Y178.484 E0.32677
G1 X224.096 Y179.126 E0.49092
G1 X225.884 Y179.778 E0.35322
G1 X228.262 Y180.938 E0.49093
G1 X229.766 Y181.866 E0.32798
G1 X231.969 Y183.574 E0.51737
G1 X233.240 Y184.784 E0.32557
G1 X234.414 Y186.105 E0.32797
G1 X236.045 Y188.366 E0.51737
G1 X236.922 Y189.901 E0.32797
G1 X237.996 Y192.311 E0.48972
M73 P1 R33
G1 X238.544 Y193.964 E0.32317
G1 X238.959 Y195.676 E0.32697
G1 X239.325 Y198.295 E0.49072
G1 X239.390 Y200.191 E0.35202
G1 X239.207 Y202.830 E0.49092
G1 X238.910 Y204.573 E0.32798
G1 X238.152 Y207.256 E0.51736
G1 X237.505 Y208.893 E0.32677
G1 X236.723 Y210.471 E0.32677
G1 X235.238 Y212.831 E0.51736
G1 X234.144 Y214.219 E0.32797
G1 X232.317 Y216.114 E0.48851
G1 X230.985 Y217.246 E0.32437
G1 X229.553 Y218.272 E0.32697
G1 X227.262 Y219.594 E0.49071
G1 X225.529 Y220.365 E0.35201
G1 X223.014 Y221.184 E0.49092
G1 X221.294 Y221.561 E0.32677
G1 X219.567 Y221.792 E0.32336
G1 X216.781 Y221.881 E0.51714
G1 X215.007 Y221.748 E0.33023
G1 X212.408 Y221.290 E0.48972
G1 X210.731 Y220.820 E0.32316
G1 X209.080 Y220.205 E0.32697
G1 X206.732 Y219.059 E0.48471
G1 X205.229 Y218.130 E0.32798
G1 X203.031 Y216.426 E0.51617
G1 X201.737 Y215.193 E0.33158
G1 X200.581 Y213.889 E0.32336
G1 X198.951 Y211.629 E0.51716
G1 X198.078 Y210.099 E0.32677
G1 X197.002 Y207.683 E0.49093
G1 X196.412 Y205.873 E0.35322
G1 X195.859 Y203.293 E0.48972
G1 X195.662 Y201.543 E0.32677
G1 X195.610 Y199.800 E0.32368
G1 X195.793 Y197.170 E0.48921
G1 X196.085 Y195.453 E0.32317
G1 X196.516 Y193.766 E0.32316
G1 X197.429 Y191.262 E0.49453
G1 X198.251 Y189.574 E0.34841
G1 X199.650 Y187.329 E0.49092
G1 X200.720 Y185.938 E0.32557
G1 X201.811 Y184.743 E0.30034
G1 E-2.24000 F2400.000
;WIPE_START
G1 F12480.000
G1 X203.853 Y182.884 E-0.50447
G1 X205.277 Y181.837 E-0.32289
G1 X205.678 Y181.604 E-0.08465
;WIPE_END
G1 E-0.04800 F2400.000
G1 Z0.700 F15600.000
G1 X207.211 Y190.070
G1 Z0.500
G1 E3.20000 F1500.000
;TYPE:External perimeter
G1 F940.967
G1 X207.933 Y189.372 E0.18627
G1 X208.697 Y188.731 E0.18518
G1 X209.500 Y188.148 E0.18413
G1 X210.351 Y187.616 E0.18627
G1 X211.232 Y187.147 E0.18518
M73 P1 R32
G1 X212.144 Y186.741 E0.18519
G1 X213.076 Y186.402 E0.18413
G1 X214.042 Y186.125 E0.18638
G1 X215.018 Y185.918 E0.18515
G1 X216.000 Y185.780 E0.18405
G1 X217.001 Y185.709 E0.18628
G1 X218.005 Y185.710 E0.18625
G1 X218.994 Y185.779 E0.18408
G1 X219.982 Y185.918 E0.18517
G1 X220.958 Y186.125 E0.18515
G1 X221.924 Y186.402 E0.18638
G1 X222.856 Y186.741 E0.18413
G1 X223.768 Y187.147 E0.18518
G1 X224.654 Y187.619 E0.18627
G1 X225.495 Y188.145 E0.18413
G1 X226.303 Y188.731 E0.18518
G1 X227.072 Y189.376 E0.18627
G1 X227.785 Y190.066 E0.18413
G1 X228.453 Y190.807 E0.18519
G1 X229.071 Y191.598 E0.18627
G1 X229.626 Y192.421 E0.18413
G1 X230.125 Y193.285 E0.18520
G1 X230.562 Y194.182 E0.18518
G1 X230.938 Y195.113 E0.18627
G1 X231.245 Y196.056 E0.18413
G1 X231.487 Y197.025 E0.18520
G1 X231.660 Y198.007 E0.18518
G1 X231.765 Y199.006 E0.18626
G1 X231.800 Y199.997 E0.18412
G1 X231.765 Y200.995 E0.18519
G1 X231.660 Y201.993 E0.18625
G1 X231.487 Y202.975 E0.18518
G1 X231.245 Y203.944 E0.18520
G1 X230.938 Y204.887 E0.18413
G1 X230.562 Y205.818 E0.18627
G1 X230.125 Y206.715 E0.18519
G1 X229.629 Y207.574 E0.18413
G1 X229.068 Y208.406 E0.18627
G1 X228.453 Y209.193 E0.18519
G1 X227.789 Y209.930 E0.18413
G1 X227.067 Y210.628 E0.18627
G1 X226.303 Y211.269 E0.18518
G1 X225.500 Y211.852 E0.18413
G1 X224.649 Y212.384 E0.18627
G1 X223.768 Y212.853 E0.18518
G1 X222.856 Y213.259 E0.18519
G1 X221.924 Y213.598 E0.18413
G1 X220.958 Y213.875 E0.18638
G1 X219.982 Y214.082 E0.18515
G1 X218.994 Y214.221 E0.18517
G1 X218.005 Y214.290 E0.18408
G1 X217.001 Y214.291 E0.18625
G1 X216.000 Y214.220 E0.18628
G1 X215.018 Y214.082 E0.18405
G1 X214.042 Y213.875 E0.18515
G1 X213.076 Y213.598 E0.18638
G1 X212.144 Y213.259 E0.18413
G1 X211.232 Y212.853 E0.18518
G1 X210.346 Y212.381 E0.18627
G1 X209.505 Y211.855 E0.18413
G1 X208.697 Y211.269 E0.18520
G1 X207.933 Y210.628 E0.18518
G1 X207.211 Y209.930 E0.18627
G1 X206.547 Y209.193 E0.18413
G1 X205.932 Y208.406 E0.18520
G1 X205.374 Y207.579 E0.18518
G1 X204.872 Y206.710 E0.18627
G1 X204.438 Y205.818 E0.18412
G1 X204.064 Y204.893 E0.18519
G1 X203.753 Y203.938 E0.18627
G1 X203.513 Y202.975 E0.18413
G1 X203.340 Y201.993 E0.18519
G1 X203.235 Y200.994 E0.18626
G1 X203.200 Y200.003 E0.18412
G1 X203.235 Y199.005 E0.18519
G1 X203.340 Y198.007 E0.18625
G1 X203.513 Y197.025 E0.18518
G1 X203.755 Y196.056 E0.18520
G1 X204.062 Y195.113 E0.18413
G1 X204.438 Y194.182 E0.18627
G1 X204.875 Y193.285 E0.18519
G1 X205.371 Y192.426 E0.18413
G1 X205.932 Y191.594 E0.18627
G1 X206.547 Y190.807 E0.18519
G1 X207.110 Y190.181 E0.15629
G1 E-2.24000 F2400.000
;WIPE_START
G1 F12480.000
G1 X207.933 Y189.372 E-0.21073
G1 X208.697 Y188.731 E-0.18231
G1 X209.500 Y188.148 E-0.18127
G1 X210.351 Y187.616 E-0.18338
G1 X211.097 Y187.219 E-0.15431
;WIPE_END
G1 E-0.04800 F2400.000
G1 Z0.700 F15600.000
G1 X224.767 Y188.005
G1 Z0.500
G1 E3.20000 F1500.000
;TYPE:Solid infill
;WIDTH:1.01531
G1 F925.105
G1 X227.400 Y190.638 E0.70276
G1 X227.940 Y191.238 E0.15242
G1 X228.529 Y191.992 E0.18063
G1 X229.058 Y192.776 E0.17848
G1 X229.533 Y193.600 E0.17956
G1 X229.963 Y194.485 E0.18579
G1 X223.029 Y187.551 E1.85098
G1 X222.605 Y187.363 E0.08752
G1 X221.717 Y187.039 E0.17848
G1 X221.038 Y186.844 E0.13329
G1 X230.656 Y196.463 E2.56754
G1 X230.831 Y197.164 E0.13639
G1 X230.994 Y198.084 E0.17641
G1 X219.425 Y186.515 E3.08820
G1 X218.924 Y186.445 E0.09539
G1 X218.006 Y186.381 E0.17373
G1 X231.112 Y199.487 E3.49839
G1 X231.130 Y199.997 E0.09645
G1 X231.103 Y200.762 E0.14442
G1 X216.740 Y186.399 E3.83407
G1 X216.070 Y186.446 E0.12678
G1 X215.573 Y186.516 E0.09476
G1 X230.991 Y201.934 E4.11560
M73 P2 R32
G1 X230.787 Y203.014 E0.20753
G1 X214.488 Y186.715 E4.35088
G1 X214.204 Y186.775 E0.05477
G1 X213.473 Y186.985 E0.14342
G1 X230.514 Y204.026 E4.54886
G1 X230.309 Y204.658 E0.12557
G1 X230.181 Y204.976 E0.06464
G1 X212.521 Y187.317 E4.71391
G1 X211.626 Y187.705 E0.18427
G1 X229.792 Y205.871 E4.84918
G1 X229.533 Y206.400 E0.11118
G1 X229.352 Y206.715 E0.06860
G1 X210.782 Y188.145 E4.95703
G1 X209.986 Y188.634 E0.17622
G1 X228.864 Y207.511 E5.03916
G1 X228.526 Y208.013 E0.11415
G1 X228.331 Y208.262 E0.05978
G1 X209.236 Y189.167 E5.09712
G1 X208.530 Y189.745 E0.17224
G1 X227.753 Y208.969 E5.13152
G1 X227.133 Y209.633 E0.17149
G1 X207.867 Y190.367 E5.14284
G1 X207.247 Y191.031 E0.17149
G1 X226.470 Y210.254 E5.13152
G1 X225.764 Y210.833 E0.17224
G1 X206.669 Y191.738 E5.09713
M73 P3 R32
G1 X206.474 Y191.987 E0.05980
G1 X206.136 Y192.489 E0.11413
G1 X225.014 Y211.366 E5.03917
G1 X224.219 Y211.855 E0.17622
G1 X205.648 Y193.285 E4.95704
G1 X205.467 Y193.600 E0.06862
G1 X205.208 Y194.129 E0.11116
G1 X223.375 Y212.295 E4.84920
G1 X222.479 Y212.683 E0.18427
G1 X204.819 Y195.024 E4.71393
G1 X204.691 Y195.342 E0.06467
G1 X204.486 Y195.974 E0.12555
G1 X221.527 Y213.015 E4.54888
G1 X220.796 Y213.225 E0.14344
G1 X220.513 Y213.285 E0.05475
G1 X204.213 Y196.986 E4.35091
G1 X204.009 Y198.066 E0.20752
G1 X219.427 Y213.484 E4.11563
G1 X218.924 Y213.555 E0.09590
G1 X218.260 Y213.601 E0.12561
G1 X203.897 Y199.238 E3.83414
G1 X203.870 Y200.003 E0.14446
G1 X203.888 Y200.513 E0.09642
G1 X216.994 Y213.619 E3.49843
G1 X216.070 Y213.554 E0.17487
G1 X215.575 Y213.485 E0.09423
G1 X204.006 Y201.915 E3.08827
G1 X204.169 Y202.836 E0.17647
G1 X204.343 Y203.537 E0.13629
G1 X213.962 Y213.156 E2.56767
G1 X213.283 Y212.961 E0.13334
G1 X212.395 Y212.637 E0.17848
G1 X211.972 Y212.449 E0.08746
G1 X205.037 Y205.514 E1.85110
G1 X205.464 Y206.395 E0.18480
G1 X205.942 Y207.224 E0.18063
G1 X206.474 Y208.013 E0.17952
G1 X207.060 Y208.762 E0.17955
G1 X207.598 Y209.359 E0.15169
G1 X210.234 Y211.995 E0.70361
;LAYER_CHANGE
;Z:1.2
;HEIGHT:0.7
;BEFORE_LAYER_CHANGE
G92 E0.0
;1.2


G1 E-2.24000 F2400.000
;WIPE_START
G1 F12480.000
G1 X207.598 Y209.359 E-0.68102
G1 X207.060 Y208.762 E-0.14682
G1 X206.776 Y208.399 E-0.08416
;WIPE_END
G1 E-0.04800 F2400.000
G1 Z0.700 F15600.000
G1 Z1.200
;AFTER_LAYER_CHANGE
;1.2
M104 S240 ; set temperature
M140 S90 ; set bed temperature
G1 X207.093 Y189.995
G1 E3.20000 F1500.000
;TYPE:External perimeter
;WIDTH:1.125
G1 F615.524
G1 X207.847 Y189.264 E0.29788
G1 X208.619 Y188.618 E0.28548
G1 X209.399 Y188.051 E0.27344
G1 X210.288 Y187.493 E0.29789
G1 X211.177 Y187.021 E0.28542
G1 X212.097 Y186.612 E0.28563
G1 X213.002 Y186.282 E0.27346
G1 X214.011 Y185.991 E0.29791
G1 X214.995 Y185.782 E0.28542
G1 X215.950 Y185.648 E0.27347
G1 X216.997 Y185.572 E0.29770
G1 X218.046 Y185.575 E0.29771
M73 P4 R32
G1 X219.008 Y185.642 E0.27348
G1 X220.005 Y185.782 E0.28561
G1 X220.989 Y185.991 E0.28541
G1 X221.998 Y186.282 E0.29791
G1 X222.903 Y186.612 E0.27346
G1 X223.823 Y187.021 E0.28545
G1 X224.749 Y187.516 E0.29789
G1 X225.566 Y188.027 E0.27344
G1 X226.381 Y188.618 E0.28547
G1 X227.184 Y189.294 E0.29788
G1 X227.878 Y189.963 E0.27343
G1 X228.552 Y190.711 E0.28550
G1 X229.197 Y191.539 E0.29787
G1 X229.736 Y192.338 E0.27341
G1 X230.240 Y193.209 E0.28567
G1 X230.682 Y194.113 E0.28546
G1 X231.075 Y195.087 E0.29785
G1 X231.373 Y196.004 E0.27340
G1 X231.618 Y196.981 E0.28569
G1 X231.794 Y197.971 E0.28548
G1 X231.903 Y199.016 E0.29783
G1 X231.937 Y199.979 E0.27338
G1 X231.903 Y200.985 E0.28560
G1 X231.794 Y202.029 E0.29771
G1 X231.618 Y203.019 E0.28548
G1 X231.373 Y203.996 E0.28569
G1 X231.075 Y204.913 E0.27340
G1 X230.682 Y205.887 E0.29785
G1 X230.240 Y206.791 E0.28554
G1 X229.758 Y207.625 E0.27341
G1 X229.172 Y208.496 E0.29786
G1 X228.552 Y209.289 E0.28551
G1 X227.907 Y210.005 E0.27342
G1 X227.153 Y210.736 E0.29788
G1 X226.381 Y211.382 E0.28548
G1 X225.601 Y211.949 E0.27344
G1 X224.712 Y212.507 E0.29789
G1 X223.823 Y212.979 E0.28542
G1 X222.903 Y213.388 E0.28563
G1 X221.998 Y213.718 E0.27346
G1 X220.989 Y214.009 E0.29791
G1 X220.005 Y214.218 E0.28541
G1 X219.008 Y214.358 E0.28561
G1 X218.046 Y214.425 E0.27348
G1 X216.997 Y214.428 E0.29771
G1 X215.950 Y214.352 E0.29770
G1 X214.995 Y214.218 E0.27347
G1 X214.011 Y214.009 E0.28542
G1 X213.002 Y213.718 E0.29791
G1 X212.097 Y213.388 E0.27346
G1 X211.177 Y212.979 E0.28545
G1 X210.251 Y212.484 E0.29789
G1 X209.434 Y211.973 E0.27344
G1 X208.619 Y211.382 E0.28565
G1 X207.847 Y210.736 E0.28544
G1 X207.093 Y210.005 E0.29788
G1 X206.448 Y209.289 E0.27342
G1 X205.828 Y208.496 E0.28566
G1 X205.264 Y207.662 E0.28545
G1 X204.740 Y206.753 E0.29786
G1 X204.318 Y205.886 E0.27341
G1 X203.939 Y204.953 E0.28555
G1 X203.616 Y203.955 E0.29784
G1 X203.382 Y203.020 E0.27339
G1 X203.206 Y202.029 E0.28558
G1 X203.097 Y200.984 E0.29783
G1 X203.063 Y200.021 E0.27338
G1 X203.097 Y199.015 E0.28560
G1 X203.206 Y197.971 E0.29771
G1 X203.382 Y196.981 E0.28548
G1 X203.627 Y196.004 E0.28569
G1 X203.925 Y195.087 E0.27340
G1 X204.318 Y194.113 E0.29785
G1 X204.760 Y193.209 E0.28554
G1 X205.242 Y192.375 E0.27341
G1 X205.828 Y191.504 E0.29786
G1 X206.448 Y190.711 E0.28551
M73 P4 R31
G1 X206.993 Y190.106 E0.23087
G1 X224.717 Y212.158 F15600.000
;TYPE:Solid infill
;WIDTH:1.12883
G1 F613.117
G1 X227.403 Y209.473 E1.08173
G1 X227.992 Y208.819 E0.25061
G1 X228.580 Y208.067 E0.27198
G1 X229.138 Y207.238 E0.28440
G1 X229.594 Y206.447 E0.26015
G1 X230.089 Y205.402 E0.32934
G1 X222.904 Y212.587 E2.89412
G1 X222.630 Y212.710 E0.08553
G1 X221.771 Y213.022 E0.26026
G1 X220.807 Y213.300 E0.28572
G1 X230.789 Y203.318 E4.02044
G1 X230.902 Y202.866 E0.13273
G1 X231.069 Y201.926 E0.27192
G1 X231.101 Y201.622 E0.08706
G1 X219.119 Y213.604 E4.82596
G1 X218.020 Y213.694 E0.31423
G1 X217.644 Y213.695 E0.10693
G1 X231.200 Y200.140 E5.45988
G1 X231.173 Y199.067 E0.30570
G1 X231.146 Y198.809 E0.07370
G1 X216.310 Y213.646 E5.97562
G1 X216.027 Y213.625 E0.08072
G1 X215.082 Y213.489 E0.27192
G1 X230.983 Y197.589 E6.40433
G1 X230.902 Y197.134 E0.13159
M73 P5 R31
G1 X230.732 Y196.455 E0.19914
G1 X213.956 Y213.232 E6.75714
G1 X213.229 Y213.022 E0.21533
G1 X212.901 Y212.903 E0.09946
G1 X230.407 Y195.397 E7.05080
G1 X230.012 Y194.407 E0.30335
G1 X211.913 Y212.506 E7.28963
G1 X211.498 Y212.322 E0.12938
G1 X210.987 Y212.049 E0.16506
G1 X229.554 Y193.482 E7.47792
G1 X229.116 Y192.726 E0.24890
G1 X229.039 Y192.612 E0.03894
G1 X210.115 Y211.537 E7.62221
G1 X209.842 Y211.367 E0.09146
G1 X209.297 Y210.971 E0.19197
G1 X228.471 Y191.797 E7.72276
G1 X227.855 Y191.029 E0.28035
G1 X208.530 Y210.354 E7.78330
G1 X208.337 Y210.192 E0.07166
G1 X207.814 Y209.686 E0.20735
G1 X227.187 Y190.313 E7.80281
M73 P6 R31
G1 X226.694 Y189.837 E0.19508
G1 X226.469 Y189.647 E0.08396
G1 X207.145 Y208.971 E7.78289
G1 X206.528 Y208.204 E0.28031
G1 X225.703 Y189.029 E7.72323
G1 X225.158 Y188.633 E0.19195
G1 X224.885 Y188.463 E0.09148
G1 X205.961 Y207.387 E7.62215
G1 X205.448 Y206.516 E0.28788
G1 X224.013 Y187.951 E7.47741
G1 X223.502 Y187.678 E0.16504
G1 X223.086 Y187.494 E0.12940
G1 X204.988 Y205.593 E7.28963
G1 X204.594 Y204.602 E0.30352
G1 X222.099 Y187.097 E7.05037
G1 X221.771 Y186.978 E0.09944
G1 X221.044 Y186.768 E0.21535
G1 X204.267 Y203.545 E6.75742
M73 P7 R31
G1 X204.098 Y202.867 E0.19905
G1 X204.017 Y202.411 E0.13184
G1 X219.918 Y186.511 E6.40430
G1 X218.931 Y186.369 E0.28379
G1 X218.692 Y186.353 E0.06837
G1 X203.854 Y201.191 E5.97636
G1 X203.827 Y200.933 E0.07368
G1 X203.800 Y199.860 E0.30573
G1 X217.357 Y186.304 E5.46015
G1 X217.022 Y186.303 E0.09528
G1 X215.881 Y186.396 E0.32610
G1 X203.899 Y198.378 E4.82596
M73 P7 R30
G1 X203.931 Y198.074 E0.08703
G1 X204.098 Y197.134 E0.27192
G1 X204.211 Y196.681 E0.13277
G1 X214.193 Y186.700 E4.02037
G1 X213.229 Y186.978 E0.28568
G1 X212.370 Y187.290 E0.26026
G1 X212.096 Y187.413 E0.08559
G1 X204.911 Y194.598 E2.89402
G1 X205.406 Y193.553 E0.32929
G1 X205.862 Y192.762 E0.26015
G1 X206.420 Y191.933 E0.28440
G1 X207.008 Y191.181 E0.27198
G1 X207.598 Y190.526 E0.25101
G1 X210.283 Y187.842 E1.08125
;LAYER_CHANGE
;Z:1.9
;HEIGHT:0.7
;BEFORE_LAYER_CHANGE
G92 E0.0
;1.9


G1 E-2.24000 F2400.000
;WIPE_START
G1 F12480.000
G1 X207.598 Y190.526 E-0.69359
G1 X207.008 Y191.181 E-0.16101
G1 X206.815 Y191.429 E-0.05739
;WIPE_END
G1 E-0.04800 F2400.000
G1 Z1.400 F15600.000
G1 Z1.900
;AFTER_LAYER_CHANGE
;1.9
G1 X207.075 Y190.014
G1 E3.20000 F1500.000
;TYPE:External perimeter
;WIDTH:1.125
G1 F615.524
G1 X207.854 Y189.259 E0.30776
G1 X208.625 Y188.613 E0.28517
G1 X209.375 Y188.068 E0.26319
G1 X210.293 Y187.490 E0.30779
G1 X211.181 Y187.019 E0.28507
