; generated by PrusaSlicer 2.3.1+win64 on 2021-06-09 at 10:41:13 UTC


;
;

;
;
; 

; external perimeters extrusion width = 2.03mm
; perimeters extrusion width = 2.03mm
; infill extrusion width = 2.03mm
; solid infill extrusion width = 2.03mm
; top infill extrusion width = 2.03mm
; first layer extrusion width = 2.03mm

M73 P0 R25
M201 X1250 Y1250 Z1250 E5000 ; sets maximum accelerations, mm/sec^2
M203 X180 Y180 Z180 E180 ; sets maximum feedrates, mm/sec
M204 P1250 R1250 T1250 ; sets acceleration (P, T) and retract acceleration (R), mm/sec^2
M205 X8.00 Y8.00 Z2.00 E10.00 ; sets the jerk limits, mm/sec
M205 S0 T0 ; sets the minimum extruding and travel feed rate, mm/sec
M107
M190 S60 ; set bed temperature and wait for it to be reached
;TYPE:Custom
G90 ; use absolute coordinates
M83 ; extruder relative mode
G28 ; home all without mesh bed level
G29 ; mesh bed leveling 
M104 S215 ; set extruder temp
G92 E0.0
G1 Y-2.0 X179 F2400
M73 P0 R24
G1 Z3 F720
M109 S215 ; wait for extruder temp

; intro line
G1 X170 F1000
G1 Z0.2 F720
G1 X110.0 E8.0 F900
G1 X40.0 E10.0 F700
G92 E0.0

M221 S95 ; set flow
G21 ; set units to millimeters
G90 ; use absolute coordinates
M83 ; use relative distances for extrusion
M900 K0.2 ; Filament gcode LA 1.5
; ; Filament gcode LA 1.0
;LAYER_CHANGE
;Z:0.7
;HEIGHT:0.7
;BEFORE_LAYER_CHANGE
G92 E0.0
;0.7


M73 P1 R24
G1 E-3.20000 F4200.000
G1 Z0.200 F7800.000
G1 Z0.700
;AFTER_LAYER_CHANGE
;0.7
G1 Z0.900
G1 X184.840 Y168.108
G1 Z0.700
G1 E3.20000 F2400.000
;TYPE:Skirt
;WIDTH:2.03
G1 F683.971
G1 X186.001 Y167.019 E0.87111
G1 X187.358 Y166.186 E0.87111
G1 X188.848 Y165.644 E0.86733
G1 X190.423 Y165.411 E0.87111
G1 X244.224 Y165.403 E29.43265
G1 X245.672 Y165.538 E0.79559
G1 X247.077 Y165.940 E0.79936
G1 X248.384 Y166.594 E0.79936
G1 X249.542 Y167.474 E0.79559
G1 X250.519 Y168.551 E0.79559
G1 X251.284 Y169.796 E0.79936
G1 X251.804 Y171.154 E0.79559
G1 X252.066 Y172.584 E0.79559
G1 X252.093 Y226.974 E29.75468
G1 X251.935 Y228.309 E0.73512
G1 X251.552 Y229.597 E0.73512
G1 X250.957 Y230.801 E0.73512
G1 X250.160 Y231.892 E0.73890
G1 X248.949 Y233.019 E0.90507
G1 X247.529 Y233.868 E0.90507
M73 P2 R24
G1 X245.963 Y234.402 E0.90507
G1 X244.313 Y234.597 E0.90884
G1 X190.526 Y234.593 E29.42511
G1 X189.191 Y234.435 E0.73512
G1 X187.903 Y234.052 E0.73512
G1 X186.699 Y233.457 E0.73512
G1 X185.608 Y232.660 E0.73890
G1 X184.481 Y231.449 E0.90507
G1 X183.632 Y230.029 E0.90507
G1 X183.098 Y228.463 E0.90507
G1 X182.903 Y226.813 E0.90884
G1 X182.907 Y173.026 E29.42511
G1 X183.065 Y171.691 E0.73512
G1 X183.448 Y170.403 E0.73512
G1 X184.043 Y169.199 E0.73512
G1 X184.751 Y168.229 E0.65684
G1 E-2.24000 F4200.000
;WIPE_START
G1 F6240.000
G1 X185.776 Y167.237 E-0.91200
;WIPE_END
G1 E-0.04800 F4200.000
G1 Z0.900 F7800.000
G1 X195.757 Y178.257
G1 Z0.700
G1 E3.20000 F2400.000
;TYPE:Perimeter
G1 F683.971
G1 X239.243 Y178.257 E23.78964
M73 P3 R24
G1 X239.243 Y221.743 E23.78964
G1 X195.757 Y221.743 E23.78964
G1 X195.757 Y178.407 E23.70758
G1 E-2.24000 F4200.000
;WIPE_START
G1 F6240.000
G1 X197.183 Y178.402 E-0.91200
;WIPE_END
G1 E-0.04800 F4200.000
G1 Z0.900 F7800.000
G1 X193.877 Y176.377
G1 Z0.700
G1 E3.20000 F2400.000
G1 F683.971
G1 X241.123 Y176.377 E25.84636
M73 P4 R23
G1 X241.123 Y223.623 E25.84636
G1 X193.877 Y223.623 E25.84636
G1 X193.877 Y176.527 E25.76430
G1 E-2.24000 F4200.000
;WIPE_START
G1 F6240.000
G1 X195.304 Y176.523 E-0.91200
;WIPE_END
G1 E-0.04800 F4200.000
G1 Z0.900 F7800.000
G1 X191.997 Y174.497
M73 P5 R23
G1 Z0.700
G1 E3.20000 F2400.000
;TYPE:External perimeter
G1 F683.971
G1 X243.003 Y174.497 E27.90308
G1 X243.003 Y225.503 E27.90308
G1 X191.997 Y225.503 E27.90308
G1 X191.997 Y174.647 E27.82102
M73 P6 R23
G1 X192.963 Y174.756 F7800.000
G1 E-2.24000 F4200.000
;WIPE_START
G1 F6240.000
G1 X193.424 Y174.643 E-0.91200
;WIPE_END
G1 E-0.04800 F4200.000
G1 Z0.900 F7800.000
G1 X234.446 Y179.197
G1 Z0.700
G1 E3.20000 F2400.000
;TYPE:Solid infill
;WIDTH:2.05686
G1 F674.335
G1 X237.457 Y182.208 E2.36263
G1 X237.457 Y184.904 E1.49618
G1 X232.596 Y180.043 E3.81476
G1 X229.900 Y180.043 E1.49618
G1 X237.457 Y187.600 E5.93068
G1 X237.457 Y190.297 E1.49618
G1 X227.203 Y180.043 E8.04661
G1 X224.507 Y180.043 E1.49618
G1 X237.457 Y192.993 E10.16253
G1 X237.457 Y195.690 E1.49618
G1 X221.810 Y180.043 E12.27845
G1 X219.114 Y180.043 E1.49618
G1 X237.457 Y198.386 E14.39438
G1 X237.457 Y201.082 E1.49618
M73 P7 R23
G1 X216.418 Y180.043 E16.51030
G1 X213.721 Y180.043 E1.49618
G1 X237.457 Y203.779 E18.62622
G1 X237.457 Y206.475 E1.49618
G1 X211.025 Y180.043 E20.74215
G1 X208.328 Y180.043 E1.49618
G1 X237.457 Y209.172 E22.85807
G1 X237.457 Y211.868 E1.49618
G1 X205.632 Y180.043 E24.97399
M73 P8 R22
G1 X202.936 Y180.043 E1.49618
G1 X237.457 Y214.564 E27.08992
G1 X237.457 Y217.261 E1.49618
G1 X200.239 Y180.043 E29.20584
G1 X197.543 Y180.043 E1.49615
G1 X237.457 Y219.957 E31.32168
M73 P9 R22
G1 X234.761 Y219.957 E1.49618
G1 X197.543 Y182.739 E29.20576
G1 X197.543 Y185.436 E1.49618
G1 X232.064 Y219.957 E27.08983
G1 X229.368 Y219.957 E1.49618
G1 X197.543 Y188.132 E24.97391
M73 P10 R22
G1 X197.543 Y190.828 E1.49618
G1 X226.672 Y219.957 E22.85799
G1 X223.975 Y219.957 E1.49618
G1 X197.543 Y193.525 E20.74206
G1 X197.543 Y196.221 E1.49618
G1 X221.279 Y219.957 E18.62614
G1 X218.582 Y219.957 E1.49618
G1 X197.543 Y198.918 E16.51022
M73 P11 R22
G1 X197.543 Y201.614 E1.49618
G1 X215.886 Y219.957 E14.39429
G1 X213.190 Y219.957 E1.49618
G1 X197.543 Y204.310 E12.27837
G1 X197.543 Y207.007 E1.49618
G1 X210.493 Y219.957 E10.16244
G1 X207.797 Y219.957 E1.49618
G1 X197.543 Y209.703 E8.04652
G1 X197.543 Y212.400 E1.49618
G1 X205.100 Y219.957 E5.93060
G1 X202.404 Y219.957 E1.49618
G1 X197.543 Y215.096 E3.81467
G1 X197.543 Y217.792 E1.49618
G1 X200.553 Y220.803 E2.36255
M106 S84.15
;LAYER_CHANGE
;Z:1.4
;HEIGHT:0.7
;BEFORE_LAYER_CHANGE
G92 E0.0
;1.4


G1 E-2.24000 F4200.000
;WIPE_START
G1 F6240.000
G1 X199.545 Y219.795 E-0.91200
;WIPE_END
G1 E-0.04800 F4200.000
G1 Z0.900 F7800.000
G1 Z1.400
;AFTER_LAYER_CHANGE
;1.4
G1 X195.557 Y178.057
G1 E3.20000 F2400.000
;TYPE:Perimeter
;WIDTH:2.03
G1 F683.971
G1 X239.443 Y178.057 E24.00846
M73 P12 R22
G1 X239.443 Y221.943 E24.00846
M73 P12 R21
G1 X195.557 Y221.943 E24.00846
G1 X195.557 Y178.207 E23.92640
G1 X193.677 Y176.177 F7800.000
G1 F683.971
G1 X241.323 Y176.177 E26.06518
M73 P13 R21
G1 X241.323 Y223.823 E26.06518
G1 X193.677 Y223.823 E26.06518
G1 X193.677 Y176.327 E25.98312
M73 P14 R21
G1 X191.797 Y174.497 F7800.000
;TYPE:External perimeter
G1 F683.971
G1 X191.797 Y174.297 E0.10941
G1 X243.203 Y174.297 E28.12191
G1 X243.203 Y225.703 E28.12191
G1 X191.797 Y225.703 E28.12191
G1 X191.797 Y174.647 E27.93043
M73 P15 R21
G1 X191.939 Y174.356 F7800.000
G1 X234.608 Y221.003
;TYPE:Solid infill
;WIDTH:2.07511
G1 F667.942
G1 X237.657 Y217.954 E2.41591
G1 X237.657 Y215.231 E1.52496
G1 X232.731 Y220.157 E3.90238
G1 X230.009 Y220.157 E1.52496
G1 X237.657 Y212.509 E6.05900
G1 X237.657 Y209.787 E1.52496
G1 X227.287 Y220.157 E8.21562
G1 X224.565 Y220.157 E1.52496
G1 X237.657 Y207.065 E10.37224
G1 X237.657 Y204.343 E1.52496
G1 X221.843 Y220.157 E12.52886
G1 X219.120 Y220.157 E1.52496
G1 X237.657 Y201.620 E14.68548
M73 P16 R21
G1 X237.657 Y198.898 E1.52496
G1 X216.398 Y220.157 E16.84210
G1 X213.676 Y220.157 E1.52496
G1 X237.657 Y196.176 E18.99871
M73 P16 R20
G1 X237.657 Y193.454 E1.52496
G1 X210.954 Y220.157 E21.15533
G1 X208.232 Y220.157 E1.52496
G1 X237.657 Y190.732 E23.31195
G1 X237.657 Y188.009 E1.52496
M73 P17 R20
G1 X205.509 Y220.157 E25.46857
G1 X202.787 Y220.157 E1.52496
G1 X237.657 Y185.287 E27.62519
G1 X237.657 Y182.565 E1.52496
G1 X200.065 Y220.157 E29.78181
G1 X197.343 Y220.157 E1.52493
G1 X237.657 Y179.843 E31.93834
M73 P18 R20
G1 X234.935 Y179.843 E1.52496
G1 X197.343 Y217.435 E29.78172
G1 X197.343 Y214.713 E1.52496
G1 X232.213 Y179.843 E27.62510
G1 X229.491 Y179.843 E1.52496
G1 X197.343 Y211.991 E25.46848
M73 P19 R20
G1 X197.343 Y209.268 E1.52496
G1 X226.768 Y179.843 E23.31186
G1 X224.046 Y179.843 E1.52496
G1 X197.343 Y206.546 E21.15525
G1 X197.343 Y203.824 E1.52496
G1 X221.324 Y179.843 E18.99863
M73 P20 R20
G1 X218.602 Y179.843 E1.52496
G1 X197.343 Y201.102 E16.84201
G1 X197.343 Y198.380 E1.52496
G1 X215.880 Y179.843 E14.68539
G1 X213.157 Y179.843 E1.52496
G1 X197.343 Y195.657 E12.52877
M73 P20 R19
G1 X197.343 Y192.935 E1.52496
G1 X210.435 Y179.843 E10.37215
G1 X207.713 Y179.843 E1.52496
G1 X197.343 Y190.213 E8.21553
G1 X197.343 Y187.491 E1.52496
G1 X204.991 Y179.843 E6.05891
G1 X202.268 Y179.843 E1.52496
G1 X197.343 Y184.768 E3.90229
G1 X197.343 Y182.046 E1.52496
G1 X200.392 Y178.997 E2.41583
M106 S170.85
;LAYER_CHANGE
;Z:2.1
;HEIGHT:0.7
;BEFORE_LAYER_CHANGE
G92 E0.0
;2.1


G1 E-2.24000 F4200.000
;WIPE_START
G1 F6240.000
G1 X199.384 Y180.005 E-0.91200
;WIPE_END
G1 E-0.04800 F4200.000
G1 Z1.600 F7800.000
G1 Z2.100
;AFTER_LAYER_CHANGE
;2.1
G1 X195.557 Y178.057
G1 E3.20000 F2400.000
;TYPE:Perimeter
;WIDTH:2.03
G1 F683.971
G1 X239.443 Y178.057 E24.00846
M73 P21 R19
G1 X239.443 Y221.943 E24.00846
G1 X195.557 Y221.943 E24.00846
G1 X195.557 Y178.207 E23.92640
M73 P22 R19
G1 X193.677 Y176.177 F7800.000
G1 F683.971
G1 X241.323 Y176.177 E26.06518
G1 X241.323 Y223.823 E26.06518
G1 X193.677 Y223.823 E26.06518
G1 X193.677 Y176.327 E25.98312
M73 P23 R19
G1 X191.797 Y174.497 F7800.000
;TYPE:External perimeter
G1 F683.971
G1 X191.797 Y174.297 E0.10941
G1 X243.203 Y174.297 E28.12191
G1 X243.203 Y225.703 E28.12191
G1 X191.797 Y225.703 E28.12191
M73 P24 R19
G1 X191.797 Y174.647 E27.93043
G1 X191.939 Y174.356 F7800.000
G1 X238.503 Y182.892
;TYPE:Solid infill
;WIDTH:2.07511
G1 F667.942
G1 X235.454 Y179.843 E2.41591
G1 X232.731 Y179.843 E1.52496
G1 X237.657 Y184.769 E3.90238
M73 P24 R18
G1 X237.657 Y187.491 E1.52496
G1 X230.009 Y179.843 E6.05900
G1 X227.287 Y179.843 E1.52496
G1 X237.657 Y190.213 E8.21562
G1 X237.657 Y192.935 E1.52496
G1 X224.565 Y179.843 E10.37224
G1 X221.843 Y179.843 E1.52496
G1 X237.657 Y195.657 E12.52886
G1 X237.657 Y198.380 E1.52496
M73 P25 R18
G1 X219.120 Y179.843 E14.68548
G1 X216.398 Y179.843 E1.52496
G1 X237.657 Y201.102 E16.84210
G1 X237.657 Y203.824 E1.52496
G1 X213.676 Y179.843 E18.99871
G1 X210.954 Y179.843 E1.52496
G1 X237.657 Y206.546 E21.15533
G1 X237.657 Y209.268 E1.52496
G1 X208.232 Y179.843 E23.31195
M73 P26 R18
G1 X205.509 Y179.843 E1.52496
G1 X237.657 Y211.991 E25.46857
G1 X237.657 Y214.713 E1.52496
G1 X202.787 Y179.843 E27.62519
G1 X200.065 Y179.843 E1.52496
G1 X237.657 Y217.435 E29.78181
M73 P27 R18
G1 X237.657 Y220.157 E1.52493
G1 X197.343 Y179.843 E31.93834
G1 X197.343 Y182.565 E1.52496
G1 X234.935 Y220.157 E29.78172
G1 X232.213 Y220.157 E1.52496
G1 X197.343 Y185.287 E27.62510
M73 P28 R18
G1 X197.343 Y188.009 E1.52496
G1 X229.491 Y220.157 E25.46848
G1 X226.768 Y220.157 E1.52496
G1 X197.343 Y190.732 E23.31186
M73 P28 R17
G1 X197.343 Y193.454 E1.52496
G1 X224.046 Y220.157 E21.15525
G1 X221.324 Y220.157 E1.52496
G1 X197.343 Y196.176 E18.99863
M73 P29 R17
G1 X197.343 Y198.898 E1.52496
G1 X218.602 Y220.157 E16.84201
G1 X215.880 Y220.157 E1.52496
G1 X197.343 Y201.620 E14.68539
G1 X197.343 Y204.343 E1.52496
G1 X213.157 Y220.157 E12.52877
G1 X210.435 Y220.157 E1.52496
G1 X197.343 Y207.065 E10.37215
G1 X197.343 Y209.787 E1.52496
G1 X207.713 Y220.157 E8.21553
G1 X204.991 Y220.157 E1.52496
G1 X197.343 Y212.509 E6.05891
G1 X197.343 Y215.232 E1.52496
G1 X202.268 Y220.157 E3.90229
M73 P30 R17
G1 X199.546 Y220.157 E1.52496
G1 X196.497 Y217.108 E2.41582
M106 S255
;LAYER_CHANGE
;Z:2.8
;HEIGHT:0.7
;BEFORE_LAYER_CHANGE
G92 E0.0
;2.8


G1 E-2.24000 F4200.000
;WIPE_START
G1 F6240.000
G1 X197.505 Y218.116 E-0.91200
;WIPE_END
G1 E-0.04800 F4200.000
G1 Z2.300 F7800.000
G1 Z2.800
;AFTER_LAYER_CHANGE
;2.8
G1 X195.557 Y178.057
G1 E3.20000 F2400.000
;TYPE:Perimeter
;WIDTH:2.03
G1 F683.971
G1 X239.443 Y178.057 E24.00846
G1 X239.443 Y221.943 E24.00846
G1 X195.557 Y221.943 E24.00846
G1 X195.557 Y178.207 E23.92640
M73 P31 R17
G1 X193.677 Y176.177 F7800.000
G1 F683.971
G1 X241.323 Y176.177 E26.06518
G1 X241.323 Y223.823 E26.06518
G1 X193.677 Y223.823 E26.06518
M73 P32 R17
G1 X193.677 Y176.327 E25.98312
G1 X191.797 Y174.497 F7800.000
;TYPE:External perimeter
G1 F683.971
G1 X191.797 Y174.297 E0.10941
G1 X243.203 Y174.297 E28.12191
G1 X243.203 Y225.703 E28.12191
M73 P32 R16
G1 X191.797 Y225.703 E28.12191
M73 P33 R16
G1 X191.797 Y174.647 E27.93043
G1 X191.939 Y174.356 F7800.000
G1 X211.622 Y179.843
;TYPE:Internal infill
G1 F683.971
G1 X222.901 Y179.843 E6.17016
G1 X212.099 Y220.157 E22.83258
G1 X223.378 Y220.157 E6.17016
G1 X197.343 Y208.718 F7800.000
G1 F683.971
G1 X197.343 Y219.997 E6.17016
M73 P34 R16
G1 X237.657 Y209.195 E22.83258
G1 X237.657 Y220.157 E5.99726
G1 X197.343 Y179.843 E31.18988
G1 X197.343 Y190.805 E5.99726
G1 X237.657 Y180.003 E22.83258
M73 P35 R16
G1 X237.657 Y191.282 E6.17016
;LAYER_CHANGE
;Z:3.5
;HEIGHT:0.7
;BEFORE_LAYER_CHANGE
G92 E0.0
;3.5


G1 E-2.24000 F4200.000
;WIPE_START
G1 F6240.000
G1 X237.657 Y189.856 E-0.91200
;WIPE_END
G1 E-0.04800 F4200.000
G1 Z3.000 F7800.000
G1 Z3.500
;AFTER_LAYER_CHANGE
;3.5
G1 X195.557 Y178.057
G1 E3.20000 F2400.000
;TYPE:Perimeter
G1 F683.971
G1 X239.443 Y178.057 E24.00846
G1 X239.443 Y221.943 E24.00846
G1 X195.557 Y221.943 E24.00846
G1 X195.557 Y178.207 E23.92640
M73 P36 R16
G1 X193.677 Y176.177 F7800.000
G1 F683.971
G1 X241.323 Y176.177 E26.06518
G1 X241.323 Y223.823 E26.06518
M73 P36 R15
G1 X193.677 Y223.823 E26.06518
M73 P37 R15
G1 X193.677 Y176.327 E25.98312
G1 X191.797 Y174.497 F7800.000
;TYPE:External perimeter
G1 F683.971
G1 X191.797 Y174.297 E0.10941
G1 X243.203 Y174.297 E28.12191
G1 X243.203 Y225.703 E28.12191
G1 X191.797 Y225.703 E28.12191
M73 P38 R15
G1 X191.797 Y174.647 E27.93043
G1 X191.939 Y174.356 F7800.000
G1 X211.622 Y179.843
;TYPE:Internal infill
G1 F683.971
G1 X222.901 Y179.843 E6.17016
G1 X212.099 Y220.157 E22.83258
G1 X223.378 Y220.157 E6.17016
G1 X197.343 Y208.718 F7800.000
G1 F683.971
G1 X197.343 Y219.997 E6.17016
M73 P39 R15
G1 X237.657 Y209.195 E22.83258
G1 X237.657 Y220.157 E5.99726
G1 X197.343 Y179.843 E31.18988
G1 X197.343 Y190.805 E5.99726
G1 X237.657 Y180.003 E22.83258
M73 P40 R15
G1 X237.657 Y191.282 E6.17016
;LAYER_CHANGE
;Z:4.2
;HEIGHT:0.7
;BEFORE_LAYER_CHANGE
G92 E0.0
;4.2


G1 E-2.24000 F4200.000
;WIPE_START
G1 F6240.000
G1 X237.657 Y189.856 E-0.91200
;WIPE_END
G1 E-0.04800 F4200.000
G1 Z3.700 F7800.000
G1 Z4.200
;AFTER_LAYER_CHANGE
;4.2
G1 X195.557 Y178.057
G1 E3.20000 F2400.000
;TYPE:Perimeter
G1 F683.971
G1 X239.443 Y178.057 E24.00846
G1 X239.443 Y221.943 E24.00846
G1 X195.557 Y221.943 E24.00846
M73 P40 R14
G1 X195.557 Y178.207 E23.92640
M73 P41 R14
G1 X193.677 Y176.177 F7800.000
G1 F683.971
G1 X241.323 Y176.177 E26.06518
G1 X241.323 Y223.823 E26.06518
G1 X193.677 Y223.823 E26.06518
M73 P42 R14
G1 X193.677 Y176.327 E25.98312
G1 X191.797 Y174.497 F7800.000
;TYPE:External perimeter
G1 F683.971
G1 X191.797 Y174.297 E0.10941
G1 X243.203 Y174.297 E28.12191
G1 X243.203 Y225.703 E28.12191
G1 X191.797 Y225.703 E28.12191
M73 P43 R14
G1 X191.797 Y174.647 E27.93043
G1 X191.939 Y174.356 F7800.000
G1 X198.611 Y178.955
;TYPE:Bridge infill
;WIDTH:1.01556
;HEIGHT:1
G1 F1111.063
G1 X196.928 Y180.638 E0.80150
G1 X196.928 Y182.145 E0.50749
G1 X199.645 Y179.428 E1.29417
G1 X201.152 Y179.428 E0.50749
G1 X196.928 Y183.652 E2.01187
G1 X196.928 Y185.159 E0.50750
G1 X202.659 Y179.428 E2.72958
G1 X204.166 Y179.428 E0.50750
G1 X196.928 Y186.666 E3.44728
G1 X196.928 Y188.173 E0.50750
G1 X205.673 Y179.428 E4.16499
G1 X207.180 Y179.428 E0.50749
G1 X196.928 Y189.680 E4.88270
G1 X196.928 Y191.187 E0.50749
G1 X208.687 Y179.428 E5.60040
G1 X210.194 Y179.428 E0.50749
G1 X196.455 Y193.166 E6.54315
G1 X205.828 Y208.938 F7800.000
;TYPE:Internal infill
;WIDTH:2.03
;HEIGHT:0.7
G1 F683.971
G1 X205.828 Y211.672 E1.49562
G1 X214.372 Y211.672 E4.67455
M73 P44 R14
G1 X220.628 Y188.328 E13.22162
G1 X205.828 Y188.328 E8.09656
G1 X229.172 Y211.672 E18.06107
G1 X229.172 Y200.394 E6.17016
G1 X238.545 Y203.820 F7800.000
;TYPE:Bridge infill
;WIDTH:1.01556
;HEIGHT:1
G1 F1111.063
G1 X230.637 Y211.727 E3.76600
G1 X230.637 Y210.220 E0.50749
G1 X238.072 Y202.785 E3.54096
