; generated by Slic3r 1.3.0 on 2021-03-30 at 14:57:54

; external perimeters extrusion width = 1.10mm (19.85mm^3/s)
; perimeters extrusion width = 1.40mm (51.71mm^3/s)
; infill extrusion width = 1.25mm (45.71mm^3/s)
; solid infill extrusion width = 1.40mm (25.85mm^3/s)
; top infill extrusion width = 1.40mm (12.93mm^3/s)

M107
M190 S65 ; set bed temperature and wait for it to be reached
M104 S220 ; set temperature
G28 ; home all axes
G1 Z5 F5000 ; lift nozzle

; Filament gcode

M109 S220 ; set temperature and wait for it to be reached
G21 ; set units to millimeters
G90 ; use absolute coordinates
M82 ; use absolute distances for extrusion
G92 E0
G1 Z0.350 F4800.000
G1 E-2.00000 F2400.00000
G92 E0
G1 X184.915 Y135.753 F4800.000
G1 E2.00000 F2400.00000
G1 F2400
G1 X186.668 Y134.274 E2.63866
G1 X188.820 Y133.481 E3.27732
G1 X190.000 Y133.375 E3.60718
G1 X290.000 Y133.375 E31.45436
G1 X292.259 Y133.772 E32.09303
G1 X294.247 Y134.915 E32.73169
G1 X295.726 Y136.668 E33.37035
G1 X296.519 Y138.820 E34.00901
G1 X296.625 Y140.000 E34.33887
G1 X296.625 Y240.000 E62.18605
G1 X296.228 Y242.259 E62.82471
G1 X295.085 Y244.247 E63.46337
G1 X293.332 Y245.726 E64.10203
G1 X291.180 Y246.519 E64.74069
G1 X290.000 Y246.625 E65.07055
G1 X190.000 Y246.625 E92.91774
G1 X187.741 Y246.228 E93.55640
G1 X185.753 Y245.085 E94.19506
G1 X184.274 Y243.332 E94.83372
G1 X183.481 Y241.180 E95.47238
G1 X183.375 Y240.000 E95.80224
G1 X183.375 Y140.000 E123.64942
G1 X183.772 Y137.741 E124.28808
G1 X184.841 Y135.883 E124.88497
G1 E122.88497 F2400.00000
G92 E0
G1 X288.400 Y238.400 F4800.000
G1 E2.00000 F2400.00000
G1 F2400
G1 X191.600 Y238.400 E28.95620
G1 X191.600 Y141.600 E55.91240
G1 X288.400 Y141.600 E82.86859
G1 X288.400 Y238.250 E109.78302
G1 X289.025 Y239.025 F4800.000
G1 F2400
G1 X190.975 Y239.025 E137.08725
G1 X190.975 Y140.975 E164.39147
G1 X289.025 Y140.975 E191.69570
G1 X289.025 Y238.875 E218.95815
G1 X289.650 Y239.650 F4800.000
G1 F1200
G1 X190.350 Y239.650 E246.61040
G1 X190.350 Y140.350 E274.26266
G1 X289.650 Y140.350 E301.91491
G1 X289.650 Y239.500 E329.52539
G1 X288.684 Y239.391 F4800.000
G1 E327.52539 F2400.00000
G92 E0
G1 X287.532 Y238.018 F4800.000
G1 E2.00000 F2400.00000
G1 F1200
G1 X288.018 Y237.532 E2.19169
G1 X288.018 Y236.647 E2.43834
G1 X286.647 Y238.018 E2.97884
G1 X285.763 Y238.018 E3.22549
G1 X288.018 Y235.763 E4.11481
G1 X288.018 Y234.878 E4.36146
G1 X284.878 Y238.018 E5.59959
G1 X283.993 Y238.018 E5.84624
G1 X288.018 Y233.993 E7.43319
G1 X288.018 Y233.109 E7.67984
G1 X283.109 Y238.018 E9.61561
G1 X282.224 Y238.018 E9.86226
G1 X288.018 Y232.224 E12.14684
G1 X288.018 Y231.339 E12.39349
G1 X281.339 Y238.018 E15.02689
G1 X280.454 Y238.018 E15.27354
G1 X288.018 Y230.454 E18.25575
G1 X288.018 Y229.570 E18.50240
G1 X279.570 Y238.018 E21.83343
G1 X278.685 Y238.018 E22.08008
G1 X288.018 Y228.685 E25.75992
G1 X288.018 Y227.800 E26.00657
G1 X277.800 Y238.018 E30.03523
G1 X276.915 Y238.018 E30.28188
G1 X288.018 Y226.915 E34.65936
G1 X288.018 Y226.031 E34.90601
G1 X276.031 Y238.018 E39.63230
G1 X275.146 Y238.018 E39.87895
G1 X288.018 Y225.146 E44.95406
G1 X288.018 Y224.261 E45.20071
G1 X274.261 Y238.018 E50.62463
G1 X273.377 Y238.018 E50.87128
G1 X288.018 Y223.377 E56.64402
G1 X288.018 Y222.492 E56.89067
G1 X272.492 Y238.018 E63.01222
G1 X271.607 Y238.018 E63.25887
G1 X288.018 Y221.607 E69.72924
G1 X288.018 Y220.722 E69.97589
G1 X270.722 Y238.018 E76.79508
G1 X269.838 Y238.018 E77.04173
G1 X288.018 Y219.838 E84.20973
G1 X288.018 Y218.953 E84.45638
G1 X268.953 Y238.018 E91.97320
G1 X268.068 Y238.018 E92.21985
G1 X288.018 Y218.068 E100.08548
G1 X288.018 Y217.183 E100.33213
G1 X267.183 Y238.018 E108.54658
G1 X266.299 Y238.018 E108.79323
G1 X288.018 Y216.299 E117.35650
G1 X288.018 Y215.414 E117.60315
G1 X265.414 Y238.018 E126.51523
G1 X264.529 Y238.018 E126.76188
G1 X288.018 Y214.529 E136.02277
G1 X288.018 Y213.645 E136.26942
G1 X263.645 Y238.018 E145.87913
G1 X262.760 Y238.018 E146.12578
G1 X288.018 Y212.760 E156.08431
G1 X288.018 Y211.875 E156.33096
G1 X261.875 Y238.018 E166.63830
G1 X260.990 Y238.018 E166.88495
G1 X288.018 Y210.990 E177.54111
G1 X288.018 Y210.106 E177.78776
G1 X260.106 Y238.018 E188.79273
G1 X259.221 Y238.018 E189.03938
G1 X288.018 Y209.221 E200.39317
G1 X288.018 Y208.336 E200.63982
G1 X258.336 Y238.018 E212.34243
G1 X257.451 Y238.018 E212.58908
G1 X288.018 Y207.451 E224.64050
G1 X288.018 Y206.567 E224.88715
G1 X256.567 Y238.018 E237.28739
G1 X255.682 Y238.018 E237.53404
G1 X288.018 Y205.682 E250.28309
G1 X288.018 Y204.797 E250.52974
G1 X254.797 Y238.018 E263.62761
G1 X253.913 Y238.018 E263.87426
G1 X288.018 Y203.913 E277.32094
G1 X288.018 Y203.028 E277.56759
G1 X253.028 Y238.018 E291.36309
G1 X252.143 Y238.018 E291.60974
G1 X288.018 Y202.143 E305.75406
G1 X288.018 Y201.258 E306.00071
G1 X251.258 Y238.018 E320.49384
G1 X250.374 Y238.018 E320.74049
G1 X288.018 Y200.374 E335.58244
G1 X288.018 Y199.489 E335.82909
G1 X249.489 Y238.018 E351.01985
G1 X248.604 Y238.018 E351.26650
G1 X288.018 Y198.604 E366.80608
G1 X288.018 Y197.720 E367.05273
G1 X247.719 Y238.018 E382.94112
G1 X246.835 Y238.018 E383.18777
G1 X288.018 Y196.835 E399.42498
G1 X288.018 Y195.950 E399.67163
G1 X245.950 Y238.018 E416.25766
G1 X245.065 Y238.018 E416.50431
G1 X288.018 Y195.065 E433.43915
G1 X288.018 Y194.181 E433.68580
G1 X244.181 Y238.018 E450.96946
G1 X243.296 Y238.018 E451.21611
G1 X288.018 Y193.296 E468.84858
G1 X288.018 Y192.411 E469.09523
G1 X242.411 Y238.018 E487.07652
G1 X241.526 Y238.018 E487.32317
G1 X288.018 Y191.526 E505.65327
G1 X288.018 Y190.642 E505.89992
G1 X240.642 Y238.018 E524.57884
G1 X239.757 Y238.018 E524.82549
G1 X288.018 Y189.757 E543.85323
G1 X288.018 Y188.872 E544.09988
G1 X238.872 Y238.018 E563.47643
G1 X237.988 Y238.018 E563.72308
G1 X288.018 Y187.988 E583.44845
G1 X288.018 Y187.103 E583.69510
G1 X237.103 Y238.018 E603.76928
G1 X236.218 Y238.018 E604.01593
G1 X288.018 Y186.218 E624.43893
G1 X288.018 Y185.333 E624.68558
G1 X235.333 Y238.018 E645.45739
G1 X234.449 Y238.018 E645.70404
G1 X288.018 Y184.449 E666.82467
G1 X288.018 Y183.564 E667.07132
G1 X233.564 Y238.018 E688.54076
G1 X232.679 Y238.018 E688.78741
G1 X288.018 Y182.679 E710.60568
G1 X288.018 Y181.794 E710.85233
G1 X231.794 Y238.018 E733.01940
G1 X230.910 Y238.018 E733.26605
G1 X288.018 Y180.910 E755.78194
G1 X288.018 Y180.025 E756.02859
G1 X230.025 Y238.018 E778.89330
G1 X229.140 Y238.018 E779.13995
G1 X288.018 Y179.140 E802.35348
G1 X288.018 Y178.256 E802.60013
G1 X228.256 Y238.018 E826.16247
G1 X227.371 Y238.018 E826.40912
G1 X288.018 Y177.371 E850.32027
G1 X288.018 Y176.486 E850.56692
G1 X226.486 Y238.018 E874.82689
G1 X225.601 Y238.018 E875.07354
G1 X288.018 Y175.601 E899.68233
G1 X288.018 Y174.717 E899.92898
G1 X224.717 Y238.018 E924.88658
G1 X223.832 Y238.018 E925.13323
G1 X288.018 Y173.832 E950.43965
G1 X288.018 Y172.947 E950.68630
G1 X222.947 Y238.018 E976.34154
G1 X222.062 Y238.018 E976.58819
G1 X288.018 Y172.062 E1002.59224
G1 X288.018 Y171.178 E1002.83889
G1 X221.178 Y238.018 E1029.19175
G1 X220.293 Y238.018 E1029.43840
G1 X288.018 Y170.293 E1056.14008
G1 X288.018 Y169.408 E1056.38673
G1 X219.408 Y238.018 E1083.43723
G1 X218.524 Y238.018 E1083.68388
G1 X288.018 Y168.524 E1111.08320
G1 X288.018 Y167.639 E1111.32985
G1 X217.639 Y238.018 E1139.07797
G1 X216.754 Y238.018 E1139.32462
G1 X288.018 Y166.754 E1167.42157
G1 X288.018 Y165.869 E1167.66822
G1 X215.869 Y238.018 E1196.11398
G1 X214.985 Y238.018 E1196.36063
G1 X288.018 Y164.985 E1225.15521
G1 X288.018 Y164.100 E1225.40186
G1 X214.100 Y238.018 E1254.54525
G1 X213.215 Y238.018 E1254.79190
G1 X288.018 Y163.215 E1284.28411
G1 X288.018 Y162.330 E1284.53076
G1 X212.330 Y238.018 E1314.37178
G1 X211.446 Y238.018 E1314.61843
G1 X288.018 Y161.446 E1344.80827
G1 X288.018 Y160.561 E1345.05492
G1 X210.561 Y238.018 E1375.59357
G1 X209.676 Y238.018 E1375.84022
G1 X288.018 Y159.676 E1406.72769
G1 X288.018 Y158.792 E1406.97434
G1 X208.792 Y238.018 E1438.21063
G1 X207.907 Y238.018 E1438.45728
G1 X288.018 Y157.907 E1470.04238
G1 X288.018 Y157.022 E1470.28903
G1 X207.022 Y238.018 E1502.22295
G1 X206.137 Y238.018 E1502.46960
G1 X288.018 Y156.137 E1534.75233
G1 X288.018 Y155.253 E1534.99898
G1 X205.253 Y238.018 E1567.63053
G1 X204.368 Y238.018 E1567.87718
G1 X288.018 Y154.368 E1600.85755
G1 X288.018 Y153.483 E1601.10420
G1 X203.483 Y238.018 E1634.43338
G1 X202.598 Y238.018 E1634.68003
G1 X288.018 Y152.598 E1668.35802
G1 X288.018 Y151.714 E1668.60467
G1 X201.714 Y238.018 E1702.63148
G1 X200.829 Y238.018 E1702.87813
G1 X288.018 Y150.829 E1737.25376
G1 X288.018 Y149.944 E1737.50041
G1 X199.944 Y238.018 E1772.22485
G1 X199.060 Y238.018 E1772.47150
G1 X288.018 Y149.060 E1807.54476
G1 X288.018 Y148.175 E1807.79141
G1 X198.175 Y238.018 E1843.21348
G1 X197.290 Y238.018 E1843.46013
G1 X288.018 Y147.290 E1879.23102
G1 X288.018 Y146.405 E1879.47767
G1 X196.405 Y238.018 E1915.59738
G1 X195.521 Y238.018 E1915.84403
G1 X288.018 Y145.521 E1952.31255
G1 X288.018 Y144.636 E1952.55920
G1 X194.636 Y238.018 E1989.37654
G1 X193.751 Y238.018 E1989.62319
G1 X288.018 Y143.751 E2026.78934
G1 X288.018 Y142.866 E2027.03599
G1 X192.866 Y238.018 E2064.55096
G1 X191.982 Y238.018 E2064.79761
G1 X288.018 Y141.982 E2102.66139
G1 X287.134 Y141.982 E2102.90801
G1 X191.982 Y237.134 E2140.42307
G1 X191.982 Y236.249 E2140.66972
G1 X286.249 Y141.982 E2177.83597
G1 X285.364 Y141.982 E2178.08262
G1 X191.982 Y235.364 E2214.90006
G1 X191.982 Y234.480 E2215.14671
G1 X284.480 Y141.982 E2251.61533
G1 X283.595 Y141.982 E2251.86198
G1 X191.982 Y233.595 E2287.98178
G1 X191.982 Y232.710 E2288.22843
G1 X282.710 Y141.982 E2323.99942
G1 X281.825 Y141.982 E2324.24607
G1 X191.982 Y231.825 E2359.66824
G1 X191.982 Y230.941 E2359.91489
G1 X280.941 Y141.982 E2394.98824
G1 X280.056 Y141.982 E2395.23489
G1 X191.982 Y230.056 E2429.95943
G1 X191.982 Y229.171 E2430.20608
G1 X279.171 Y141.982 E2464.58181
G1 X278.287 Y141.982 E2464.82846
G1 X191.982 Y228.286 E2498.85537
G1 X191.982 Y227.402 E2499.10202
G1 X277.402 Y141.982 E2532.78011
G1 X276.517 Y141.982 E2533.02676
G1 X191.982 Y226.517 E2566.35604
G1 X191.982 Y225.632 E2566.60269
G1 X275.632 Y141.982 E2599.58315
G1 X274.748 Y141.982 E2599.82980
G1 X191.982 Y224.748 E2632.46144
G1 X191.982 Y223.863 E2632.70809
G1 X273.863 Y141.982 E2664.99092
G1 X272.978 Y141.982 E2665.23757
G1 X191.982 Y222.978 E2697.17159
G1 X191.982 Y222.093 E2697.41824
G1 X272.093 Y141.982 E2729.00343
G1 X271.209 Y141.982 E2729.25008
G1 X191.982 Y221.209 E2760.48646
G1 X191.982 Y220.324 E2760.73311
G1 X270.324 Y141.982 E2791.62068
G1 X269.439 Y141.982 E2791.86733
G1 X191.982 Y219.439 E2822.40608
G1 X191.982 Y218.555 E2822.65273
G1 X268.555 Y141.982 E2852.84267
G1 X267.670 Y141.982 E2853.08932
G1 X191.982 Y217.670 E2882.93044
G1 X191.982 Y216.785 E2883.17709
G1 X266.785 Y141.982 E2912.66939
G1 X265.900 Y141.982 E2912.91604
G1 X191.982 Y215.900 E2942.05953
G1 X191.982 Y215.016 E2942.30618
G1 X265.016 Y141.982 E2971.10085
G1 X264.131 Y141.982 E2971.34750
G1 X191.982 Y214.131 E2999.79336
G1 X191.982 Y213.246 E3000.04001
G1 X263.246 Y141.982 E3028.13705
G1 X262.361 Y141.982 E3028.38370
G1 X191.982 Y212.361 E3056.13193
G1 X191.982 Y211.477 E3056.37858
G1 X261.477 Y141.982 E3083.77798
G1 X260.592 Y141.982 E3084.02463
G1 X191.982 Y210.592 E3111.07523
G1 X191.982 Y209.707 E3111.32188
G1 X259.707 Y141.982 E3138.02366
G1 X258.823 Y141.982 E3138.27030
G1 X191.982 Y208.823 E3164.62327
G1 X191.982 Y207.938 E3164.86992
G1 X257.938 Y141.982 E3190.87406
G1 X257.053 Y141.982 E3191.12071
G1 X191.982 Y207.053 E3216.77604
G1 X191.982 Y206.168 E3217.02269
G1 X256.168 Y141.982 E3242.32921
G1 X255.284 Y141.982 E3242.57586
G1 X191.982 Y205.284 E3267.53356
G1 X191.982 Y204.399 E3267.78021
G1 X254.399 Y141.982 E3292.38909
G1 X253.514 Y141.982 E3292.63574
G1 X191.982 Y203.514 E3316.89581
G1 X191.982 Y202.629 E3317.14246
G1 X252.629 Y141.982 E3341.05371
G1 X251.745 Y141.982 E3341.30036
G1 X191.982 Y201.745 E3364.86280
G1 X191.982 Y200.860 E3365.10945
G1 X250.860 Y141.982 E3388.32307
G1 X249.975 Y141.982 E3388.56972
G1 X191.982 Y199.975 E3411.43453
G1 X191.982 Y199.091 E3411.68118
G1 X249.091 Y141.982 E3434.19717
G1 X248.206 Y141.982 E3434.44382
G1 X191.982 Y198.206 E3456.61099
G1 X191.982 Y197.321 E3456.85764
G1 X247.321 Y141.982 E3478.67600
G1 X246.436 Y141.982 E3478.92265
G1 X191.982 Y196.436 E3500.39219
G1 X191.982 Y195.552 E3500.63884
G1 X245.552 Y141.982 E3521.75957
G1 X244.667 Y141.982 E3522.00622
G1 X191.982 Y194.667 E3542.77813
G1 X191.982 Y193.782 E3543.02478
G1 X243.782 Y141.982 E3563.44788
G1 X242.897 Y141.982 E3563.69453
G1 X191.982 Y192.897 E3583.76881
G1 X191.982 Y192.013 E3584.01546
G1 X242.013 Y141.982 E3603.74092
G1 X241.128 Y141.982 E3603.98757
G1 X191.982 Y191.128 E3623.36422
G1 X191.982 Y190.243 E3623.61087
G1 X240.243 Y141.982 E3642.63870
G1 X239.359 Y141.982 E3642.88535
G1 X191.982 Y189.359 E3661.56437
G1 X191.982 Y188.474 E3661.81102
G1 X238.474 Y141.982 E3680.14122
G1 X237.589 Y141.982 E3680.38787
G1 X191.982 Y187.589 E3698.36925
G1 X191.982 Y186.704 E3698.61590
G1 X236.704 Y141.982 E3716.24847
G1 X235.820 Y141.982 E3716.49512
G1 X191.982 Y185.820 E3733.77888
G1 X191.982 Y184.935 E3734.02553
G1 X234.935 Y141.982 E3750.96046
G1 X234.050 Y141.982 E3751.20711
G1 X191.982 Y184.050 E3767.79324
G1 X191.982 Y183.165 E3768.03989
G1 X233.165 Y141.982 E3784.27719
G1 X232.281 Y141.982 E3784.52384
G1 X191.982 Y182.281 E3800.41233
G1 X191.982 Y181.396 E3800.65898
G1 X231.396 Y141.982 E3816.19866
G1 X230.511 Y141.982 E3816.44531
G1 X191.982 Y180.511 E3831.63617
G1 X191.982 Y179.627 E3831.88282
G1 X229.627 Y141.982 E3846.72486
G1 X228.742 Y141.982 E3846.97151
G1 X191.982 Y178.742 E3861.46474
G1 X191.982 Y177.857 E3861.71139
G1 X227.857 Y141.982 E3875.85581
G1 X226.972 Y141.982 E3876.10246
G1 X191.982 Y176.972 E3889.89805
G1 X191.982 Y176.088 E3890.14470
G1 X226.088 Y141.982 E3903.59148
G1 X225.203 Y141.982 E3903.83813
G1 X191.982 Y175.203 E3916.93610
G1 X191.982 Y174.318 E3917.18275
G1 X224.318 Y141.982 E3929.93190
G1 X223.433 Y141.982 E3930.17855
G1 X191.982 Y173.433 E3942.57888
G1 X191.982 Y172.549 E3942.82553
G1 X222.549 Y141.982 E3954.87705
G1 X221.664 Y141.982 E3955.12370
G1 X191.982 Y171.664 E3966.82640
G1 X191.982 Y170.779 E3967.07305
G1 X220.779 Y141.982 E3978.42694
G1 X219.895 Y141.982 E3978.67359
G1 X191.982 Y169.895 E3989.67866
G1 X191.982 Y169.010 E3989.92531
G1 X219.010 Y141.982 E4000.58156
G1 X218.125 Y141.982 E4000.82821
G1 X191.982 Y168.125 E4011.13565
G1 X191.982 Y167.240 E4011.38230
G1 X217.240 Y141.982 E4021.34092
G1 X216.356 Y141.982 E4021.58757
G1 X191.982 Y166.356 E4031.19738
G1 X191.982 Y165.471 E4031.44403
G1 X215.471 Y141.982 E4040.70503
G1 X214.586 Y141.982 E4040.95168
G1 X191.982 Y164.586 E4049.86385
G1 X191.982 Y163.701 E4050.11050
G1 X213.701 Y141.982 E4058.67386
G1 X212.817 Y141.982 E4058.92051
G1 X191.982 Y162.817 E4067.13506
G1 X191.982 Y161.932 E4067.38171
G1 X211.932 Y141.982 E4075.24744
G1 X211.047 Y141.982 E4075.49409
G1 X191.982 Y161.047 E4083.01100
G1 X191.982 Y160.163 E4083.25765
G1 X210.163 Y141.982 E4090.42575
G1 X209.278 Y141.982 E4090.67240
G1 X191.982 Y159.278 E4097.49169
G1 X191.982 Y158.393 E4097.73834
G1 X208.393 Y141.982 E4104.20880
G1 X207.508 Y141.982 E4104.45545
G1 X191.982 Y157.508 E4110.57710
G1 X191.982 Y156.624 E4110.82375
G1 X206.624 Y141.982 E4116.59659
G1 X205.739 Y141.982 E4116.84324
G1 X191.982 Y155.739 E4122.26726
G1 X191.982 Y154.854 E4122.51391
G1 X204.854 Y141.982 E4127.58911
G1 X203.970 Y141.982 E4127.83576
G1 X191.982 Y153.969 E4132.56215
G1 X191.982 Y153.085 E4132.80880
G1 X203.085 Y141.982 E4137.18638
G1 X202.200 Y141.982 E4137.43303
G1 X191.982 Y152.200 E4141.46178
G1 X191.982 Y151.315 E4141.70843
G1 X201.315 Y141.982 E4145.38837
G1 X200.431 Y141.982 E4145.63502
G1 X191.982 Y150.431 E4148.96615
G1 X191.982 Y149.546 E4149.21280
G1 X199.546 Y141.982 E4152.19511
G1 X198.661 Y141.982 E4152.44176
G1 X191.982 Y148.661 E4155.07525
G1 X191.982 Y147.776 E4155.32190
G1 X197.776 Y141.982 E4157.60658
G1 X196.892 Y141.982 E4157.85323
G1 X191.982 Y146.892 E4159.78910
G1 X191.982 Y146.007 E4160.03575
