; generated by PrusaSlicer 2.2.0+win64 on 2021-03-10 at 14:27:11 UTC

; 

; external perimeters extrusion width = 0.45mm
; perimeters extrusion width = 0.45mm
; infill extrusion width = 0.45mm
; solid infill extrusion width = 0.45mm
; top infill extrusion width = 0.40mm
; first layer extrusion width = 0.42mm

M73 P0 R67
M73 Q0 S69
M201 X1000 Y1000 Z200 E5000 ; sets maximum accelerations, mm/sec^2
M203 X200 Y200 Z12 E120 ; sets maximum feedrates, mm/sec
M204 P1250 R1250 T1250 ; sets acceleration (P, T) and retract acceleration (R), mm/sec^2
M205 X8.00 Y8.00 Z0.40 E4.50 ; sets the jerk limits, mm/sec
M205 S0 T0 ; sets the minimum extruding and travel feed rate, mm/sec
M107
M862.3 P "MK3S" ; printer model check
M862.1 P0.4 ; nozzle diameter check
M115 U3.9.2 ; tell printer latest fw version
G90 ; use absolute coordinates
M83 ; extruder relative mode
M104 S215 ; set extruder temp
M140 S60 ; set bed temp
M190 S60 ; wait for bed temp
M109 S215 ; wait for extruder temp
G28 W ; home all without mesh bed level
G80 ; mesh bed leveling
G1 Y-3.0 F1000.0 ; go outside print area
G92 E0.0
G1 X60.0 E9.0 F1000.0 ; intro line
M73 Q0 S69
M73 P0 R67
G1 X100.0 E12.5 F1000.0 ; intro line
G92 E0.0
M221 S95

; Don't change E values below. Excessive value can damage the printer.

M907 E538 ; set extruder motor current
G21 ; set units to millimeters
G90 ; use absolute coordinates
M83 ; use relative distances for extrusion
M900 K0.05 ; Filament gcode LA 1.5
M900 K30 ; Filament gcode LA 1.0
;BEFORE_LAYER_CHANGE
G92 E0.0
;0.2


G1 E-0.80000 F2100.00000
G1 Z0.400 F10800.000
;AFTER_LAYER_CHANGE
;0.2
G1 X109.128 Y42.788
G1 Z0.200
G1 E0.80000 F2100.00000
M204 S1000
G1 F1200.000
G1 X109.866 Y42.627 E0.02367
G1 X140.004 Y42.623 E0.94496
G1 X140.902 Y42.801 E0.02872
G1 X141.667 Y43.305 E0.02872
G1 X142.184 Y44.062 E0.02872
G1 X142.377 Y44.957 E0.02872
G1 X142.377 Y165.000 E3.76386
G1 X142.309 Y165.566 E0.01787
G1 X142.015 Y166.261 E0.02367
G1 X141.518 Y166.829 E0.02367
G1 X140.868 Y167.213 E0.02367
G1 X140.127 Y167.374 E0.02378
G1 X109.996 Y167.377 E0.94472
G1 X109.434 Y167.309 E0.01775
G1 X108.720 Y167.003 E0.02437
G1 X108.142 Y166.483 E0.02437
G1 X107.763 Y165.804 E0.02437
G1 X107.623 Y165.035 E0.02449
G1 X107.623 Y45.000 E3.76362
G1 X107.691 Y44.434 E0.01787
G1 X107.985 Y43.739 E0.02367
G1 X108.479 Y43.173 E0.02355
G1 X109.077 Y42.819 E0.02178
; printing object anschluss_kabinet.stl id:0 copy 0
G1 F8640.000
G1 X109.866 Y42.627 E-0.18749
G1 X112.345 Y42.626 E-0.57251
G1 E-0.04000 F2100.00000
G1 Z0.600 F10800.000
G1 X117.537 Y124.241
G1 Z0.200
G1 E0.80000 F2100.00000
G1 F1200.000
G1 X117.975 Y124.213 E0.01377
G1 X132.025 Y124.213 E0.44053
G1 X132.463 Y124.241 E0.01377
G1 X132.910 Y124.323 E0.01423
G1 X133.343 Y124.458 E0.01421
G1 X133.760 Y124.646 E0.01437
G1 X134.153 Y124.883 E0.01436
G1 X134.511 Y125.164 E0.01429
G1 X134.836 Y125.489 E0.01439
G1 X135.117 Y125.847 E0.01429
G1 X135.354 Y126.240 E0.01436
G1 X135.542 Y126.657 E0.01437
G1 X135.677 Y127.090 E0.01421
G1 X135.759 Y127.537 E0.01423
G1 X135.787 Y127.975 E0.01377
G1 X135.787 Y129.025 E0.03293
G1 X135.759 Y129.463 E0.01377
G1 X135.677 Y129.910 E0.01423
G1 X135.542 Y130.343 E0.01421
G1 X135.354 Y130.760 E0.01437
G1 X135.117 Y131.153 E0.01436
G1 X134.836 Y131.511 E0.01429
G1 X134.511 Y131.836 E0.01439
G1 X134.153 Y132.117 E0.01429
G1 X133.760 Y132.354 E0.01436
G1 X133.343 Y132.542 E0.01437
G1 X132.910 Y132.677 E0.01421
G1 X132.463 Y132.759 E0.01423
G1 X132.025 Y132.787 E0.01377
G1 X117.975 Y132.787 E0.44053
G1 X117.537 Y132.759 E0.01377
G1 X117.090 Y132.677 E0.01423
G1 X116.657 Y132.542 E0.01421
G1 X116.240 Y132.354 E0.01437
G1 X115.847 Y132.117 E0.01436
G1 X115.489 Y131.836 E0.01429
G1 X115.164 Y131.511 E0.01439
G1 X114.883 Y131.153 E0.01429
G1 X114.646 Y130.760 E0.01436
G1 X114.458 Y130.343 E0.01437
G1 X114.323 Y129.910 E0.01421
G1 X114.241 Y129.463 E0.01423
G1 X114.213 Y129.025 E0.01377
G1 X114.213 Y127.975 E0.03293
G1 X114.241 Y127.537 E0.01377
G1 X114.323 Y127.090 E0.01423
G1 X114.458 Y126.657 E0.01421
G1 X114.646 Y126.240 E0.01437
G1 X114.883 Y125.847 E0.01436
G1 X115.164 Y125.489 E0.01429
G1 X115.489 Y125.164 E0.01439
G1 X115.847 Y124.883 E0.01429
G1 X116.240 Y124.646 E0.01436
G1 X116.657 Y124.458 E0.01437
G1 X117.090 Y124.323 E0.01421
G1 X117.477 Y124.252 E0.01235
G1 X117.545 Y124.623 F10800.000
G1 F1200.000
G1 X117.987 Y124.590 E0.01388
G1 X132.013 Y124.590 E0.43978
G1 X132.417 Y124.616 E0.01270
G1 X132.819 Y124.689 E0.01282
G1 X133.208 Y124.811 E0.01277
G1 X133.585 Y124.981 E0.01295
G1 X133.938 Y125.194 E0.01293
G1 X134.261 Y125.447 E0.01285
G1 X134.553 Y125.739 E0.01298
G1 X134.806 Y126.062 E0.01285
G1 X135.019 Y126.415 E0.01293
G1 X135.189 Y126.792 E0.01295
G1 X135.311 Y127.181 E0.01277
G1 X135.384 Y127.583 E0.01282
G1 X135.410 Y127.987 E0.01270
G1 X135.410 Y129.013 E0.03217
G1 X135.384 Y129.417 E0.01270
G1 X135.311 Y129.819 E0.01282
G1 X135.189 Y130.208 E0.01277
G1 X135.019 Y130.585 E0.01295
G1 X134.806 Y130.938 E0.01293
G1 X134.553 Y131.261 E0.01285
G1 X134.261 Y131.553 E0.01298
G1 X133.938 Y131.806 E0.01285
G1 X133.585 Y132.019 E0.01293
G1 X133.208 Y132.189 E0.01295
G1 X132.819 Y132.311 E0.01277
G1 X132.417 Y132.384 E0.01282
G1 X132.013 Y132.410 E0.01270
G1 X117.987 Y132.410 E0.43978
G1 X117.583 Y132.384 E0.01270
G1 X117.181 Y132.311 E0.01282
G1 X116.792 Y132.189 E0.01277
G1 X116.415 Y132.019 E0.01295
G1 X116.062 Y131.806 E0.01293
G1 X115.739 Y131.553 E0.01285
G1 X115.447 Y131.261 E0.01298
G1 X115.194 Y130.938 E0.01285
G1 X114.981 Y130.585 E0.01293
G1 X114.811 Y130.208 E0.01295
G1 X114.689 Y129.819 E0.01277
G1 X114.616 Y129.417 E0.01282
G1 X114.590 Y129.013 E0.01270
G1 X114.590 Y127.987 E0.03217
G1 X114.616 Y127.583 E0.01270
G1 X114.689 Y127.181 E0.01282
G1 X114.811 Y126.792 E0.01277
G1 X114.981 Y126.415 E0.01295
G1 X115.194 Y126.062 E0.01293
G1 X115.447 Y125.739 E0.01285
G1 X115.739 Y125.447 E0.01298
G1 X116.062 Y125.194 E0.01285
G1 X116.415 Y124.981 E0.01293
G1 X116.792 Y124.811 E0.01295
G1 X117.181 Y124.689 E0.01277
G1 X117.486 Y124.633 E0.00975
G1 X117.699 Y124.253 F10800.000
G1 F8640.000
G1 X117.987 Y124.590 E-0.11603
G1 X120.776 Y124.590 E-0.64397
G1 E-0.04000 F2100.00000
G1 Z0.600 F10800.000
G1 X117.537 Y146.241
G1 Z0.200
G1 E0.80000 F2100.00000
G1 F1200.000
G1 X117.975 Y146.213 E0.01377
G1 X132.025 Y146.213 E0.44053
G1 X132.463 Y146.241 E0.01377
G1 X132.910 Y146.323 E0.01423
G1 X133.343 Y146.458 E0.01421
G1 X133.760 Y146.646 E0.01437
G1 X134.153 Y146.883 E0.01436
G1 X134.511 Y147.164 E0.01429
G1 X134.836 Y147.489 E0.01439
G1 X135.117 Y147.847 E0.01429
G1 X135.354 Y148.240 E0.01436
G1 X135.542 Y148.657 E0.01437
G1 X135.677 Y149.090 E0.01421
G1 X135.759 Y149.537 E0.01423
G1 X135.787 Y149.975 E0.01377
G1 X135.787 Y151.025 E0.03293
G1 X135.759 Y151.463 E0.01377
G1 X135.677 Y151.910 E0.01423
G1 X135.542 Y152.343 E0.01421
G1 X135.354 Y152.760 E0.01437
G1 X135.117 Y153.153 E0.01436
G1 X134.836 Y153.511 E0.01429
G1 X134.511 Y153.836 E0.01439
G1 X134.153 Y154.117 E0.01429
G1 X133.760 Y154.354 E0.01436
G1 X133.343 Y154.542 E0.01437
G1 X132.910 Y154.677 E0.01421
G1 X132.463 Y154.759 E0.01423
G1 X132.025 Y154.787 E0.01377
G1 X117.975 Y154.787 E0.44053
G1 X117.537 Y154.759 E0.01377
G1 X117.090 Y154.677 E0.01423
G1 X116.657 Y154.542 E0.01421
G1 X116.240 Y154.354 E0.01437
G1 X115.847 Y154.117 E0.01436
G1 X115.489 Y153.836 E0.01429
G1 X115.164 Y153.511 E0.01439
G1 X114.883 Y153.153 E0.01429
G1 X114.646 Y152.760 E0.01436
G1 X114.458 Y152.343 E0.01437
G1 X114.323 Y151.910 E0.01421
G1 X114.241 Y151.463 E0.01423
G1 X114.213 Y151.025 E0.01377
G1 X114.213 Y149.975 E0.03293
G1 X114.241 Y149.537 E0.01377
G1 X114.323 Y149.090 E0.01423
G1 X114.458 Y148.657 E0.01421
G1 X114.646 Y148.240 E0.01437
G1 X114.883 Y147.847 E0.01436
G1 X115.164 Y147.489 E0.01429
G1 X115.489 Y147.164 E0.01439
G1 X115.847 Y146.883 E0.01429
G1 X116.240 Y146.646 E0.01436
G1 X116.657 Y146.458 E0.01437
G1 X117.090 Y146.323 E0.01421
G1 X117.477 Y146.252 E0.01235
G1 X117.545 Y146.623 F10800.000
G1 F1200.000
G1 X117.987 Y146.590 E0.01388
G1 X132.013 Y146.590 E0.43978
G1 X132.417 Y146.616 E0.01270
G1 X132.819 Y146.689 E0.01282
G1 X133.208 Y146.811 E0.01277
G1 X133.585 Y146.981 E0.01295
G1 X133.938 Y147.194 E0.01293
G1 X134.261 Y147.447 E0.01285
G1 X134.553 Y147.739 E0.01298
G1 X134.806 Y148.062 E0.01285
G1 X135.019 Y148.415 E0.01293
G1 X135.189 Y148.792 E0.01295
G1 X135.311 Y149.181 E0.01277
G1 X135.384 Y149.583 E0.01282
G1 X135.410 Y149.987 E0.01270
G1 X135.410 Y151.013 E0.03217
G1 X135.384 Y151.417 E0.01270
G1 X135.311 Y151.819 E0.01282
G1 X135.189 Y152.208 E0.01277
G1 X135.019 Y152.585 E0.01295
G1 X134.806 Y152.938 E0.01293
G1 X134.553 Y153.261 E0.01285
G1 X134.261 Y153.553 E0.01298
G1 X133.938 Y153.806 E0.01285
G1 X133.585 Y154.019 E0.01293
G1 X133.208 Y154.189 E0.01295
G1 X132.819 Y154.311 E0.01277
G1 X132.417 Y154.384 E0.01282
G1 X132.013 Y154.410 E0.01270
G1 X117.987 Y154.410 E0.43978
G1 X117.583 Y154.384 E0.01270
G1 X117.181 Y154.311 E0.01282
G1 X116.792 Y154.189 E0.01277
G1 X116.415 Y154.019 E0.01295
G1 X116.062 Y153.806 E0.01293
G1 X115.739 Y153.553 E0.01285
G1 X115.447 Y153.261 E0.01298
G1 X115.194 Y152.938 E0.01285
G1 X114.981 Y152.585 E0.01293
G1 X114.811 Y152.208 E0.01295
G1 X114.689 Y151.819 E0.01277
G1 X114.616 Y151.417 E0.01282
G1 X114.590 Y151.013 E0.01270
G1 X114.590 Y149.987 E0.03217
G1 X114.616 Y149.583 E0.01270
G1 X114.689 Y149.181 E0.01282
G1 X114.811 Y148.792 E0.01277
G1 X114.981 Y148.415 E0.01295
G1 X115.194 Y148.062 E0.01293
G1 X115.447 Y147.739 E0.01285
G1 X115.739 Y147.447 E0.01298
G1 X116.062 Y147.194 E0.01285
G1 X116.415 Y146.981 E0.01293
G1 X116.792 Y146.811 E0.01295
G1 X117.181 Y146.689 E0.01277
G1 X117.486 Y146.633 E0.00975
G1 X117.699 Y146.253 F10800.000
G1 F8640.000
G1 X117.987 Y146.590 E-0.11603
G1 X120.776 Y146.590 E-0.64397
G1 E-0.04000 F2100.00000
G1 Z0.600 F10800.000
G1 X120.000 Y88.289
G1 Z0.200
G1 E0.80000 F2100.00000
G1 F1200.000
G1 X119.571 Y88.260 E0.01348
G1 X119.148 Y88.176 E0.01352
G1 X118.742 Y88.038 E0.01343
G1 X118.355 Y87.847 E0.01353
G1 X117.998 Y87.610 E0.01344
G1 X117.675 Y87.325 E0.01351
G1 X117.390 Y87.001 E0.01351
G1 X117.153 Y86.645 E0.01345
G1 X116.962 Y86.258 E0.01353
G1 X116.824 Y85.853 E0.01339
G1 X116.741 Y85.435 E0.01338
G1 X116.711 Y85.000 E0.01367
G1 X116.741 Y84.565 E0.01368
G1 X116.824 Y84.147 E0.01337
G1 X116.962 Y83.742 E0.01340
G1 X117.153 Y83.355 E0.01353
G1 X117.390 Y82.998 E0.01344
G1 X117.675 Y82.675 E0.01351
G1 X117.999 Y82.390 E0.01351
G1 X118.355 Y82.153 E0.01345
G1 X118.742 Y81.962 E0.01353
G1 X119.148 Y81.824 E0.01343
G1 X119.571 Y81.740 E0.01353
G1 X120.000 Y81.711 E0.01347
G1 X120.429 Y81.740 E0.01348
G1 X120.852 Y81.824 E0.01352
G1 X121.258 Y81.962 E0.01343
G1 X121.645 Y82.153 E0.01353
G1 X122.002 Y82.390 E0.01344
G1 X122.325 Y82.675 E0.01351
G1 X122.610 Y82.999 E0.01351
G1 X122.847 Y83.355 E0.01345
G1 X123.038 Y83.742 E0.01353
G1 X123.176 Y84.147 E0.01339
G1 X123.259 Y84.565 E0.01338
G1 X123.289 Y85.000 E0.01367
G1 X123.259 Y85.435 E0.01368
G1 X123.176 Y85.853 E0.01337
G1 X123.038 Y86.258 E0.01340
G1 X122.847 Y86.645 E0.01353
G1 X122.610 Y87.002 E0.01344
G1 X122.325 Y87.325 E0.01351
G1 X122.001 Y87.610 E0.01351
G1 X121.645 Y87.847 E0.01345
G1 X121.258 Y88.038 E0.01353
G1 X120.852 Y88.176 E0.01343
G1 X120.429 Y88.260 E0.01353
G1 X120.060 Y88.285 E0.01159
G1 X120.035 Y87.909 F10800.000
G1 F1200.000
G1 X119.620 Y87.885 E0.01301
G1 X119.246 Y87.811 E0.01198
G1 X118.887 Y87.689 E0.01187
G1 X118.544 Y87.520 E0.01199
G1 X118.229 Y87.310 E0.01189
G1 X117.942 Y87.058 E0.01197
G1 X117.690 Y86.771 E0.01196
G1 X117.480 Y86.456 E0.01189
G1 X117.311 Y86.113 E0.01199
G1 X117.189 Y85.755 E0.01184
G1 X117.115 Y85.385 E0.01184
G1 X117.089 Y85.000 E0.01210
G1 X117.115 Y84.615 E0.01211
G1 X117.189 Y84.245 E0.01183
G1 X117.311 Y83.887 E0.01184
G1 X117.480 Y83.544 E0.01199
G1 X117.690 Y83.229 E0.01189
G1 X117.942 Y82.942 E0.01197
G1 X118.229 Y82.690 E0.01196
G1 X118.544 Y82.480 E0.01189
G1 X118.887 Y82.311 E0.01199
G1 X119.246 Y82.189 E0.01187
G1 X119.621 Y82.115 E0.01199
G1 X120.000 Y82.089 E0.01192
G1 X120.380 Y82.115 E0.01193
G1 X120.754 Y82.189 E0.01198
G1 X121.113 Y82.311 E0.01187
G1 X121.456 Y82.480 E0.01199
G1 X121.771 Y82.690 E0.01189
G1 X122.058 Y82.942 E0.01197
G1 X122.310 Y83.229 E0.01196
G1 X122.520 Y83.544 E0.01189
G1 X122.689 Y83.887 E0.01199
G1 X122.811 Y84.245 E0.01184
G1 X122.885 Y84.615 E0.01184
G1 X122.911 Y85.000 E0.01210
G1 X122.885 Y85.385 E0.01211
G1 X122.811 Y85.755 E0.01183
G1 X122.689 Y86.113 E0.01184
G1 X122.520 Y86.456 E0.01199
G1 X122.310 Y86.771 E0.01189
G1 X122.058 Y87.058 E0.01197
G1 X121.771 Y87.310 E0.01196
G1 X121.456 Y87.520 E0.01189
G1 X121.113 Y87.689 E0.01199
G1 X120.754 Y87.811 E0.01187
G1 X120.379 Y87.885 E0.01199
G1 X120.094 Y87.905 E0.00895
G1 X119.837 Y88.257 F10800.000
G1 F8640.000
G1 X119.620 Y87.885 E-0.10955
G1 X119.246 Y87.811 E-0.08822
G1 X118.887 Y87.689 E-0.08744
G1 X118.544 Y87.520 E-0.08833
G1 X118.229 Y87.310 E-0.08753
G1 X117.942 Y87.058 E-0.08812
G1 X117.690 Y86.771 E-0.08806
G1 X117.480 Y86.456 E-0.08758
G1 X117.412 Y86.319 E-0.03517
G1 E-0.04000 F2100.00000
G1 Z0.600 F10800.000
G1 X120.000 Y55.289
G1 Z0.200
G1 E0.80000 F2100.00000
G1 F1200.000
G1 X119.571 Y55.260 E0.01348
G1 X119.148 Y55.176 E0.01352
G1 X118.742 Y55.038 E0.01343
G1 X118.355 Y54.847 E0.01353
G1 X117.998 Y54.610 E0.01344
G1 X117.675 Y54.325 E0.01351
G1 X117.390 Y54.001 E0.01351
G1 X117.153 Y53.645 E0.01345
G1 X116.962 Y53.258 E0.01353
G1 X116.824 Y52.853 E0.01339
G1 X116.741 Y52.435 E0.01338
G1 X116.711 Y52.000 E0.01367
G1 X116.741 Y51.565 E0.01368
G1 X116.824 Y51.147 E0.01337
G1 X116.962 Y50.742 E0.01340
G1 X117.153 Y50.355 E0.01353
G1 X117.390 Y49.998 E0.01344
G1 X117.675 Y49.675 E0.01351
G1 X117.999 Y49.390 E0.01351
G1 X118.355 Y49.153 E0.01345
G1 X118.742 Y48.962 E0.01353
G1 X119.148 Y48.824 E0.01343
G1 X119.571 Y48.740 E0.01353
G1 X120.000 Y48.711 E0.01347
G1 X120.429 Y48.740 E0.01348
G1 X120.852 Y48.824 E0.01352
G1 X121.258 Y48.962 E0.01343
G1 X121.645 Y49.153 E0.01353
G1 X122.002 Y49.390 E0.01344
G1 X122.325 Y49.675 E0.01351
G1 X122.610 Y49.999 E0.01351
G1 X122.847 Y50.355 E0.01345
G1 X123.038 Y50.742 E0.01353
G1 X123.176 Y51.147 E0.01339
G1 X123.259 Y51.565 E0.01338
G1 X123.289 Y52.000 E0.01367
G1 X123.259 Y52.435 E0.01368
G1 X123.176 Y52.853 E0.01337
G1 X123.038 Y53.258 E0.01340
G1 X122.847 Y53.645 E0.01353
G1 X122.610 Y54.002 E0.01344
G1 X122.325 Y54.325 E0.01351
G1 X122.001 Y54.610 E0.01351
G1 X121.645 Y54.847 E0.01345
G1 X121.258 Y55.038 E0.01353
G1 X120.852 Y55.176 E0.01343
G1 X120.429 Y55.260 E0.01353
G1 X120.060 Y55.285 E0.01159
G1 X120.035 Y54.909 F10800.000
G1 F1200.000
G1 X119.620 Y54.885 E0.01301
G1 X119.246 Y54.811 E0.01198
G1 X118.887 Y54.689 E0.01187
G1 X118.544 Y54.520 E0.01199
G1 X118.229 Y54.310 E0.01189
G1 X117.942 Y54.058 E0.01197
G1 X117.690 Y53.771 E0.01196
G1 X117.480 Y53.456 E0.01189
G1 X117.311 Y53.113 E0.01199
G1 X117.189 Y52.755 E0.01184
G1 X117.115 Y52.385 E0.01184
G1 X117.089 Y52.000 E0.01210
G1 X117.115 Y51.615 E0.01211
G1 X117.189 Y51.245 E0.01183
G1 X117.311 Y50.887 E0.01184
G1 X117.480 Y50.544 E0.01199
G1 X117.690 Y50.229 E0.01189
G1 X117.942 Y49.942 E0.01197
G1 X118.229 Y49.690 E0.01196
G1 X118.544 Y49.480 E0.01189
G1 X118.887 Y49.311 E0.01199
G1 X119.246 Y49.189 E0.01187
G1 X119.621 Y49.115 E0.01199
G1 X120.000 Y49.089 E0.01192
G1 X120.380 Y49.115 E0.01193
G1 X120.754 Y49.189 E0.01198
G1 X121.113 Y49.311 E0.01187
G1 X121.456 Y49.480 E0.01199
G1 X121.771 Y49.690 E0.01189
G1 X122.058 Y49.942 E0.01197
G1 X122.310 Y50.229 E0.01196
G1 X122.520 Y50.544 E0.01189
G1 X122.689 Y50.887 E0.01199
G1 X122.811 Y51.245 E0.01184
G1 X122.885 Y51.615 E0.01184
G1 X122.911 Y52.000 E0.01210
G1 X122.885 Y52.385 E0.01211
G1 X122.811 Y52.755 E0.01183
G1 X122.689 Y53.113 E0.01184
G1 X122.520 Y53.456 E0.01199
G1 X122.310 Y53.771 E0.01189
G1 X122.058 Y54.058 E0.01197
G1 X121.771 Y54.310 E0.01196
G1 X121.456 Y54.520 E0.01189
G1 X121.113 Y54.689 E0.01199
G1 X120.754 Y54.811 E0.01187
G1 X120.379 Y54.885 E0.01199
G1 X120.094 Y54.905 E0.00895
G1 X119.837 Y55.257 F10800.000
G1 F8640.000
G1 X119.620 Y54.885 E-0.10956
